luts/VLog/in-VLog.AgX_look2-BT2020.out-sRGB.cube
TITLE "in-VLog.AgX_look2-BT2020.out-sRGB"
# author = Liam Collod
# LUT resolution = 33
# LUT domain = [[ 0.  0.  0.] [ 1.  1.  1.]]
LUT_3D_SIZE 9
0.0000000 0.0000000 0.0000000
0.0003814 0.0000000 0.0000000
0.1390309 0.0000000 0.0000000
0.4895810 0.0000000 0.0000000
0.8320043 0.1915213 0.1080804
1.0000000 0.4906125 0.3605393
1.0000000 0.7158371 0.5757319
1.0000000 0.8316517 0.7083328
1.0000000 0.8336935 0.7109429
0.0000000 0.0014689 0.0000000
0.0000000 0.0009637 0.0000000
0.1371874 0.0000000 0.0000000
0.4888385 0.0000000 0.0000000
0.8318358 0.1913198 0.1079388
1.0000000 0.4905655 0.3604962
1.0000000 0.7158276 0.5757221
1.0000000 0.8316510 0.7083318
1.0000000 0.8336935 0.7109429
0.0000000 0.1333469 0.0000000
0.0000000 0.1304145 0.0000000
0.0952476 0.1323818 0.0000000
0.4766823 0.1242416 0.0000000
0.8267351 0.2423606 0.1033997
1.0000000 0.4905076 0.3604432
1.0000000 0.7158160 0.5757099
1.0000000 0.8316501 0.7083307
1.0000000 0.8336935 0.7109429
0.0000000 0.4067419 0.0000000
0.0000000 0.4054840 0.0000000
0.0000000 0.4052575 0.0000000
0.4048670 0.4007847 0.0000000
0.7970444 0.4226274 0.0805734
1.0000000 0.5436907 0.3596814
1.0000000 0.7157808 0.5756733
1.0000000 0.8316475 0.7083274
1.0000000 0.8336935 0.7109429
0.0000000 0.6788269 0.0000000
0.0000000 0.6784943 0.0000000
0.0000000 0.6772796 0.0000000
0.1259201 0.6706522 0.0000000
0.7197584 0.6624061 0.0963345
0.9847897 0.6912623 0.3652458
1.0000000 0.7724365 0.5775286
1.0000000 0.8316388 0.7083163
1.0000000 0.8336935 0.7109429
0.0000000 0.8864143 0.1871927
0.0000000 0.8863526 0.1870489
0.0000000 0.8858248 0.1880102
0.0000000 0.8807504 0.2020401
0.6068019 0.8673821 0.2684264
0.9186821 0.8598109 0.4168385
1.0000000 0.8762745 0.5947088
1.0000000 0.8950565 0.7153255
1.0000000 0.8341186 0.7109633
0.0000000 0.9879425 0.4638166
0.0000000 0.9879354 0.4637889
0.0000000 0.9879267 0.4637549
0.0000000 0.9860950 0.4654249
0.5485898 0.9752422 0.4819682
0.8672597 0.9613874 0.5424014
0.9915936 0.9575562 0.6522179
1.0000000 0.9601169 0.7440508
1.0000000 0.9498984 0.7384577
0.3425252 1.0000000 0.6383865
0.3425184 1.0000000 0.6383841
0.3425102 1.0000000 0.6383812
0.3424851 1.0000000 0.6383724
0.5446177 1.0000000 0.6423649
0.8428454 1.0000000 0.6685936
0.9706713 0.9946529 0.7290093
1.0000000 0.9935414 0.7897788
1.0000000 0.9926884 0.7896248
0.3439179 1.0000000 0.6388769
0.3439179 1.0000000 0.6388769
0.3439179 1.0000000 0.6388769
0.3439179 1.0000000 0.6388769
0.3439179 1.0000000 0.6388769
0.7722228 1.0000000 0.6575760
0.9645749 0.9951010 0.7237776
1.0000000 0.9938845 0.7897584
1.0000000 0.9939063 0.7921909
0.0000000 0.0000000 0.0000272
0.0000006 0.0000000 0.0000161
0.1312234 0.0000000 0.0000000
0.4859926 0.0000000 0.0000000
0.8311925 0.1905504 0.1073988
1.0000000 0.4903862 0.3603318
1.0000000 0.7157916 0.5756845
1.0000000 0.8316483 0.7083284
1.0000000 0.8336935 0.7109429
0.0000000 0.0000329 0.0000000
0.0000000 0.0000000 0.0000000
0.1294029 0.0000000 0.0000000
0.4852406 0.0000000 0.0000000
0.8310232 0.1903480 0.1072568
1.0000000 0.4903391 0.3602886
1.0000000 0.7157821 0.5756746
1.0000000 0.8316476 0.7083275
1.0000000 0.8336935 0.7109429
0.0000000 0.1211876 0.0000000
0.0000000 0.1178875 0.0000000
0.0917217 0.1199424 0.0000000
0.4744364 0.1090531 0.0000000
0.8266054 0.2351442 0.1032944
1.0000000 0.4902812 0.3602356
1.0000000 0.7157705 0.5756625
1.0000000 0.8316467 0.7083264
1.0000000 0.8336935 0.7109429
0.0000000 0.4020002 0.0000000
0.0000000 0.4007159 0.0000000
0.0000000 0.4004895 0.0000000
0.4024904 0.3961089 0.0000000
0.7969577 0.4186903 0.0800401
1.0000000 0.5418153 0.3594777
1.0000000 0.7157353 0.5756258
1.0000000 0.8316441 0.7083230
1.0000000 0.8336935 0.7109429
0.0000000 0.6775794 0.0000000
0.0000000 0.6772445 0.0000000
0.0000000 0.6760928 0.0000000
0.1127643 0.6694827 0.0000000
0.7192044 0.6611944 0.0947968
0.9849424 0.6903117 0.3649451
1.0000000 0.7719564 0.5774530
1.0000000 0.8316353 0.7083119
1.0000000 0.8336935 0.7109429
0.0000000 0.8861832 0.1866542
0.0000000 0.8861212 0.1865100
0.0000000 0.8856465 0.1873381
0.0000000 0.8806001 0.2012530
0.6056491 0.8671842 0.2677881
0.9186172 0.8595914 0.4165435
1.0000000 0.8761113 0.5946130
1.0000000 0.8949416 0.7152981
1.0000000 0.8339964 0.7109574
0.0000000 0.9879159 0.4637130
0.0000000 0.9879088 0.4636853
0.0000000 0.9879001 0.4636512
0.0000000 0.9861190 0.4652686
0.5472941 0.9752548 0.4817807
0.8670998 0.9613656 0.5422550
0.9915900 0.9575290 0.6521508
1.0000000 0.9600937 0.7440280
1.0000000 0.9498660 0.7384365
0.3425000 1.0000000 0.6383776
0.3424932 1.0000000 0.6383752
0.3424849 1.0000000 0.6383723
0.3424597 1.0000000 0.6383635
0.5435590 1.0000000 0.6423229
0.8426716 1.0000000 0.6685484
0.9706539 0.9946520 0.7289852
1.0000000 0.9935395 0.7897724
1.0000000 0.9926858 0.7896194
0.3439179 1.0000000 0.6388769
0.3439179 1.0000000 0.6388769
0.3439179 1.0000000 0.6388769
0.3439179 1.0000000 0.6388769
0.3439179 1.0000000 0.6388769
0.7719007 1.0000000 0.6575366
0.9645528 0.9951021 0.7237575
1.0000000 0.9938845 0.7897556
1.0000000 0.9939063 0.7921909
0.0000000 0.0092922 0.1069447
0.0000000 0.0091350 0.1059133
0.1280571 0.0041070 0.1085931
0.4818762 0.0000000 0.1208900
0.8286280 0.2045677 0.1949739
1.0000000 0.4919148 0.3774403
1.0000000 0.7157356 0.5756262
1.0000000 0.8316441 0.7083230
1.0000000 0.8336935 0.7109429
0.0000000 0.0086158 0.1024188
0.0000000 0.0084664 0.1013872
0.1262496 0.0034155 0.1040751
0.4811296 0.0000000 0.1164209
0.8285267 0.2037468 0.1918200
1.0000000 0.4917649 0.3764472
1.0000000 0.7157261 0.5756163
1.0000000 0.8316434 0.7083221
1.0000000 0.8336935 0.7109429
0.0000000 0.1285013 0.0943062
0.0000000 0.1251742 0.0934175
0.0852486 0.1262265 0.0956008
0.4711179 0.1162196 0.1065304
0.8250269 0.2373778 0.1864159
1.0000000 0.4915840 0.3752508
1.0000000 0.7157145 0.5756041
1.0000000 0.8316425 0.7083210
1.0000000 0.8336935 0.7109429
0.0000000 0.4015975 0.0083358
0.0000000 0.4002592 0.0068561
0.0000000 0.3997848 0.0108309
0.3991555 0.3951824 0.0370310
0.7958934 0.4172559 0.1634453
1.0000000 0.5404492 0.3711248
1.0000000 0.7156793 0.5755675
1.0000000 0.8316398 0.7083176
1.0000000 0.8336935 0.7109429
0.0000000 0.6765929 0.0000000
0.0000000 0.6762475 0.0000000
0.0000000 0.6751489 0.0000000
0.0954974 0.6685394 0.0000000
0.7182359 0.6600992 0.1341977
0.9850506 0.6892407 0.3675654
1.0000000 0.7713642 0.5773602
1.0000000 0.8316311 0.7083065
1.0000000 0.8336935 0.7109429
0.0000000 0.8858981 0.1859901
0.0000000 0.8858360 0.1858453
0.0000000 0.8854243 0.1865145
0.0000000 0.8804147 0.2002828
0.6042237 0.8669401 0.2670010
0.9185374 0.8593207 0.4161805
1.0000000 0.8759103 0.5944952
1.0000000 0.8948001 0.7152645
1.0000000 0.8338573 0.7109507
0.0000000 0.9878832 0.4635855
0.0000000 0.9878761 0.4635578
0.0000000 0.9878674 0.4635237
0.0000000 0.9861480 0.4650771
0.5456918 0.9752703 0.4815502
0.8669029 0.9613388 0.5420750
0.9915856 0.9574956 0.6520683
1.0000000 0.9600653 0.7439999
1.0000000 0.9498261 0.7384104
0.3424688 1.0000000 0.6383667
0.3424621 1.0000000 0.6383643
0.3424537 1.0000000 0.6383614
0.3424284 1.0000000 0.6383525
0.5422524 1.0000000 0.6422713
0.8424577 1.0000000 0.6684927
0.9706325 0.9946509 0.7289556
1.0000000 0.9935372 0.7897644
1.0000000 0.9926826 0.7896127
0.3439179 1.0000000 0.6388769
0.3439179 1.0000000 0.6388769
0.3439179 1.0000000 0.6388769
0.3439179 1.0000000 0.6388769
0.3439179 1.0000000 0.6388769
0.7715037 1.0000000 0.6574881
0.9645256 0.9951034 0.7237327
1.0000000 0.9938845 0.7897522
1.0000000 0.9939063 0.7921909
0.0000000 0.1959167 0.4674318
0.0000000 0.1955555 0.4669911
0.0602610 0.1967991 0.4667739
0.4602261 0.2032011 0.4671822
0.8127651 0.3002586 0.4766213
1.0000000 0.5138862 0.5244238
1.0000000 0.7200929 0.6227397
1.0000000 0.8316602 0.7087232
1.0000000 0.8336935 0.7109429
0.0000000 0.1943295 0.4654926
0.0000000 0.1939668 0.4650485
0.0571448 0.1952089 0.4648294
0.4595739 0.2015768 0.4652626
0.8127199 0.2992557 0.4748546
1.0000000 0.5135816 0.5231477
1.0000000 0.7200167 0.6221072
1.0000000 0.8316543 0.7086485
1.0000000 0.8336935 0.7109429
0.0000000 0.2370864 0.4621650
0.0000000 0.2349789 0.4617588
0.0000000 0.2339013 0.4615776
0.4523752 0.2331468 0.4621671
0.8116108 0.3054066 0.4724561
1.0000000 0.5132078 0.5215732
1.0000000 0.7199234 0.6213306
1.0000000 0.8316476 0.7085624
1.0000000 0.8336935 0.7109429
0.0000000 0.4323253 0.4480311
0.0000000 0.4311364 0.4476095
0.0000000 0.4297555 0.4474311
0.3831065 0.4244636 0.4484264
0.7855419 0.4407634 0.4611117
1.0000000 0.5510569 0.5155883
1.0000000 0.7196439 0.6189892
1.0000000 0.8316302 0.7083456
1.0000000 0.8336935 0.7109429
0.0000000 0.6813672 0.4147321
0.0000000 0.6810172 0.4142251
0.0000000 0.6800204 0.4139506
0.0538216 0.6736522 0.4156997
0.7106540 0.6649695 0.4328250
0.9810190 0.6923235 0.4980921
1.0000000 0.7717657 0.6122876
1.0000000 0.8316184 0.7082902
1.0000000 0.8336935 0.7109429
0.0000000 0.8854963 0.3728684
0.0000000 0.8854322 0.3723377
0.0000000 0.8851977 0.3718109
0.0000000 0.8804411 0.3744042
0.5986705 0.8669888 0.3969329
0.9167133 0.8592063 0.4758354
1.0000000 0.8755463 0.6063159
1.0000000 0.8943703 0.7151631
1.0000000 0.8336935 0.7109429
0.0000000 0.9877841 0.4631996
0.0000000 0.9877770 0.4631717
0.0000000 0.9877682 0.4631376
0.0000000 0.9862324 0.4645022
0.5407800 0.9753182 0.4808524
0.8663049 0.9612576 0.5415297
0.9915722 0.9573943 0.6518185
1.0000000 0.9599790 0.7439149
1.0000000 0.9497052 0.7383315
0.3423739 1.0000000 0.6383333
0.3423671 1.0000000 0.6383309
0.3423586 1.0000000 0.6383280
0.3423330 1.0000000 0.6383189
0.5382655 1.0000000 0.6421157
0.8418082 1.0000000 0.6683243
0.9705677 0.9946475 0.7288658
1.0000000 0.9935301 0.7897402
1.0000000 0.9926729 0.7895926
0.3439179 1.0000000 0.6388769
0.3439179 1.0000000 0.6388769
0.3439179 1.0000000 0.6388769
0.3439179 1.0000000 0.6388769
0.3439179 1.0000000 0.6388769
0.7702967 1.0000000 0.6573414
0.9644433 0.9951074 0.7236578
1.0000000 0.9938844 0.7897419
1.0000000 0.9939063 0.7921909
0.0825192 0.5062343 0.7811719
0.0822478 0.5061305 0.7810826
0.1107869 0.5059312 0.7809528
0.4125818 0.5044902 0.7800619
0.7658835 0.5189681 0.7781451
0.9980097 0.6080131 0.7802096
1.0000000 0.7504161 0.7955345
1.0000000 0.8415345 0.8087976
1.0000000 0.8340978 0.7167141
0.0813231 0.5057783 0.7807798
0.0810486 0.5056742 0.7806903
0.1084077 0.5054787 0.7805612
0.4118016 0.5040355 0.7796706
0.7657624 0.5185453 0.7777547
0.9980515 0.6077615 0.7798418
1.0000000 0.7503234 0.7952335
1.0000000 0.8414998 0.8085535
1.0000000 0.8340840 0.7165206
0.0798341 0.5052164 0.7802964
0.0795555 0.5051120 0.7802065
0.1054373 0.5049211 0.7800785
0.4108398 0.5034752 0.7791880
0.7656135 0.5180246 0.7772733
0.9981030 0.6074518 0.7793885
1.0000000 0.7502095 0.7948625
1.0000000 0.8414571 0.8082529
1.0000000 0.8340674 0.7162865
0.0000000 0.5587482 0.7763957
0.0000000 0.5581617 0.7763274
0.0000000 0.5573757 0.7762315
0.3754939 0.5532013 0.7754954
0.7531937 0.5556196 0.7741358
0.9949951 0.6186682 0.7774563
1.0000000 0.7498646 0.7937346
1.0000000 0.8413283 0.8073403
1.0000000 0.8340189 0.7156037
0.0000000 0.7169512 0.7632424
0.0000000 0.7166714 0.7631585
0.0000000 0.7163174 0.7630544
0.1819820 0.7119059 0.7624894
0.6926228 0.7035096 0.7620267
0.9628648 0.7222278 0.7679934
1.0000000 0.7874202 0.7885219
1.0000000 0.8409046 0.8042916
1.0000000 0.8338798 0.7136287
0.0000000 0.8888391 0.7399823
0.0000000 0.8887776 0.7398754
0.0000000 0.8887019 0.7397438
0.0000000 0.8856156 0.7393806
0.5926526 0.8736341 0.7399480
0.9050519 0.8657178 0.7491989
1.0000000 0.8800878 0.7755515
1.0000000 0.8964348 0.7953383
1.0000000 0.8336935 0.7109429
0.0000000 0.9861058 0.6995293
0.0000000 0.9860997 0.6993992
0.0000000 0.9860921 0.6992392
0.0000000 0.9852250 0.6988999
0.5348481 0.9751393 0.7006843
0.8595518 0.9614082 0.7143000
0.9873959 0.9575903 0.7495646
1.0000000 0.9599756 0.7780626
1.0000000 0.9493038 0.7380712
0.3420527 1.0000000 0.6382205
0.3420456 1.0000000 0.6382180
0.3420367 1.0000000 0.6382149
0.3420101 1.0000000 0.6382056
0.5247287 1.0000000 0.6416060
0.8396375 1.0000000 0.6677660
0.9703536 0.9946360 0.7285685
1.0000000 0.9935064 0.7896601
1.0000000 0.9926407 0.7895262
0.3439179 1.0000000 0.6388769
0.3439179 1.0000000 0.6388769
0.3439179 1.0000000 0.6388769
0.3439179 1.0000000 0.6388769
0.3439179 1.0000000 0.6388769
0.7662446 1.0000000 0.6568584
0.9641709 0.9951206 0.7234106
1.0000000 0.9938841 0.7897079
1.0000000 0.9939063 0.7921909
0.4555570 0.7502283 0.9423588
0.4555264 0.7502071 0.9423490
0.4554889 0.7501809 0.9423369
0.4814690 0.7496843 0.9421709
0.7185502 0.7469895 0.9403862
0.9471224 0.7650863 0.9373285
1.0000000 0.8234830 0.9355434
1.0000000 0.8759626 0.9348647
1.0000000 0.8696833 0.9187443
0.4554229 0.7501350 0.9423157
0.4553923 0.7501137 0.9423059
0.4553547 0.7500875 0.9422938
0.4811025 0.7495947 0.9421290
0.7183711 0.7468963 0.9403439
0.9471150 0.7650044 0.9372848
1.0000000 0.8234378 0.9355006
1.0000000 0.8759404 0.9348233
1.0000000 0.8696584 0.9186845
0.4552579 0.7500201 0.9422627
0.4552273 0.7499988 0.9422528
0.4551897 0.7499726 0.9422407
0.4806524 0.7494845 0.9420773
0.7181506 0.7467818 0.9402918
0.9471059 0.7649037 0.9372309
1.0000000 0.8233823 0.9354478
1.0000000 0.8759131 0.9347723
1.0000000 0.8696279 0.9186110
0.4547583 0.7496722 0.9421018
0.4547276 0.7496508 0.9420920
0.4546899 0.7496245 0.9420798
0.4792924 0.7491506 0.9419209
0.7174825 0.7464348 0.9401340
0.9470785 0.7645985 0.9370677
1.0000000 0.8232141 0.9352881
1.0000000 0.8758304 0.9346177
1.0000000 0.8695354 0.9183879
0.4119252 0.8019856 0.9381476
0.4119828 0.8018492 0.9381453
0.4120537 0.8016813 0.9381424
0.4362884 0.8007385 0.9380381
0.6914139 0.7943376 0.9365521
0.9334093 0.7987518 0.9343584
1.0000000 0.8346220 0.9340127
1.0000000 0.8755573 0.9341046
1.0000000 0.8692298 0.9176460
0.3275166 0.9055328 0.9290687
0.3274696 0.9054881 0.9290599
0.3274118 0.9054332 0.9290492
0.3440473 0.9049786 0.9289758
0.6298362 0.8971665 0.9278459
0.8930430 0.8893403 0.9267259
1.0000000 0.8983304 0.9283707
1.0000000 0.9104577 0.9304588
1.0000000 0.8682113 0.9151208
0.3667004 0.9832478 0.9184254
0.3666298 0.9832414 0.9184124
0.3665429 0.9832335 0.9183965
0.3662801 0.9832095 0.9183484
0.5886061 0.9769914 0.9176202
0.8555521 0.9653404 0.9172549
0.9779848 0.9615757 0.9203375
1.0000000 0.9634606 0.9235394
1.0000000 0.9528178 0.9041660
0.4904998 1.0000000 0.8940632
0.4904691 1.0000000 0.8940437
0.4904315 1.0000000 0.8940196
0.4903175 1.0000000 0.8939470
0.5641036 1.0000000 0.8936186
0.8341414 1.0000000 0.8940892
0.9623708 0.9948966 0.8993767
1.0000000 0.9938588 0.9044667
1.0000000 0.9927426 0.8765008
0.3439179 1.0000000 0.6388769
0.3439179 1.0000000 0.6388769
0.3439179 1.0000000 0.6388769
0.3439179 1.0000000 0.6388769
0.3439179 1.0000000 0.6388769
0.7520006 1.0000000 0.6552665
0.9632578 0.9951652 0.7225901
1.0000000 0.9938832 0.7895945
1.0000000 0.9939063 0.7921909
0.6769960 0.8848343 0.9934422
0.6769907 0.8848316 0.9934413
0.6769841 0.8848282 0.9934403
0.6769641 0.8848179 0.9934370
0.7180924 0.8835605 0.9930958
0.9068249 0.8815598 0.9910013
1.0000000 0.8975818 0.9889652
1.0000000 0.9201480 0.9877843
1.0000000 0.9189883 0.9863045
0.6769725 0.8848222 0.9934384
0.6769671 0.8848194 0.9934375
0.6769605 0.8848160 0.9934365
0.6769406 0.8848057 0.9934333
0.7179743 0.8835511 0.9930928
0.9067978 0.8815471 0.9909977
1.0000000 0.8975719 0.9889610
1.0000000 0.9201422 0.9877801
1.0000000 0.9189823 0.9862998
0.6769435 0.8848073 0.9934337
0.6769382 0.8848045 0.9934329
0.6769316 0.8848011 0.9934318
0.6769116 0.8847908 0.9934286
0.7178292 0.8835396 0.9930891
0.9067645 0.8815314 0.9909932
1.0000000 0.8975597 0.9889560
1.0000000 0.9201351 0.9877749
1.0000000 0.9189749 0.9862939
0.6768560 0.8847621 0.9934196
0.6768506 0.8847593 0.9934187
0.6768440 0.8847559 0.9934177
0.6768240 0.8847456 0.9934145
0.7173901 0.8835048 0.9930780
0.9066637 0.8814839 0.9909796
1.0000000 0.8975230 0.9889407
1.0000000 0.9201135 0.9877591
1.0000000 0.9189525 0.9862762
0.6765670 0.8846130 0.9933730
0.6765616 0.8846102 0.9933721
0.6765549 0.8846068 0.9933711
0.6765349 0.8845964 0.9933678
0.7159409 0.8833898 0.9930412
0.9063304 0.8813272 0.9909348
1.0000000 0.8974016 0.9888903
1.0000000 0.9200422 0.9877070
1.0000000 0.9188788 0.9862177
0.6571487 0.9291300 0.9897605
0.6571499 0.9291042 0.9897615
0.6571515 0.9290725 0.9897626
0.6571562 0.9289765 0.9897661
0.6923697 0.9273799 0.9895374
0.8874876 0.9202731 0.9879020
0.9949544 0.9237435 0.9868036
1.0000000 0.9314525 0.9867101
1.0000000 0.9186341 0.9860231
0.6561082 0.9831844 0.9848697
0.6560983 0.9831791 0.9848690
0.6560861 0.9831724 0.9848681
0.6560493 0.9831525 0.9848654
0.6749868 0.9823085 0.9847446
0.8619900 0.9735290 0.9835075
0.9734509 0.9696286 0.9830888
1.0000000 0.9708001 0.9835467
1.0000000 0.9630402 0.9823558
0.6931642 1.0000000 0.9809083
0.6931578 1.0000000 0.9809071
0.6931500 1.0000000 0.9809055
0.6931263 1.0000000 0.9809008
0.6930483 1.0000000 0.9808854
0.8462068 1.0000000 0.9799751
0.9598215 0.9976683 0.9798417
1.0000000 0.9965761 0.9805887
1.0000000 0.9956128 0.9787965
0.6547408 1.0000000 0.9698987
0.6547329 1.0000000 0.9698963
0.6547232 1.0000000 0.9698934
0.6546938 1.0000000 0.9698845
0.6545969 1.0000000 0.9698553
0.7743461 1.0000000 0.9691559
0.9529185 0.9975292 0.9690001
1.0000000 0.9963213 0.9702499
1.0000000 0.9961213 0.9669363
0.7729602 0.9308938 1.0000000
0.7729600 0.9308937 1.0000000
0.7729596 0.9308935 1.0000000
0.7729586 0.9308931 1.0000000
0.7729553 0.9308916 1.0000000
0.8502418 0.9282771 1.0000000
0.9880675 0.9316620 1.0000000
1.0000000 0.9444503 1.0000000
1.0000000 0.9450074 1.0000000
0.7729590 0.9308933 1.0000000
0.7729588 0.9308932 1.0000000
0.7729584 0.9308930 1.0000000
0.7729574 0.9308926 1.0000000
0.7729541 0.9308911 1.0000000
0.8502013 0.9282776 1.0000000
0.9880639 0.9316609 1.0000000
1.0000000 0.9444498 1.0000000
1.0000000 0.9450070 1.0000000
0.7729576 0.9308926 1.0000000
0.7729573 0.9308925 1.0000000
0.7729570 0.9308924 1.0000000
0.7729559 0.9308919 1.0000000
0.7729526 0.9308904 1.0000000
0.8501516 0.9282783 1.0000000
0.9880595 0.9316595 1.0000000
1.0000000 0.9444492 1.0000000
1.0000000 0.9450065 1.0000000
0.7729531 0.9308906 1.0000000
0.7729528 0.9308905 1.0000000
0.7729525 0.9308904 1.0000000
0.7729515 0.9308899 1.0000000
0.7729481 0.9308884 1.0000000
0.8500011 0.9282804 1.0000000
0.9880462 0.9316555 1.0000000
1.0000000 0.9444474 1.0000000
1.0000000 0.9450051 1.0000000
0.7729384 0.9308841 1.0000000
0.7729381 0.9308839 1.0000000
0.7729378 0.9308838 1.0000000
0.7729368 0.9308833 1.0000000
0.7729334 0.9308818 1.0000000
0.8495044 0.9282873 1.0000000
0.9880024 0.9316421 1.0000000
1.0000000 0.9444415 1.0000000
1.0000000 0.9450006 1.0000000
0.7728895 0.9308622 1.0000000
0.7728893 0.9308621 1.0000000
0.7728889 0.9308619 1.0000000
0.7728879 0.9308615 1.0000000
0.7728845 0.9308600 1.0000000
0.8478538 0.9283105 1.0000000
0.9878576 0.9315978 1.0000000
1.0000000 0.9444220 1.0000000
1.0000000 0.9449853 1.0000000
0.7624050 0.9802518 1.0000000
0.7624040 0.9802463 1.0000000
0.7624029 0.9802397 1.0000000
0.7623994 0.9802194 1.0000000
0.7623881 0.9801527 1.0000000
0.8260852 0.9769059 1.0000000
0.9692302 0.9711943 1.0000000
1.0000000 0.9723623 1.0000000
1.0000000 0.9650734 1.0000000
0.7817462 1.0000000 1.0000000
0.7817451 1.0000000 1.0000000
0.7817437 1.0000000 1.0000000
0.7817395 1.0000000 1.0000000
0.7817255 1.0000000 1.0000000
0.8166504 1.0000000 1.0000000
0.9557197 1.0000000 0.9994964
0.9991308 0.9986702 0.9996647
1.0000000 0.9978265 0.9996436
0.7812564 1.0000000 1.0000000
0.7812560 1.0000000 1.0000000
0.7812555 1.0000000 1.0000000
0.7812540 1.0000000 1.0000000
0.7812489 1.0000000 1.0000000
0.7812321 1.0000000 1.0000000
0.9486887 1.0000000 0.9990345
0.9981542 0.9998566 0.9991852
0.9999594 0.9998443 0.9991013
0.7744613 0.9315639 1.0000000
0.7744613 0.9315639 1.0000000
0.7744613 0.9315639 1.0000000
0.7744613 0.9315639 1.0000000
0.7744613 0.9315639 1.0000000
0.7744613 0.9315639 1.0000000
0.9405341 0.9283250 1.0000000
1.0000000 0.9437141 1.0000000
1.0000000 0.9455698 1.0000000
0.7744613 0.9315639 1.0000000
0.7744613 0.9315639 1.0000000
0.7744613 0.9315639 1.0000000
0.7744613 0.9315639 1.0000000
0.7744613 0.9315639 1.0000000
0.7744613 0.9315639 1.0000000
0.9405216 0.9283246 1.0000000
1.0000000 0.9437138 1.0000000
1.0000000 0.9455698 1.0000000
0.7744613 0.9315639 1.0000000
0.7744613 0.9315639 1.0000000
0.7744613 0.9315639 1.0000000
0.7744613 0.9315639 1.0000000
0.7744613 0.9315639 1.0000000
0.7744613 0.9315639 1.0000000
0.9405062 0.9283242 1.0000000
1.0000000 0.9437136 1.0000000
1.0000000 0.9455698 1.0000000
0.7744613 0.9315639 1.0000000
0.7744613 0.9315639 1.0000000
0.7744613 0.9315639 1.0000000
0.7744613 0.9315639 1.0000000
0.7744613 0.9315639 1.0000000
0.7744613 0.9315639 1.0000000
0.9404595 0.9283228 1.0000000
1.0000000 0.9437128 1.0000000
1.0000000 0.9455698 1.0000000
0.7744613 0.9315639 1.0000000
0.7744613 0.9315639 1.0000000
0.7744613 0.9315639 1.0000000
0.7744613 0.9315639 1.0000000
0.7744613 0.9315639 1.0000000
0.7744613 0.9315639 1.0000000
0.9403055 0.9283182 1.0000000
1.0000000 0.9437103 1.0000000
1.0000000 0.9455698 1.0000000
0.7744613 0.9315639 1.0000000
0.7744613 0.9315639 1.0000000
0.7744613 0.9315639 1.0000000
0.7744613 0.9315639 1.0000000
0.7744613 0.9315639 1.0000000
0.7744613 0.9315639 1.0000000
0.9397952 0.9283033 1.0000000
1.0000000 0.9437019 1.0000000
1.0000000 0.9455698 1.0000000
0.7744613 0.9315639 1.0000000
0.7744613 0.9315639 1.0000000
0.7744613 0.9315639 1.0000000
0.7744613 0.9315639 1.0000000
0.7744613 0.9315639 1.0000000
0.7744613 0.9315639 1.0000000
0.9380801 0.9282559 1.0000000
1.0000000 0.9436742 1.0000000
1.0000000 0.9455698 1.0000000
0.7780252 1.0000000 1.0000000
0.7780240 1.0000000 1.0000000
0.7780224 1.0000000 1.0000000
0.7780177 1.0000000 1.0000000
0.7780022 1.0000000 1.0000000
0.7779510 1.0000000 1.0000000
0.9057053 0.9983652 1.0000000
0.9985512 0.9946709 1.0000000
1.0000000 0.9932359 1.0000000
0.7854352 1.0000000 1.0000000
0.7854352 1.0000000 1.0000000
0.7854352 1.0000000 1.0000000
0.7854352 1.0000000 1.0000000
0.7854352 1.0000000 1.0000000
0.7854352 1.0000000 1.0000000
0.8834713 1.0000000 1.0000000
0.9954882 1.0000000 0.9999614
0.9999311 1.0000000 1.0000000
