luts/VLog/in-VLog.AgX_look1-BT2020.out-sRGB.cube
TITLE "in-VLog.AgX_look1-BT2020.out-sRGB"
# author = Liam Collod
# LUT resolution = 33
# LUT domain = [[ 0.  0.  0.] [ 1.  1.  1.]]
LUT_3D_SIZE 5
0.0000000 0.0000000 0.0000000
0.1971902 0.0000000 0.0000000
0.7379631 0.0718080 0.0351299
1.0000000 0.6093126 0.4706071
1.0000000 0.9478531 0.8753675
0.0000000 0.1431602 0.0000000
0.1634360 0.1440845 0.0000000
0.7306444 0.1821891 0.0206801
1.0000000 0.6092833 0.4705794
1.0000000 0.9478522 0.8753660
0.0000000 0.6009560 0.0000000
0.0000000 0.5993912 0.0000000
0.6320509 0.5885026 0.0000000
1.0000000 0.6854980 0.4713507
1.0000000 0.9478457 0.8753553
0.0000000 0.9609403 0.3731323
0.0000000 0.9609142 0.3730554
0.4019906 0.9498981 0.3916529
0.9581666 0.9301330 0.5516437
1.0000000 0.9700397 0.8789613
0.7606427 1.0000000 0.8437843
0.7606360 1.0000000 0.8437803
0.7605884 1.0000000 0.8437515
0.9297747 1.0000000 0.8543751
1.0000000 1.0000000 0.9274806
0.0000000 0.0200345 0.1593964
0.1877444 0.0114612 0.1622224
0.7339272 0.1207185 0.2011839
1.0000000 0.6091717 0.4704738
1.0000000 0.9478487 0.8753603
0.0000000 0.1522910 0.1492511
0.1515523 0.1515747 0.1515725
0.7286211 0.1857571 0.1918160
1.0000000 0.6091424 0.4704461
1.0000000 0.9478478 0.8753588
0.0000000 0.6002322 0.0000000
0.0000000 0.5987163 0.0000000
0.6304247 0.5874094 0.0979923
1.0000000 0.6842278 0.4711748
1.0000000 0.9478413 0.8753482
0.0000000 0.9608427 0.3728443
0.0000000 0.9608165 0.3727673
0.3988375 0.9498643 0.3912220
0.9581405 0.9300365 0.5514471
1.0000000 0.9700092 0.8789475
0.7606178 1.0000000 0.8437693
0.7606111 1.0000000 0.8437652
0.7605635 1.0000000 0.8437364
0.9297176 1.0000000 0.8543530
1.0000000 1.0000000 0.9274734
0.0000000 0.3433994 0.6278853
0.0000000 0.3432980 0.6276919
0.6942197 0.3684377 0.6277095
1.0000000 0.6391726 0.6692664
1.0000000 0.9479036 0.8769569
0.0000000 0.3426013 0.6270828
0.0000000 0.3424932 0.6268901
0.6939581 0.3677159 0.6269178
1.0000000 0.6390129 0.6686893
1.0000000 0.9478984 0.8768747
0.0000000 0.6234559 0.6096346
0.0000000 0.6228083 0.6094677
0.6114923 0.6115639 0.6115570
1.0000000 0.6953121 0.6627249
1.0000000 0.9478614 0.8762839
0.0000000 0.9596959 0.5791929
0.0000000 0.9596703 0.5789682
0.3854139 0.9497407 0.5826868
0.9546505 0.9299929 0.6453686
1.0000000 0.9697903 0.8788481
0.7604395 1.0000000 0.8436614
0.7604328 1.0000000 0.8436573
0.7603851 1.0000000 0.8436285
0.9293074 1.0000000 0.8541954
1.0000000 1.0000000 0.9274219
0.4969079 0.7784094 0.9548181
0.4968869 0.7783954 0.9548122
0.5905771 0.7766115 0.9542027
0.9961320 0.8068567 0.9491483
1.0000000 0.9568635 0.9599733
0.4968159 0.7783481 0.9547922
0.4967949 0.7783342 0.9547863
0.5901784 0.7765558 0.9541790
0.9961339 0.8068089 0.9491220
1.0000000 0.9568592 0.9599569
0.4961568 0.7779089 0.9546062
0.4961358 0.7778948 0.9546002
0.5873031 0.7761569 0.9540085
0.9961472 0.8064668 0.9489330
1.0000000 0.9568281 0.9598395
0.4082999 0.9576119 0.9400453
0.4082483 0.9575894 0.9400395
0.4727613 0.9558327 0.9397944
0.9385998 0.9387060 0.9386957
1.0000000 0.9724884 0.9581782
0.7826306 1.0000000 0.9364593
0.7826217 1.0000000 0.9364520
0.7825577 1.0000000 0.9363996
0.9250077 1.0000000 0.9374249
1.0000000 1.0000000 0.9586780
0.9170074 0.9896165 1.0000000
0.9170066 0.9896162 1.0000000
0.9170013 0.9896142 1.0000000
0.9442852 0.9884033 1.0000000
1.0000000 0.9976160 1.0000000
0.9170041 0.9896153 1.0000000
0.9170034 0.9896150 1.0000000
0.9169981 0.9896129 1.0000000
0.9442749 0.9884024 1.0000000
1.0000000 0.9976151 1.0000000
0.9169808 0.9896063 1.0000000
0.9169800 0.9896060 1.0000000
0.9169747 0.9896040 1.0000000
0.9442014 0.9883953 1.0000000
1.0000000 0.9976084 1.0000000
0.9167269 0.9895089 1.0000000
0.9167261 0.9895086 1.0000000
0.9167208 0.9895065 1.0000000
0.9433970 0.9883190 1.0000000
1.0000000 0.9975364 1.0000000
0.9360817 1.0000000 1.0000000
0.9360803 1.0000000 1.0000000
0.9360701 1.0000000 1.0000000
0.9482014 1.0000000 1.0000000
0.9999311 1.0000000 1.0000000
