luts/VLog/in-VLog.AgX_look1-BT2020.out-sRGB.cube
TITLE "in-VLog.AgX_look1-BT2020.out-sRGB"
# author = Liam Collod
# LUT resolution = 33
# LUT domain = [[ 0.  0.  0.] [ 1.  1.  1.]]
LUT_3D_SIZE 9
0.0000000 0.0000000 0.0000000
0.0021351 0.0000000 0.0000000
0.1971902 0.0000000 0.0000000
0.4690455 0.0000000 0.0000000
0.7379631 0.0718080 0.0351299
0.9605699 0.3561325 0.2392966
1.0000000 0.6093126 0.4706071
1.0000000 0.8226422 0.6969528
1.0000000 0.9478531 0.8753675
0.0000000 0.0035061 0.0000000
0.0003383 0.0024536 0.0000000
0.1952848 0.0000000 0.0000000
0.4685057 0.0000000 0.0000000
0.7378147 0.0715838 0.0350254
0.9605385 0.3560866 0.2392566
1.0000000 0.6092995 0.4705947
1.0000000 0.8226394 0.6969493
1.0000000 0.9478527 0.8753668
0.0000000 0.1431602 0.0000000
0.0000000 0.1409922 0.0000000
0.1634360 0.1440845 0.0000000
0.4548516 0.1369169 0.0000000
0.7306444 0.1821891 0.0206801
0.9604999 0.3560302 0.2392073
1.0000000 0.6092833 0.4705794
1.0000000 0.8226360 0.6969450
1.0000000 0.9478522 0.8753660
0.0000000 0.3639749 0.0000000
0.0000000 0.3629329 0.0000000
0.0000000 0.3639780 0.0000000
0.3982732 0.3613652 0.0000000
0.7016011 0.3714940 0.0000000
0.9458730 0.4430884 0.2361468
1.0000000 0.6092345 0.4705332
1.0000000 0.8226256 0.6969321
1.0000000 0.9478507 0.8753635
0.0000000 0.6009560 0.0000000
0.0000000 0.6006480 0.0000000
0.0000000 0.5993912 0.0000000
0.2166513 0.5942426 0.0000000
0.6320509 0.5885026 0.0000000
0.9066348 0.6042315 0.2382073
1.0000000 0.6854980 0.4713507
1.0000000 0.8225915 0.6968893
1.0000000 0.9478457 0.8753553
0.0000000 0.8177798 0.0000000
0.0000000 0.8177038 0.0000000
0.0000000 0.8167362 0.0000000
0.0000000 0.8116753 0.0282799
0.5066860 0.8021702 0.1386587
0.8351520 0.7944618 0.2887730
1.0000000 0.8118873 0.4855529
1.0000000 0.8717604 0.7009371
1.0000000 0.9479219 0.8753379
0.0000000 0.9609403 0.3731323
0.0000000 0.9609286 0.3730978
0.0000000 0.9609142 0.3730554
0.0000000 0.9583200 0.3762419
0.4019906 0.9498981 0.3916529
0.7631942 0.9372666 0.4398058
0.9581666 0.9301330 0.5516437
1.0000000 0.9397961 0.7210654
1.0000000 0.9700397 0.8789613
0.3372495 1.0000000 0.6365451
0.3372235 1.0000000 0.6365361
0.3371916 1.0000000 0.6365251
0.3370951 1.0000000 0.6364916
0.5037383 1.0000000 0.6393333
0.7491251 1.0000000 0.6524499
0.9239693 0.9965923 0.6931916
1.0000000 0.9926023 0.7811440
1.0000000 0.9987521 0.8924663
0.7606427 1.0000000 0.8437843
0.7606397 1.0000000 0.8437825
0.7606360 1.0000000 0.8437803
0.7606249 1.0000000 0.8437736
0.7605884 1.0000000 0.8437515
0.8253200 1.0000000 0.8456732
0.9297747 1.0000000 0.8543751
1.0000000 1.0000000 0.8794570
1.0000000 1.0000000 0.9274806
0.0000000 0.0000000 0.0004591
0.0000146 0.0000000 0.0002918
0.1899126 0.0000000 0.0000000
0.4664378 0.0000000 0.0000000
0.7372486 0.0707256 0.0346281
0.9604187 0.3559117 0.2391039
1.0000000 0.6092494 0.4705474
1.0000000 0.8226288 0.6969360
1.0000000 0.9478511 0.8753643
0.0000000 0.0001200 0.0000000
0.0000000 0.0000000 0.0000000
0.1880594 0.0000000 0.0000000
0.4658917 0.0000000 0.0000000
0.7370997 0.0704991 0.0345240
0.9603872 0.3558658 0.2390638
1.0000000 0.6092363 0.4705349
1.0000000 0.8226260 0.6969325
1.0000000 0.9478507 0.8753636
0.0000000 0.1328365 0.0000000
0.0000000 0.1300066 0.0000000
0.1585505 0.1334092 0.0000000
0.4535585 0.1244173 0.0000000
0.7307696 0.1721501 0.0218644
0.9603485 0.3558093 0.2390145
1.0000000 0.6092201 0.4705196
1.0000000 0.8226226 0.6969282
1.0000000 0.9478502 0.8753628
0.0000000 0.3600496 0.0000000
0.0000000 0.3589876 0.0000000
0.0000000 0.3600557 0.0000000
0.3966864 0.3575021 0.0000000
0.7015583 0.3679589 0.0000000
0.9461160 0.4408272 0.2360010
1.0000000 0.6091713 0.4704734
1.0000000 0.8226122 0.6969153
1.0000000 0.9478487 0.8753603
0.0000000 0.5998011 0.0000000
0.0000000 0.5994912 0.0000000
0.0000000 0.5983062 0.0000000
0.2118529 0.5931431 0.0000000
0.6316134 0.5873783 0.0000000
0.9067264 0.6032536 0.2379277
1.0000000 0.6849294 0.4712717
1.0000000 0.8225780 0.6968725
1.0000000 0.9478437 0.8753521
0.0000000 0.8174952 0.0000000
0.0000000 0.8174190 0.0000000
0.0000000 0.8165381 0.0000000
0.0000000 0.8114525 0.0263013
0.5057022 0.8019099 0.1379016
0.8350585 0.7941891 0.2884684
1.0000000 0.8116708 0.4854480
1.0000000 0.8716573 0.7009073
1.0000000 0.9478962 0.8753323
0.0000000 0.9608965 0.3730031
0.0000000 0.9608848 0.3729686
0.0000000 0.9608704 0.3729261
0.0000000 0.9583273 0.3760410
0.4005816 0.9498830 0.3914597
0.7629823 0.9372295 0.4396497
0.9581549 0.9300898 0.5515555
1.0000000 0.9397642 0.7210342
1.0000000 0.9700260 0.8789551
0.3371523 1.0000000 0.6365115
0.3371263 1.0000000 0.6365025
0.3370944 1.0000000 0.6364914
0.3369979 1.0000000 0.6364579
0.5029769 1.0000000 0.6392815
0.7489285 1.0000000 0.6523994
0.9239391 0.9965882 0.6931516
1.0000000 0.9925969 0.7811234
1.0000000 0.9987480 0.8924607
0.7606315 1.0000000 0.8437776
0.7606285 1.0000000 0.8437758
0.7606248 1.0000000 0.8437736
0.7606137 1.0000000 0.8437668
0.7605772 1.0000000 0.8437447
0.8252236 1.0000000 0.8456628
0.9297491 1.0000000 0.8543652
1.0000000 1.0000000 0.8794498
1.0000000 1.0000000 0.9274774
0.0000000 0.0200345 0.1593964
0.0000000 0.0198135 0.1585558
0.1877444 0.0114612 0.1622224
0.4637121 0.0000000 0.1707253
0.7339272 0.1207185 0.2011839
0.9587151 0.3625254 0.2946524
1.0000000 0.6091717 0.4704738
1.0000000 0.8226123 0.6969154
1.0000000 0.9478487 0.8753603
0.0000000 0.0190729 0.1556872
0.0000000 0.0188567 0.1548341
0.1860412 0.0104347 0.1585084
0.4631843 0.0000000 0.1670933
0.7338540 0.1193501 0.1979551
0.9587439 0.3622072 0.2926510
1.0000000 0.6091586 0.4704614
1.0000000 0.8226095 0.6969119
1.0000000 0.9478483 0.8753597
0.0000000 0.1522910 0.1492511
0.0000000 0.1494662 0.1484715
0.1515523 0.1515747 0.1515725
0.4510063 0.1445149 0.1594124
0.7286211 0.1857571 0.1918160
0.9587794 0.3618155 0.2901630
1.0000000 0.6091424 0.4704461
1.0000000 0.8226061 0.6969076
1.0000000 0.9478478 0.8753588
0.0000000 0.3661700 0.1133363
0.0000000 0.3650648 0.1123228
0.0000000 0.3655739 0.1159586
0.3937775 0.3626244 0.1263088
0.6997493 0.3716835 0.1675646
0.9453663 0.4414528 0.2799484
1.0000000 0.6090935 0.4703999
1.0000000 0.8225957 0.6968946
1.0000000 0.9478463 0.8753563
0.0000000 0.6002322 0.0000000
0.0000000 0.5999023 0.0000000
0.0000000 0.5987163 0.0000000
0.2066736 0.5934645 0.0000000
0.6304247 0.5874094 0.0979923
0.9065471 0.6025498 0.2536661
1.0000000 0.6842278 0.4711748
1.0000000 0.8225615 0.6968519
1.0000000 0.9478413 0.8753482
0.0000000 0.8171446 0.0000000
0.0000000 0.8170682 0.0000000
0.0000000 0.8162941 0.0000000
0.0000000 0.8111782 0.0238730
0.5044867 0.8015892 0.1369657
0.8349436 0.7938530 0.2880934
1.0000000 0.8114042 0.4853191
1.0000000 0.8715304 0.7008707
1.0000000 0.9478645 0.8753253
0.0000000 0.9608427 0.3728443
0.0000000 0.9608309 0.3728097
0.0000000 0.9608165 0.3727673
0.0000000 0.9583365 0.3757940
0.3988375 0.9498643 0.3912220
0.7627214 0.9371839 0.4394578
0.9581405 0.9300365 0.5514471
1.0000000 0.9397250 0.7209959
1.0000000 0.9700092 0.8789475
0.3370328 1.0000000 0.6364701
0.3370068 1.0000000 0.6364611
0.3369749 1.0000000 0.6364500
0.3368783 1.0000000 0.6364166
0.5020375 1.0000000 0.6392179
0.7486867 1.0000000 0.6523374
0.9239019 0.9965831 0.6931024
1.0000000 0.9925902 0.7810980
1.0000000 0.9987431 0.8924538
0.7606178 1.0000000 0.8437693
0.7606148 1.0000000 0.8437675
0.7606111 1.0000000 0.8437652
0.7606000 1.0000000 0.8437585
0.7605635 1.0000000 0.8437364
0.8251050 1.0000000 0.8456500
0.9297176 1.0000000 0.8543530
1.0000000 1.0000000 0.8794409
1.0000000 1.0000000 0.9274734
0.0000000 0.1401520 0.3941267
0.0000000 0.1399498 0.3938377
0.1530984 0.1424998 0.3944875
0.4497270 0.1464153 0.3967180
0.7230213 0.2152503 0.4058799
0.9519020 0.3902174 0.4409273
1.0000000 0.6162822 0.5365986
1.0000000 0.8226505 0.6980974
1.0000000 0.9478414 0.8753484
0.0000000 0.1392634 0.3928553
0.0000000 0.1390604 0.3925643
0.1511150 0.1416015 0.3932108
0.4492227 0.1454239 0.3954682
0.7229389 0.2145147 0.4047099
0.9519217 0.3899406 0.4399871
1.0000000 0.6162013 0.5360582
1.0000000 0.8226337 0.6978961
1.0000000 0.9478410 0.8753477
0.0000000 0.2038866 0.3902218
0.0000000 0.2015847 0.3899731
0.1122280 0.2016747 0.3906136
0.4403291 0.1987521 0.3929624
0.7208659 0.2307141 0.4028666
0.9519459 0.3895999 0.4388254
1.0000000 0.6161019 0.5353921
1.0000000 0.8226130 0.6976483
1.0000000 0.9478405 0.8753469
0.0000000 0.3871345 0.3794288
0.0000000 0.3861440 0.3791640
0.0000000 0.3856204 0.3797734
0.3823245 0.3823716 0.3823671
0.6926242 0.3895734 0.3933743
0.9405261 0.4530058 0.4331862
1.0000000 0.6158011 0.5333644
1.0000000 0.8225504 0.6968969
1.0000000 0.9478390 0.8753444
0.0000000 0.6059626 0.3548834
0.0000000 0.6056451 0.3545567
0.0000000 0.6044969 0.3550770
0.1912777 0.5992703 0.3584649
0.6244549 0.5931715 0.3720086
0.9023596 0.6074714 0.4177880
1.0000000 0.6860207 0.5262101
1.0000000 0.8225116 0.6967894
1.0000000 0.9478340 0.8753362
0.0000000 0.8175017 0.3200491
0.0000000 0.8174223 0.3196506
0.0000000 0.8169721 0.3195179
0.0000000 0.8118793 0.3239207
0.4996154 0.8022910 0.3406124
0.8324997 0.7943792 0.3938901
1.0000000 0.8113493 0.5135360
1.0000000 0.8711456 0.7007600
1.0000000 0.9478176 0.8753093
0.0000000 0.9606795 0.3723635
0.0000000 0.9606678 0.3723288
0.0000000 0.9606533 0.3722863
0.0000000 0.9583657 0.3750462
0.3934796 0.9498083 0.3905022
0.7619297 0.9370458 0.4388765
0.9580970 0.9298752 0.5511190
1.0000000 0.9396062 0.7208801
1.0000000 0.9699584 0.8789243
0.3366713 1.0000000 0.6363449
0.3366453 1.0000000 0.6363359
0.3366133 1.0000000 0.6363248
0.3365165 1.0000000 0.6362914
0.4991728 1.0000000 0.6390255
0.7479529 1.0000000 0.6521499
0.9237894 0.9965678 0.6929537
1.0000000 0.9925698 0.7810215
1.0000000 0.9987280 0.8924330
0.7605762 1.0000000 0.8437441
0.7605733 1.0000000 0.8437423
0.7605696 1.0000000 0.8437401
0.7605585 1.0000000 0.8437334
0.7605219 1.0000000 0.8437113
0.8247457 1.0000000 0.8456114
0.9296223 1.0000000 0.8543163
1.0000000 1.0000000 0.8794141
1.0000000 1.0000000 0.9274614
0.0000000 0.3433994 0.6278853
0.0000000 0.3433179 0.6278034
0.0000000 0.3432980 0.6276919
0.4044066 0.3450289 0.6272970
0.6942197 0.3684377 0.6277095
0.9339537 0.4613476 0.6351103
1.0000000 0.6391726 0.6692664
1.0000000 0.8275556 0.7568035
1.0000000 0.9479036 0.8769569
0.0000000 0.3430417 0.6275257
0.0000000 0.3429601 0.6274437
0.0000000 0.3429374 0.6273326
0.4038170 0.3446693 0.6269383
0.6941023 0.3681142 0.6273548
0.9339570 0.4611546 0.6347784
1.0000000 0.6391010 0.6690077
1.0000000 0.8275394 0.7566703
1.0000000 0.9479012 0.8769200
0.0000000 0.3426013 0.6270828
0.0000000 0.3425195 0.6270005
0.0000000 0.3424932 0.6268901
0.4030900 0.3442265 0.6264965
0.6939581 0.3677159 0.6269178
0.9339610 0.4609170 0.6343697
1.0000000 0.6390129 0.6686893
1.0000000 0.8275194 0.7565065
1.0000000 0.9478984 0.8768747
0.0000000 0.4423050 0.6221715
0.0000000 0.4415685 0.6221149
0.0000000 0.4405815 0.6220445
0.3572321 0.4367653 0.6218992
0.6756058 0.4397139 0.6230565
0.9282408 0.4875195 0.6321133
1.0000000 0.6387465 0.6677230
1.0000000 0.8274591 0.7560100
1.0000000 0.9478898 0.8767375
0.0000000 0.6234559 0.6096346
0.0000000 0.6231718 0.6095593
0.0000000 0.6228083 0.6094677
0.1643686 0.6177521 0.6095864
0.6114923 0.6115639 0.6115570
0.8921744 0.6233142 0.6227165
1.0000000 0.6953121 0.6627249
1.0000000 0.8272604 0.7543617
1.0000000 0.9478614 0.8762839
0.0000000 0.8201688 0.5903441
0.0000000 0.8200924 0.5902504
0.0000000 0.8199984 0.5901351
0.0000000 0.8158075 0.5904892
0.4903779 0.8065239 0.5933830
0.8247624 0.7985991 0.6070379
1.0000000 0.8146432 0.6524699
1.0000000 0.8723053 0.7505804
1.0000000 0.9477937 0.8752699
0.0000000 0.9596959 0.5791929
0.0000000 0.9596844 0.5790921
0.0000000 0.9596703 0.5789682
0.0000000 0.9581440 0.5791242
0.3854139 0.9497407 0.5826868
0.7565499 0.9371295 0.5975633
0.9546505 0.9299929 0.6453686
1.0000000 0.9395626 0.7469537
1.0000000 0.9697903 0.8788481
0.3354765 1.0000000 0.6359322
0.3354503 1.0000000 0.6359231
0.3354182 1.0000000 0.6359120
0.3353208 1.0000000 0.6358785
0.4894612 1.0000000 0.6383910
0.7455091 1.0000000 0.6515312
0.9234172 0.9965172 0.6924628
1.0000000 0.9925027 0.7807690
1.0000000 0.9986784 0.8923644
0.7604395 1.0000000 0.8436614
0.7604365 1.0000000 0.8436596
0.7604328 1.0000000 0.8436573
0.7604217 1.0000000 0.8436506
0.7603851 1.0000000 0.8436285
0.8235541 1.0000000 0.8454840
0.9293074 1.0000000 0.8541954
1.0000000 1.0000000 0.8793256
1.0000000 1.0000000 0.9274219
0.2001283 0.5680120 0.8314339
0.2000898 0.5679874 0.8314151
0.2000425 0.5679572 0.8313920
0.3225414 0.5670759 0.8310592
0.6393959 0.5681247 0.8295569
0.8951648 0.5981975 0.8281310
1.0000000 0.6986877 0.8320731
1.0000000 0.8424101 0.8556331
1.0000000 0.9501174 0.9105938
0.1999593 0.5679042 0.8313515
0.1999208 0.5678796 0.8313327
0.1998734 0.5678494 0.8313096
0.3217623 0.5669727 0.8309785
0.6392306 0.5680154 0.8294753
0.8951468 0.5981036 0.8280500
1.0000000 0.6986377 0.8319991
1.0000000 0.8423960 0.8555805
1.0000000 0.9501151 0.9105718
0.1997515 0.5677716 0.8312501
0.1997129 0.5677470 0.8312313
0.1996655 0.5677168 0.8312082
0.3208005 0.5668459 0.8308794
0.6390273 0.5678809 0.8293749
0.8951246 0.5979882 0.8279504
1.0000000 0.6985763 0.8319081
1.0000000 0.8423787 0.8555158
1.0000000 0.9501123 0.9105448
0.1991217 0.5673704 0.8309431
0.1990830 0.5673458 0.8309242
0.1990354 0.5673155 0.8309011
0.3178642 0.5664620 0.8305790
0.6384112 0.5674739 0.8290709
0.8950576 0.5976387 0.8276488
1.0000000 0.6983904 0.8316326
1.0000000 0.8423265 0.8553199
1.0000000 0.9501039 0.9104629
0.0000000 0.6712957 0.8246222
0.0000000 0.6710863 0.8246133
0.0000000 0.6708286 0.8246024
0.1775613 0.6689652 0.8243864
0.5929494 0.6627243 0.8233402
0.8719968 0.6684695 0.8231411
1.0000000 0.7233050 0.8294407
1.0000000 0.8421542 0.8546719
1.0000000 0.9500763 0.9101927
0.0000000 0.8303458 0.8123856
0.0000000 0.8302787 0.8123683
0.0000000 0.8301962 0.8123469
0.0000000 0.8291277 0.8122128
0.4880709 0.8206784 0.8116145
0.8125381 0.8126311 0.8126221
0.9930200 0.8256416 0.8217781
1.0000000 0.8775979 0.8515739
1.0000000 0.9499852 0.9092938
0.0000000 0.9579804 0.8009657
0.0000000 0.9579690 0.8009434
0.0000000 0.9579550 0.8009161
0.0000000 0.9579125 0.8008333
0.3950535 0.9507122 0.8006850
0.7496227 0.9387152 0.8025882
0.9466097 0.9317330 0.8137174
1.0000000 0.9408808 0.8470370
1.0000000 0.9702580 0.9078737
0.3952128 1.0000000 0.8003807
0.3951806 1.0000000 0.8003586
0.3951410 1.0000000 0.8003315
0.3950213 1.0000000 0.8002495
0.4899530 1.0000000 0.8003053
0.7402293 1.0000000 0.8027025
0.9178829 0.9961607 0.8138828
1.0000000 0.9923520 0.8467436
1.0000000 0.9986303 0.9072406
0.7599880 1.0000000 0.8433882
0.7599850 1.0000000 0.8433864
0.7599813 1.0000000 0.8433842
0.7599702 1.0000000 0.8433774
0.7599335 1.0000000 0.8433552
0.8195328 1.0000000 0.8450640
0.9282578 1.0000000 0.8537959
1.0000000 1.0000000 0.8790336
1.0000000 1.0000000 0.9272915
0.4969079 0.7784094 0.9548181
0.4968985 0.7784031 0.9548155
0.4968869 0.7783954 0.9548122
0.4968520 0.7783722 0.9548024
0.5905771 0.7766115 0.9542027
0.8384114 0.7769600 0.9518144
0.9961320 0.8068567 0.9491483
1.0000000 0.8789915 0.9491401
1.0000000 0.9568635 0.9599733
0.4968666 0.7783819 0.9548065
0.4968572 0.7783756 0.9548039
0.4968457 0.7783679 0.9548006
0.4968107 0.7783447 0.9547907
0.5903983 0.7765865 0.9541921
0.8383753 0.7769322 0.9518029
0.9961328 0.8068352 0.9491365
1.0000000 0.8789826 0.9491292
1.0000000 0.9568615 0.9599659
0.4968159 0.7783481 0.9547922
0.4968065 0.7783419 0.9547896
0.4967949 0.7783342 0.9547863
0.4967600 0.7783109 0.9547764
0.5901784 0.7765558 0.9541790
0.8383309 0.7768979 0.9517888
0.9961339 0.8068089 0.9491220
1.0000000 0.8789715 0.9491158
1.0000000 0.9568592 0.9599569
0.4966625 0.7782459 0.9547490
0.4966531 0.7782397 0.9547463
0.4966416 0.7782320 0.9547430
0.4966066 0.7782087 0.9547332
0.5895124 0.7764629 0.9541393
0.8381966 0.7767944 0.9517462
0.9961370 0.8067293 0.9490780
1.0000000 0.8789382 0.9490753
1.0000000 0.9568519 0.9599296
0.4961568 0.7779089 0.9546062
0.4961474 0.7779026 0.9546035
0.4961358 0.7778948 0.9546002
0.4961007 0.7778715 0.9545903
0.5873031 0.7761569 0.9540085
0.8377531 0.7764529 0.9516055
0.9961472 0.8064668 0.9489330
1.0000000 0.8788285 0.9489417
1.0000000 0.9568281 0.9598395
0.4365111 0.8611617 0.9484163
0.4365249 0.8611166 0.9484164
0.4365419 0.8610613 0.9484165
0.4365934 0.8608937 0.9484168
0.5305454 0.8581557 0.9480062
0.8028829 0.8501840 0.9462744
0.9759325 0.8562610 0.9451949
1.0000000 0.8935795 0.9475645
1.0000000 0.9567497 0.9595411
0.4082999 0.9576119 0.9400453
0.4082768 0.9576018 0.9400427
0.4082483 0.9575894 0.9400395
0.4081624 0.9575520 0.9400300
0.4727613 0.9558327 0.9397944
0.7552076 0.9454873 0.9385911
0.9385998 0.9387060 0.9386957
1.0000000 0.9459863 0.9434212
1.0000000 0.9724884 0.9581782
0.5534237 1.0000000 0.9345931
0.5534082 1.0000000 0.9345897
0.5533890 1.0000000 0.9345855
0.5533312 1.0000000 0.9345729
0.5531405 1.0000000 0.9345315
0.7475279 1.0000000 0.9338711
0.9131326 0.9964720 0.9345498
0.9993671 0.9928601 0.9402161
1.0000000 0.9990939 0.9564613
0.7826306 1.0000000 0.9364593
0.7826266 1.0000000 0.9364560
0.7826217 1.0000000 0.9364520
0.7826068 1.0000000 0.9364398
0.7825577 1.0000000 0.9363996
0.8204188 1.0000000 0.9363449
0.9250077 1.0000000 0.9374249
0.9977240 1.0000000 0.9429499
1.0000000 1.0000000 0.9586780
0.7547432 0.9226465 1.0000000
0.7547409 0.9226454 1.0000000
0.7547382 0.9226442 1.0000000
0.7547300 0.9226404 1.0000000
0.7547028 0.9226280 1.0000000
0.8149347 0.9205392 1.0000000
0.9528546 0.9200613 1.0000000
1.0000000 0.9368654 1.0000000
1.0000000 0.9730272 1.0000000
0.7547334 0.9226420 1.0000000
0.7547312 0.9226410 1.0000000
0.7547285 0.9226397 1.0000000
0.7547202 0.9226359 1.0000000
0.7546931 0.9226235 1.0000000
0.8149007 0.9205355 1.0000000
0.9528495 0.9200567 1.0000000
1.0000000 0.9368622 1.0000000
1.0000000 0.9730261 1.0000000
0.7547214 0.9226365 1.0000000
0.7547192 0.9226355 1.0000000
0.7547165 0.9226342 1.0000000
0.7547083 0.9226305 1.0000000
0.7546811 0.9226180 1.0000000
0.8148589 0.9205309 1.0000000
0.9528431 0.9200511 1.0000000
1.0000000 0.9368583 1.0000000
1.0000000 0.9730246 1.0000000
0.7546853 0.9226199 1.0000000
0.7546830 0.9226189 1.0000000
0.7546803 0.9226176 1.0000000
0.7546721 0.9226139 1.0000000
0.7546449 0.9226014 1.0000000
0.8147325 0.9205172 1.0000000
0.9528239 0.9200339 1.0000000
1.0000000 0.9368464 1.0000000
1.0000000 0.9730202 1.0000000
0.7545660 0.9225652 1.0000000
0.7545638 0.9225642 1.0000000
0.7545611 0.9225629 1.0000000
0.7545528 0.9225592 1.0000000
0.7545256 0.9225467 1.0000000
0.8143154 0.9204721 1.0000000
0.9527604 0.9199775 1.0000000
1.0000000 0.9368072 1.0000000
1.0000000 0.9730056 1.0000000
0.7541727 0.9223847 1.0000000
0.7541704 0.9223837 1.0000000
0.7541677 0.9223824 1.0000000
0.7541594 0.9223786 1.0000000
0.7541321 0.9223661 1.0000000
0.8129304 0.9203233 1.0000000
0.9525509 0.9197912 1.0000000
1.0000000 0.9366781 1.0000000
1.0000000 0.9729577 1.0000000
0.7404983 0.9656999 1.0000000
0.7404963 0.9656935 1.0000000
0.7404939 0.9656856 1.0000000
0.7404865 0.9656617 1.0000000
0.7404622 0.9655830 1.0000000
0.7929916 0.9629966 1.0000000
0.9348510 0.9570015 0.9993267
1.0000000 0.9601636 0.9986525
1.0000000 0.9793389 0.9998310
0.7584087 1.0000000 0.9968955
0.7584046 1.0000000 0.9968952
0.7583996 1.0000000 0.9968948
0.7583845 1.0000000 0.9968936
0.7583349 1.0000000 0.9968899
0.7879706 1.0000000 0.9966729
0.9168462 0.9991485 0.9957684
0.9956277 0.9957398 0.9957290
1.0000000 1.0000000 0.9981596
0.8478696 1.0000000 0.9960498
0.8478674 1.0000000 0.9960494
0.8478647 1.0000000 0.9960488
0.8478565 1.0000000 0.9960472
0.8478295 1.0000000 0.9960418
0.8477408 1.0000000 0.9960239
0.9287761 1.0000000 0.9955530
0.9957770 1.0000000 0.9958169
1.0000000 1.0000000 0.9986313
0.9170074 0.9896165 1.0000000
0.9170071 0.9896164 1.0000000
0.9170066 0.9896162 1.0000000
0.9170054 0.9896157 1.0000000
0.9170013 0.9896142 1.0000000
0.9169879 0.9896090 1.0000000
0.9442852 0.9884033 1.0000000
1.0000000 0.9880488 1.0000000
1.0000000 0.9976160 1.0000000
0.9170059 0.9896159 1.0000000
0.9170056 0.9896158 1.0000000
0.9170052 0.9896157 1.0000000
0.9170039 0.9896152 1.0000000
0.9169999 0.9896136 1.0000000
0.9169864 0.9896085 1.0000000
0.9442806 0.9884029 1.0000000
1.0000000 0.9880483 1.0000000
1.0000000 0.9976156 1.0000000
0.9170041 0.9896153 1.0000000
0.9170038 0.9896151 1.0000000
0.9170034 0.9896150 1.0000000
0.9170021 0.9896145 1.0000000
0.9169981 0.9896129 1.0000000
0.9169846 0.9896078 1.0000000
0.9442749 0.9884024 1.0000000
1.0000000 0.9880475 1.0000000
1.0000000 0.9976151 1.0000000
0.9169987 0.9896132 1.0000000
0.9169984 0.9896130 1.0000000
0.9169979 0.9896129 1.0000000
0.9169967 0.9896124 1.0000000
0.9169926 0.9896108 1.0000000
0.9169792 0.9896057 1.0000000
0.9442578 0.9884007 1.0000000
1.0000000 0.9880453 1.0000000
1.0000000 0.9976135 1.0000000
0.9169808 0.9896063 1.0000000
0.9169804 0.9896062 1.0000000
0.9169800 0.9896060 1.0000000
0.9169788 0.9896055 1.0000000
0.9169747 0.9896040 1.0000000
0.9169613 0.9895988 1.0000000
0.9442014 0.9883953 1.0000000
1.0000000 0.9880380 1.0000000
1.0000000 0.9976084 1.0000000
0.9169217 0.9895836 1.0000000
0.9169214 0.9895835 1.0000000
0.9169210 0.9895834 1.0000000
0.9169198 0.9895829 1.0000000
0.9169157 0.9895813 1.0000000
0.9169022 0.9895761 1.0000000
0.9440153 0.9883775 1.0000000
1.0000000 0.9880140 1.0000000
1.0000000 0.9975917 1.0000000
0.9167269 0.9895089 1.0000000
0.9167266 0.9895087 1.0000000
0.9167261 0.9895086 1.0000000
0.9167249 0.9895081 1.0000000
0.9167208 0.9895065 1.0000000
0.9167073 0.9895014 1.0000000
0.9433970 0.9883190 1.0000000
1.0000000 0.9879348 1.0000000
1.0000000 0.9975364 1.0000000
0.9146239 1.0000000 1.0000000
0.9146230 1.0000000 1.0000000
0.9146219 1.0000000 1.0000000
0.9146184 1.0000000 1.0000000
0.9146071 1.0000000 1.0000000
0.9145697 1.0000000 1.0000000
0.9375163 1.0000000 1.0000000
0.9972657 1.0000000 1.0000000
0.9999311 1.0000000 1.0000000
0.9360817 1.0000000 1.0000000
0.9360810 1.0000000 1.0000000
0.9360803 1.0000000 1.0000000
0.9360779 1.0000000 1.0000000
0.9360701 1.0000000 1.0000000
0.9360444 1.0000000 1.0000000
0.9482014 1.0000000 1.0000000
0.9995893 1.0000000 1.0000000
0.9999311 1.0000000 1.0000000
