luts/VLog/in-VLog.AgX_look1-BT2020.out-BT709.cube
TITLE "in-VLog.AgX_look1-BT2020.out-BT709"
# author = Liam Collod
# LUT resolution = 33
# LUT domain = [[ 0.  0.  0.] [ 1.  1.  1.]]
LUT_3D_SIZE 5
0.0000000 0.0000000 0.0000000
0.1326484 0.0000000 0.0000000
0.7041779 0.0325498 0.0075966
1.0000000 0.5706216 0.4064304
1.0000000 0.9422500 0.8534887
0.0000000 0.0782423 0.0000000
0.0989683 0.0796948 0.0000000
0.6962355 0.1221569 0.0023294
1.0000000 0.5705899 0.4064008
1.0000000 0.9422489 0.8534869
0.0000000 0.5539404 0.0000000
0.0000000 0.5524036 0.0000000
0.5889081 0.5414377 0.0000000
1.0000000 0.6510911 0.4066972
1.0000000 0.9422417 0.8534747
0.0000000 0.9547443 0.2882540
0.0000000 0.9547144 0.2881714
0.3250729 0.9420624 0.3091136
0.9520824 0.9198869 0.4878233
1.0000000 0.9663244 0.8574233
0.7076906 1.0000000 0.8097593
0.7076827 1.0000000 0.8097546
0.7076264 1.0000000 0.8097208
0.9167775 1.0000000 0.8227755
1.0000000 1.0000000 0.9116815
0.0000000 0.0079567 0.0983656
0.1259520 0.0053840 0.1007866
0.6998540 0.0680756 0.1354343
1.0000000 0.5704692 0.4062883
1.0000000 0.9422451 0.8534804
0.0000000 0.0902514 0.0879165
0.0898635 0.0898639 0.0898639
0.6940955 0.1278569 0.1256815
1.0000000 0.5704376 0.4062587
1.0000000 0.9422441 0.8534787
0.0000000 0.5533574 0.0000000
0.0000000 0.5518367 0.0000000
0.5872629 0.5404031 0.0311590
1.0000000 0.6497325 0.4065197
1.0000000 0.9422369 0.8534664
0.0000000 0.9546324 0.2879449
0.0000000 0.9546024 0.2878622
0.3215080 0.9420236 0.3086438
0.9520526 0.9197777 0.4876118
1.0000000 0.9662909 0.8574076
0.7076612 1.0000000 0.8097417
0.7076533 1.0000000 0.8097369
0.7075970 1.0000000 0.8097032
0.9167099 1.0000000 0.8227492
1.0000000 1.0000000 0.9116731
0.0000000 0.2972843 0.5885430
0.0000000 0.2971647 0.5883258
0.6584213 0.3230125 0.5879728
1.0000000 0.6048463 0.6293859
1.0000000 0.9423115 0.8554218
0.0000000 0.2964506 0.5876726
0.0000000 0.2963243 0.5874571
0.6581285 0.3222537 0.5871122
1.0000000 0.6046659 0.6287414
1.0000000 0.9423055 0.8553222
0.0000000 0.5821389 0.5686433
0.0000000 0.5814463 0.5684634
0.5702901 0.5702907 0.5702906
1.0000000 0.6635707 0.6219978
1.0000000 0.9422625 0.8546059
0.0000000 0.9531611 0.5268430
0.0000000 0.9531320 0.5265917
0.3119918 0.9418604 0.5303627
0.9480319 0.9198167 0.5971231
1.0000000 0.9660504 0.8572959
0.7074504 1.0000000 0.8096154
0.7074425 1.0000000 0.8096107
0.7073862 1.0000000 0.8095769
0.9162241 1.0000000 0.8225614
1.0000000 1.0000000 0.9116129
0.5029581 0.7630020 0.9485129
0.5029367 0.7629869 0.9485063
0.5838920 0.7614401 0.9478928
0.9926868 0.7929700 0.9425359
1.0000000 0.9528162 0.9538242
0.5028642 0.7629358 0.9484840
0.5028428 0.7629208 0.9484774
0.5835214 0.7613787 0.9478660
0.9926884 0.7929179 0.9425064
1.0000000 0.9528112 0.9538053
0.5021915 0.7624616 0.9482763
0.5021701 0.7624465 0.9482697
0.5808511 0.7609387 0.9476739
0.9926998 0.7925444 0.9422946
1.0000000 0.9527755 0.9536694
0.4066599 0.9506915 0.9326751
0.4066173 0.9506665 0.9326687
0.4621615 0.9488745 0.9324154
0.9311586 0.9311588 0.9311588
1.0000000 0.9695084 0.9517452
0.7427865 1.0000000 0.9255292
0.7427753 1.0000000 0.9255206
0.7426952 1.0000000 0.9254586
0.9120833 1.0000000 0.9265158
1.0000000 1.0000000 0.9505373
0.9245921 0.9901609 1.0000000
0.9245914 0.9901606 1.0000000
0.9245862 0.9901584 1.0000000
0.9479792 0.9891881 1.0000000
1.0000000 0.9990363 1.0000000
0.9245889 0.9901596 1.0000000
0.9245882 0.9901593 1.0000000
0.9245830 0.9901570 1.0000000
0.9479698 0.9891869 1.0000000
1.0000000 0.9990353 1.0000000
0.9245661 0.9901499 1.0000000
0.9245654 0.9901496 1.0000000
0.9245602 0.9901473 1.0000000
0.9479023 0.9891788 1.0000000
1.0000000 0.9990280 1.0000000
0.9243186 0.9900445 1.0000000
0.9243178 0.9900442 1.0000000
0.9243126 0.9900420 1.0000000
0.9471645 0.9890905 1.0000000
1.0000000 0.9989491 1.0000000
0.9381629 1.0000000 1.0000000
0.9381616 1.0000000 1.0000000
0.9381519 1.0000000 1.0000000
0.9495419 1.0000000 1.0000000
1.0000000 1.0000000 1.0000000
