luts/VLog/in-VLog.AgX_look1-BT2020.out-BT1886.cube
TITLE "in-VLog.AgX_look1-BT2020.out-BT1886"
# author = Liam Collod
# LUT resolution = 33
# LUT domain = [[ 0.  0.  0.] [ 1.  1.  1.]]
LUT_3D_SIZE 33
0.0000000 0.0000000 0.0000000
0.0000000 0.0000000 0.0000000
0.0000000 0.0000000 0.0000000
0.0000000 0.0000000 0.0000000
0.0000000 0.0000000 0.0000000
0.0000008 0.0000000 0.0000000
0.0000098 0.0000000 0.0000000
0.0000581 0.0000000 0.0000000
0.0002631 0.0000000 0.0000000
0.0009637 0.0000000 0.0000000
0.0029516 0.0000000 0.0000000
0.0077422 0.0000000 0.0000000
0.0177725 0.0000000 0.0000000
0.0364547 0.0000000 0.0000000
0.0681674 0.0000000 0.0000000
0.1183385 0.0000000 0.0000000
0.1931441 0.0000049 0.0000007
0.2983417 0.0000867 0.0000079
0.4372837 0.0004660 0.0000460
0.6083982 0.0016156 0.0001922
0.8032209 0.0043817 0.0006393
1.0000000 0.0101253 0.0017812
1.0000000 0.0209061 0.0042974
1.0000000 0.0395801 0.0092270
1.0000000 0.0695897 0.0180656
1.0000000 0.1143061 0.0329163
1.0000000 0.1759214 0.0565183
1.0000000 0.2542665 0.0919906
1.0000000 0.3462384 0.1421664
1.0000000 0.4472030 0.2086240
1.0000000 0.5524153 0.2906859
1.0000000 0.6536034 0.3845579
1.0000000 0.7465607 0.4846455
0.0000000 0.0000000 0.0000000
0.0000000 0.0000000 0.0000000
0.0000000 0.0000000 0.0000000
0.0000000 0.0000000 0.0000000
0.0000000 0.0000000 0.0000000
0.0000008 0.0000000 0.0000000
0.0000095 0.0000000 0.0000000
0.0000573 0.0000000 0.0000000
0.0002608 0.0000000 0.0000000
0.0009583 0.0000000 0.0000000
0.0029409 0.0000000 0.0000000
0.0077243 0.0000000 0.0000000
0.0177462 0.0000000 0.0000000
0.0364199 0.0000000 0.0000000
0.0681251 0.0000000 0.0000000
0.1182902 0.0000000 0.0000000
0.1930920 0.0000049 0.0000007
0.2982890 0.0000866 0.0000078
0.4372336 0.0004658 0.0000459
0.6083540 0.0016151 0.0001921
0.8031851 0.0043810 0.0006392
1.0000000 0.0101242 0.0017810
1.0000000 0.0209048 0.0042971
1.0000000 0.0395784 0.0092265
1.0000000 0.0695877 0.0180650
1.0000000 0.1143039 0.0329156
1.0000000 0.1759194 0.0565174
1.0000000 0.2542646 0.0919897
1.0000000 0.3462368 0.1421654
1.0000000 0.4472018 0.2086231
1.0000000 0.5524143 0.2906851
1.0000000 0.6536028 0.3845573
1.0000000 0.7465603 0.4846450
0.0000000 0.0000000 0.0000000
0.0000000 0.0000000 0.0000000
0.0000000 0.0000000 0.0000000
0.0000000 0.0000000 0.0000000
0.0000000 0.0000000 0.0000000
0.0000008 0.0000000 0.0000000
0.0000093 0.0000000 0.0000000
0.0000565 0.0000000 0.0000000
0.0002585 0.0000000 0.0000000
0.0009529 0.0000000 0.0000000
0.0029303 0.0000000 0.0000000
0.0077064 0.0000000 0.0000000
0.0177199 0.0000000 0.0000000
0.0363851 0.0000000 0.0000000
0.0680828 0.0000000 0.0000000
0.1182419 0.0000000 0.0000000
0.1930400 0.0000049 0.0000007
0.2982362 0.0000865 0.0000078
0.4371835 0.0004656 0.0000459
0.6083098 0.0016147 0.0001921
0.8031493 0.0043803 0.0006390
1.0000000 0.0101232 0.0017807
1.0000000 0.0209034 0.0042967
1.0000000 0.0395767 0.0092261
1.0000000 0.0695857 0.0180644
1.0000000 0.1143018 0.0329148
1.0000000 0.1759173 0.0565166
1.0000000 0.2542627 0.0919888
1.0000000 0.3462352 0.1421645
1.0000000 0.4472005 0.2086222
1.0000000 0.5524134 0.2906843
1.0000000 0.6536021 0.3845566
1.0000000 0.7465599 0.4846445
0.0000000 0.0000000 0.0000000
0.0000000 0.0000000 0.0000000
0.0000000 0.0000000 0.0000000
0.0000000 0.0000000 0.0000000
0.0000000 0.0000000 0.0000000
0.0000007 0.0000000 0.0000000
0.0000091 0.0000000 0.0000000
0.0000557 0.0000000 0.0000000
0.0002562 0.0000000 0.0000000
0.0009475 0.0000000 0.0000000
0.0029197 0.0000000 0.0000000
0.0076886 0.0000000 0.0000000
0.0176936 0.0000000 0.0000000
0.0363504 0.0000000 0.0000000
0.0680406 0.0000000 0.0000000
0.1181936 0.0000000 0.0000000
0.1929880 0.0000049 0.0000007
0.2981834 0.0000864 0.0000078
0.4371334 0.0004654 0.0000459
0.6082657 0.0016143 0.0001920
0.8031135 0.0043796 0.0006389
1.0000000 0.0101222 0.0017805
1.0000000 0.0209020 0.0042964
1.0000000 0.0395750 0.0092256
1.0000000 0.0695838 0.0180638
1.0000000 0.1142997 0.0329141
1.0000000 0.1759152 0.0565157
1.0000000 0.2542608 0.0919878
1.0000000 0.3462337 0.1421635
1.0000000 0.4471992 0.2086213
1.0000000 0.5524125 0.2906835
1.0000000 0.6536014 0.3845560
1.0000000 0.7465594 0.4846440
0.0000000 0.0000000 0.0000000
0.0000000 0.0000000 0.0000000
0.0000000 0.0000000 0.0000000
0.0000000 0.0000000 0.0000000
0.0000000 0.0000000 0.0000000
0.0000006 0.0000000 0.0000000
0.0000087 0.0000000 0.0000000
0.0000542 0.0000000 0.0000000
0.0002519 0.0000000 0.0000000
0.0009372 0.0000000 0.0000000
0.0029007 0.0000000 0.0000000
0.0076677 0.0000000 0.0000000
0.0176673 0.0000000 0.0000000
0.0363156 0.0000000 0.0000000
0.0679983 0.0000000 0.0000000
0.1181453 0.0000000 0.0000000
0.1929360 0.0000049 0.0000007
0.2981306 0.0000864 0.0000078
0.4370833 0.0004651 0.0000459
0.6082215 0.0016139 0.0001919
0.8030777 0.0043789 0.0006388
1.0000000 0.0101211 0.0017803
1.0000000 0.0209006 0.0042961
1.0000000 0.0395733 0.0092251
1.0000000 0.0695818 0.0180632
1.0000000 0.1142976 0.0329133
1.0000000 0.1759131 0.0565149
1.0000000 0.2542589 0.0919869
1.0000000 0.3462321 0.1421626
1.0000000 0.4471979 0.2086204
1.0000000 0.5524115 0.2906827
1.0000000 0.6536008 0.3845553
1.0000000 0.7465590 0.4846435
0.0000000 0.0000003 0.0000000
0.0000000 0.0000003 0.0000000
0.0000000 0.0000003 0.0000000
0.0000000 0.0000003 0.0000000
0.0000000 0.0000003 0.0000000
0.0000003 0.0000003 0.0000000
0.0000067 0.0000002 0.0000000
0.0000478 0.0000002 0.0000000
0.0002346 0.0000000 0.0000000
0.0008944 0.0000000 0.0000000
0.0028024 0.0000000 0.0000000
0.0074581 0.0000000 0.0000000
0.0173000 0.0000000 0.0000000
0.0357932 0.0000000 0.0000000
0.0674708 0.0000000 0.0000000
0.1180700 0.0000000 0.0000000
0.1928840 0.0000048 0.0000007
0.2980779 0.0000863 0.0000078
0.4370332 0.0004649 0.0000458
0.6081774 0.0016134 0.0001919
0.8030419 0.0043782 0.0006387
1.0000000 0.0101201 0.0017801
1.0000000 0.0208992 0.0042957
1.0000000 0.0395715 0.0092246
1.0000000 0.0695798 0.0180626
1.0000000 0.1142955 0.0329126
1.0000000 0.1759110 0.0565140
1.0000000 0.2542570 0.0919860
1.0000000 0.3462305 0.1421616
1.0000000 0.4471966 0.2086194
1.0000000 0.5524106 0.2906819
1.0000000 0.6536001 0.3845546
1.0000000 0.7465586 0.4846430
0.0000000 0.0000029 0.0000000
0.0000000 0.0000028 0.0000000
0.0000000 0.0000026 0.0000000
0.0000000 0.0000025 0.0000000
0.0000000 0.0000025 0.0000000
0.0000000 0.0000028 0.0000000
0.0000039 0.0000028 0.0000000
0.0000381 0.0000026 0.0000000
0.0002082 0.0000021 0.0000000
0.0008323 0.0000014 0.0000000
0.0026690 0.0000006 0.0000000
0.0071931 0.0000002 0.0000000
0.0168102 0.0000000 0.0000000
0.0349486 0.0000000 0.0000000
0.0661102 0.0000000 0.0000000
0.1160190 0.0000014 0.0000000
0.1913665 0.0000136 0.0000006
0.2980248 0.0000862 0.0000078
0.4369827 0.0004647 0.0000458
0.6081329 0.0016130 0.0001918
0.8030059 0.0043775 0.0006385
1.0000000 0.0101191 0.0017798
1.0000000 0.0208978 0.0042954
1.0000000 0.0395698 0.0092242
1.0000000 0.0695778 0.0180619
1.0000000 0.1142933 0.0329118
1.0000000 0.1759089 0.0565131
1.0000000 0.2542551 0.0919850
1.0000000 0.3462289 0.1421606
1.0000000 0.4471954 0.2086185
1.0000000 0.5524096 0.2906811
1.0000000 0.6535995 0.3845540
1.0000000 0.7465581 0.4846425
0.0000000 0.0000153 0.0000000
0.0000000 0.0000148 0.0000000
0.0000000 0.0000144 0.0000000
0.0000000 0.0000139 0.0000000
0.0000000 0.0000139 0.0000000
0.0000000 0.0000150 0.0000000
0.0000010 0.0000155 0.0000000
0.0000246 0.0000154 0.0000000
0.0001692 0.0000146 0.0000000
0.0007395 0.0000130 0.0000000
0.0024736 0.0000107 0.0000000
0.0068171 0.0000084 0.0000000
0.0161397 0.0000068 0.0000000
0.0338321 0.0000068 0.0000000
0.0643662 0.0000098 0.0000000
0.1134549 0.0000211 0.0000000
0.1878170 0.0000584 0.0000004
0.2939855 0.0001727 0.0000071
0.4361460 0.0004935 0.0000455
0.6080782 0.0016125 0.0001917
0.8029615 0.0043766 0.0006384
1.0000000 0.0101178 0.0017796
1.0000000 0.0208961 0.0042949
1.0000000 0.0395677 0.0092236
1.0000000 0.0695753 0.0180612
1.0000000 0.1142907 0.0329109
1.0000000 0.1759063 0.0565121
1.0000000 0.2542528 0.0919839
1.0000000 0.3462269 0.1421595
1.0000000 0.4471938 0.2086174
1.0000000 0.5524085 0.2906801
1.0000000 0.6535987 0.3845532
1.0000000 0.7465576 0.4846419
0.0000000 0.0000656 0.0000000
0.0000000 0.0000643 0.0000000
0.0000000 0.0000631 0.0000000
0.0000000 0.0000618 0.0000000
0.0000000 0.0000616 0.0000000
0.0000000 0.0000650 0.0000000
0.0000000 0.0000670 0.0000000
0.0000094 0.0000679 0.0000000
0.0001150 0.0000674 0.0000000
0.0006030 0.0000650 0.0000000
0.0021831 0.0000611 0.0000000
0.0062638 0.0000569 0.0000000
0.0151726 0.0000544 0.0000000
0.0322593 0.0000568 0.0000000
0.0619650 0.0000693 0.0000000
0.1099942 0.0001028 0.0000000
0.1830991 0.0001839 0.0000002
0.2879122 0.0003759 0.0000060
0.4287841 0.0008205 0.0000429
0.6049526 0.0018087 0.0001900
0.8029017 0.0043755 0.0006382
1.0000000 0.0101161 0.0017792
1.0000000 0.0208938 0.0042944
1.0000000 0.0395648 0.0092228
1.0000000 0.0695720 0.0180601
1.0000000 0.1142872 0.0329097
1.0000000 0.1759029 0.0565106
1.0000000 0.2542496 0.0919823
1.0000000 0.3462243 0.1421579
1.0000000 0.4471916 0.2086159
1.0000000 0.5524069 0.2906788
1.0000000 0.6535976 0.3845521
1.0000000 0.7465569 0.4846410
0.0000000 0.0002386 0.0000000
0.0000000 0.0002356 0.0000000
0.0000000 0.0002325 0.0000000
0.0000000 0.0002295 0.0000000
0.0000000 0.0002285 0.0000000
0.0000000 0.0002371 0.0000000
0.0000000 0.0002425 0.0000000
0.0000003 0.0002460 0.0000000
0.0000541 0.0002469 0.0000000
0.0004251 0.0002444 0.0000000
0.0017859 0.0002390 0.0000000
0.0054985 0.0002332 0.0000000
0.0138406 0.0002314 0.0000000
0.0301182 0.0002407 0.0000000
0.0587433 0.0002718 0.0000000
0.1054152 0.0003432 0.0000000
0.1769268 0.0004916 0.0000000
0.2800252 0.0007931 0.0000048
0.4192532 0.0014020 0.0000397
0.5940816 0.0026177 0.0001841
0.7965814 0.0049857 0.0006335
1.0000000 0.0101137 0.0017787
1.0000000 0.0208907 0.0042936
1.0000000 0.0395609 0.0092217
1.0000000 0.0695676 0.0180588
1.0000000 0.1142824 0.0329080
1.0000000 0.1758982 0.0565087
1.0000000 0.2542454 0.0919802
1.0000000 0.3462207 0.1421557
1.0000000 0.4471888 0.2086139
1.0000000 0.5524048 0.2906770
1.0000000 0.6535961 0.3845506
1.0000000 0.7465559 0.4846399
0.0000000 0.0007467 0.0000000
0.0000000 0.0007404 0.0000000
0.0000000 0.0007342 0.0000000
0.0000000 0.0007279 0.0000000
0.0000000 0.0007248 0.0000000
0.0000000 0.0007421 0.0000000
0.0000000 0.0007535 0.0000000
0.0000000 0.0007613 0.0000000
0.0000086 0.0007644 0.0000000
0.0002303 0.0007616 0.0000000
0.0012992 0.0007535 0.0000000
0.0045199 0.0007444 0.0000000
0.0121125 0.0007428 0.0000000
0.0273354 0.0007615 0.0000000
0.0545729 0.0008188 0.0000000
0.0995236 0.0009425 0.0000000
0.1690289 0.0011808 0.0000000
0.2699658 0.0016233 0.0000035
0.4070984 0.0024380 0.0000361
0.5801755 0.0039341 0.0001773
0.7815220 0.0066584 0.0006233
0.9958407 0.0115344 0.0017697
1.0000000 0.0208865 0.0042926
1.0000000 0.0395557 0.0092202
1.0000000 0.0695616 0.0180569
1.0000000 0.1142760 0.0329057
1.0000000 0.1758919 0.0565061
1.0000000 0.2542397 0.0919774
1.0000000 0.3462159 0.1421529
1.0000000 0.4471849 0.2086111
1.0000000 0.5524020 0.2906745
1.0000000 0.6535941 0.3845486
1.0000000 0.7465546 0.4846384
0.0000000 0.0020354 0.0000000
0.0000000 0.0020242 0.0000000
0.0000000 0.0020131 0.0000000
0.0000000 0.0020019 0.0000000
0.0000000 0.0019937 0.0000000
0.0000000 0.0020228 0.0000000
0.0000000 0.0020414 0.0000000
0.0000000 0.0020534 0.0000000
0.0000000 0.0020568 0.0000000
0.0000693 0.0020491 0.0000000
0.0007815 0.0020312 0.0000000
0.0033831 0.0020101 0.0000000
0.0100262 0.0019994 0.0000000
0.0239163 0.0020199 0.0000000
0.0494095 0.0020999 0.0000000
0.0922069 0.0022783 0.0000000
0.1592052 0.0026166 0.0000000
0.2574270 0.0032196 0.0000023
0.3918887 0.0042709 0.0000321
0.5626677 0.0060921 0.0001698
0.7624080 0.0092360 0.0006120
0.9760201 0.0146219 0.0017549
1.0000000 0.0236979 0.0042786
1.0000000 0.0395487 0.0092183
1.0000000 0.0695535 0.0180544
1.0000000 0.1142674 0.0329027
1.0000000 0.1758834 0.0565026
1.0000000 0.2542319 0.0919736
1.0000000 0.3462094 0.1421490
1.0000000 0.4471797 0.2086074
1.0000000 0.5523981 0.2906713
1.0000000 0.6535915 0.3845459
1.0000000 0.7465528 0.4846363
0.0000000 0.0048970 0.0000000
0.0000000 0.0048795 0.0000000
0.0000000 0.0048620 0.0000000
0.0000000 0.0048446 0.0000000
0.0000000 0.0048272 0.0000000
0.0000000 0.0048671 0.0000000
0.0000000 0.0048904 0.0000000
0.0000000 0.0049016 0.0000000
0.0000000 0.0048968 0.0000000
0.0000010 0.0048710 0.0000000
0.0003310 0.0048250 0.0000000
0.0022061 0.0047685 0.0000000
0.0077057 0.0047218 0.0000000
0.0199736 0.0047157 0.0000000
0.0433330 0.0047908 0.0000000
0.0834856 0.0049996 0.0000000
0.1473865 0.0054192 0.0000000
0.2422181 0.0061728 0.0000013
0.3732809 0.0074639 0.0000281
0.5410379 0.0096321 0.0001622
0.7385320 0.0132425 0.0006009
0.9509925 0.0192122 0.0017404
1.0000000 0.0289558 0.0042606
1.0000000 0.0445071 0.0092009
1.0000000 0.0695426 0.0180510
1.0000000 0.1142558 0.0328985
1.0000000 0.1758719 0.0564978
1.0000000 0.2542215 0.0919684
1.0000000 0.3462007 0.1421438
1.0000000 0.4471727 0.2086024
1.0000000 0.5523930 0.2906669
1.0000000 0.6535879 0.3845423
1.0000000 0.7465504 0.4846336
0.0000000 0.0105592 0.0000000
0.0000000 0.0105346 0.0000000
0.0000000 0.0105101 0.0000000
0.0000000 0.0104856 0.0000000
0.0000000 0.0104612 0.0000000
0.0000000 0.0104975 0.0000000
0.0000000 0.0105167 0.0000000
0.0000000 0.0105149 0.0000000
0.0000000 0.0104836 0.0000000
0.0000000 0.0104144 0.0000000
0.0000559 0.0103064 0.0000000
0.0011521 0.0101719 0.0000000
0.0053510 0.0100383 0.0000000
0.0157263 0.0099480 0.0000000
0.0365570 0.0099559 0.0000000
0.0735363 0.0101308 0.0000000
0.1336728 0.0105691 0.0000000
0.2243163 0.0114175 0.0000006
0.3510814 0.0129064 0.0000246
0.5148788 0.0154025 0.0001555
0.7092629 0.0194903 0.0005918
0.9199277 0.0260832 0.0017293
1.0000000 0.0365562 0.0042473
1.0000000 0.0528539 0.0091856
1.0000000 0.0774846 0.0180391
1.0000000 0.1142401 0.0328930
1.0000000 0.1758565 0.0564915
1.0000000 0.2542075 0.0919615
1.0000000 0.3461889 0.1421367
1.0000000 0.4471632 0.2085957
1.0000000 0.5523860 0.2906610
1.0000000 0.6535831 0.3845375
1.0000000 0.7465471 0.4846299
0.0000000 0.0207501 0.0000000
0.0000000 0.0207185 0.0000000
0.0000000 0.0206870 0.0000000
0.0000000 0.0206554 0.0000000
0.0000000 0.0206238 0.0000000
0.0000000 0.0206392 0.0000000
0.0000000 0.0206377 0.0000000
0.0000000 0.0206019 0.0000000
0.0000000 0.0205156 0.0000000
0.0000000 0.0203647 0.0000000
0.0000000 0.0201452 0.0000000
0.0003887 0.0198704 0.0000000
0.0032014 0.0195745 0.0000000
0.0114658 0.0193119 0.0000000
0.0294017 0.0191534 0.0000000
0.0626744 0.0191862 0.0000000
0.1183297 0.0195301 0.0000000
0.2038821 0.0203619 0.0000002
0.3252863 0.0219479 0.0000221
0.4839793 0.0246904 0.0001517
0.6741625 0.0291989 0.0005883
0.8821548 0.0363858 0.0017276
1.0000000 0.0475798 0.0042470
1.0000000 0.0646194 0.0091862
1.0000000 0.0898444 0.0180445
1.0000000 0.1258688 0.0329117
1.0000000 0.1758357 0.0564829
1.0000000 0.2541887 0.0919522
1.0000000 0.3461731 0.1421272
1.0000000 0.4471504 0.2085867
1.0000000 0.5523767 0.2906530
1.0000000 0.6535766 0.3845310
1.0000000 0.7465428 0.4846248
0.0000000 0.0378008 0.0000000
0.0000000 0.0377626 0.0000000
0.0000000 0.0377244 0.0000000
0.0000000 0.0376863 0.0000000
0.0000000 0.0376481 0.0000000
0.0000000 0.0376255 0.0000000
0.0000000 0.0375789 0.0000000
0.0000000 0.0374796 0.0000000
0.0000000 0.0373001 0.0000000
0.0000000 0.0370183 0.0000000
0.0000000 0.0366247 0.0000000
0.0000308 0.0361315 0.0000000
0.0014899 0.0355779 0.0000000
0.0075102 0.0350292 0.0000000
0.0222473 0.0345719 0.0000000
0.0513131 0.0343122 0.0000000
0.1017657 0.0343958 0.0000000
0.1812731 0.0350344 0.0000001
0.2961537 0.0365370 0.0000216
0.4484460 0.0393506 0.0001535
0.6331325 0.0441179 0.0005964
0.8373321 0.0517541 0.0017448
1.0000000 0.0635383 0.0042733
1.0000000 0.0811872 0.0092206
1.0000000 0.1068453 0.0180905
1.0000000 0.1428854 0.0329794
1.0000000 0.1914301 0.0565809
1.0000000 0.2541633 0.0919397
1.0000000 0.3461518 0.1421144
1.0000000 0.4471333 0.2085745
1.0000000 0.5523641 0.2906422
1.0000000 0.6535678 0.3845221
1.0000000 0.7465369 0.4846181
0.0000000 0.0647620 0.0000000
0.0000000 0.0647183 0.0000000
0.0000000 0.0646745 0.0000000
0.0000000 0.0646308 0.0000000
0.0000000 0.0645871 0.0000000
0.0000000 0.0645240 0.0000000
0.0000000 0.0643984 0.0000000
0.0000000 0.0641967 0.0000000
0.0000000 0.0638752 0.0000000
0.0000000 0.0634018 0.0000000
0.0000000 0.0627587 0.0000000
0.0000000 0.0619535 0.0000000
0.0004037 0.0610267 0.0000000
0.0041796 0.0600513 0.0000000
0.0155243 0.0591264 0.0000000
0.0399759 0.0583750 0.0000000
0.0845745 0.0579684 0.0000000
0.1571207 0.0581553 0.0000002
0.2643054 0.0592924 0.0000246
0.4088287 0.0618785 0.0001658
0.5865772 0.0665974 0.0006258
0.7856476 0.0743728 0.0017968
0.9883978 0.0864322 0.0043492
1.0000000 0.1043611 0.0093187
1.0000000 0.1300887 0.0182134
1.0000000 0.1657204 0.0331364
1.0000000 0.2131344 0.0567839
1.0000000 0.2733503 0.0921898
1.0000000 0.3461231 0.1420972
1.0000000 0.4471101 0.2085581
1.0000000 0.5523471 0.2906278
1.0000000 0.6535560 0.3845103
1.0000000 0.7465290 0.4846090
0.0000000 0.1052223 0.0000000
0.0000000 0.1051748 0.0000000
0.0000000 0.1051272 0.0000000
0.0000000 0.1050797 0.0000000
0.0000000 0.1050322 0.0000000
0.0000000 0.1049676 0.0000000
0.0000000 0.1047195 0.0000000
0.0000000 0.1043669 0.0000000
0.0000000 0.1038447 0.0000000
0.0000000 0.1031088 0.0000000
0.0000000 0.1021295 0.0000000
0.0000000 0.1009054 0.0000000
0.0000099 0.0994727 0.0000000
0.0017600 0.0979058 0.0000000
0.0096972 0.0963100 0.0000000
0.0292982 0.0948198 0.0000000
0.0675537 0.0936280 0.0000000
0.1323655 0.0930186 0.0000011
0.2307878 0.0933964 0.0000351
0.3662184 0.0953155 0.0001979
0.5355478 0.0995064 0.0006929
0.7280110 0.1069054 0.0019095
0.9269657 0.1186908 0.0045110
1.0000000 0.1363138 0.0095283
1.0000000 0.1614809 0.0184718
1.0000000 0.1960185 0.0334500
1.0000000 0.2415484 0.0571602
1.0000000 0.2989678 0.0926297
1.0000000 0.3678752 0.1425816
1.0000000 0.4470827 0.2085361
1.0000000 0.5523243 0.2906083
1.0000000 0.6535401 0.3844943
1.0000000 0.7465184 0.4845968
0.0000000 0.1626916 0.0000000
0.0000000 0.1626429 0.0000000
0.0000000 0.1625941 0.0000000
0.0000000 0.1625453 0.0000000
0.0000000 0.1624966 0.0000000
0.0000000 0.1624478 0.0000000
0.0000000 0.1621357 0.0000000
0.0000000 0.1615793 0.0000000
0.0000000 0.1607939 0.0000000
0.0000000 0.1597215 0.0000000
0.0000000 0.1583174 0.0000000
0.0000000 0.1565655 0.0000000
0.0000000 0.1544900 0.0000000
0.0004050 0.1521574 0.0000000
0.0051741 0.1496695 0.0000000
0.0199445 0.1471628 0.0000000
0.0516360 0.1448441 0.0000000
0.1082099 0.1430257 0.0000068
0.1970529 0.1421560 0.0000635
0.3222656 0.1428421 0.0002686
0.4818039 0.1458608 0.0008273
0.6661667 0.1521639 0.0021252
0.8598865 0.1628843 0.0048168
1.0000000 0.1793441 0.0099242
1.0000000 0.2030338 0.0189574
1.0000000 0.2355089 0.0340258
1.0000000 0.2781419 0.0578239
1.0000000 0.3317130 0.0933686
1.0000000 0.3959339 0.1433652
1.0000000 0.4700040 0.2093159
1.0000000 0.5525004 0.2905913
1.0000000 0.6535186 0.3844728
1.0000000 0.7465040 0.4845803
0.0000000 0.2395087 0.0000000
0.0000000 0.2394618 0.0000000
0.0000000 0.2394149 0.0000000
0.0000000 0.2393680 0.0000000
0.0000000 0.2393211 0.0000000
0.0000000 0.2392741 0.0000000
0.0000000 0.2391301 0.0000000
0.0000000 0.2383233 0.0000000
0.0000000 0.2372214 0.0000000
0.0000000 0.2357511 0.0000000
0.0000000 0.2338496 0.0000000
0.0000000 0.2314802 0.0000000
0.0000000 0.2286461 0.0000000
0.0000044 0.2253944 0.0000000
0.0021715 0.2218098 0.0000000
0.0124573 0.2180196 0.0000000
0.0377293 0.2142329 0.0000045
0.0859587 0.2107792 0.0000345
0.1648085 0.2081399 0.0001377
0.2790480 0.2069663 0.0004180
0.4277109 0.2080760 0.0010835
0.6026341 0.2124340 0.0025157
0.7896560 0.2211314 0.0053583
0.9721436 0.2353721 0.0106214
1.0000000 0.2564504 0.0198089
1.0000000 0.2856770 0.0350235
1.0000000 0.3242014 0.0589483
1.0000000 0.3727052 0.0945826
1.0000000 0.4310223 0.1446095
1.0000000 0.4987566 0.2105143
1.0000000 0.5750103 0.2916657
1.0000000 0.6538255 0.3844635
1.0000000 0.7464847 0.4845581
0.0000000 0.3355245 0.0000000
0.0000000 0.3354825 0.0000000
0.0000000 0.3354404 0.0000000
0.0000000 0.3353983 0.0000000
0.0000000 0.3353563 0.0000000
0.0000000 0.3353142 0.0000000
0.0000000 0.3352718 0.0000000
0.0000000 0.3346604 0.0000000
0.0000000 0.3332169 0.0000000
0.0000000 0.3313214 0.0000000
0.0000000 0.3288904 0.0000000
0.0000000 0.3258617 0.0000000
0.0000000 0.3222086 0.0000004
0.0000000 0.3179464 0.0000021
0.0005993 0.3131287 0.0000074
0.0070881 0.3078605 0.0000218
0.0265015 0.3023404 0.0000574
0.0667641 0.2969008 0.0001410
0.1357314 0.2920419 0.0003287
0.2387628 0.2884449 0.0007327
0.3759258 0.2869564 0.0015653
0.5404065 0.2885476 0.0032049
0.7194234 0.2942689 0.0062833
0.8974305 0.3052182 0.0117960
1.0000000 0.3225190 0.0212327
1.0000000 0.3472736 0.0366768
1.0000000 0.3804464 0.0607862
1.0000000 0.4226471 0.0965297
1.0000000 0.4738392 0.1465607
1.0000000 0.5340362 0.2123493
1.0000000 0.6028716 0.2932742
1.0000000 0.6748408 0.3857746
1.0000000 0.7468560 0.4845568
0.0000000 0.4472330 0.0000432
0.0000000 0.4471980 0.0000431
0.0000000 0.4471629 0.0000431
0.0000000 0.4471279 0.0000430
0.0000000 0.4470928 0.0000430
0.0000000 0.4470578 0.0000429
0.0000000 0.4470225 0.0000429
0.0000000 0.4469790 0.0000428
0.0000000 0.4455312 0.0000452
0.0000000 0.4432367 0.0000494
0.0000000 0.4403072 0.0000555
0.0000000 0.4366516 0.0000645
0.0000000 0.4322063 0.0000783
0.0000000 0.4269442 0.0001000
0.0000592 0.4208754 0.0001352
0.0037085 0.4140720 0.0001942
0.0182072 0.4067094 0.0002959
0.0513712 0.3991089 0.0004758
0.1111335 0.3917732 0.0008004
0.2033203 0.3853969 0.0013918
0.3289314 0.3808405 0.0024688
0.4824501 0.3790708 0.0044084
0.6524873 0.3810947 0.0078319
0.8246604 0.3879138 0.0137181
0.9851975 0.4005038 0.0235320
1.0000000 0.4197929 0.0393206
1.0000000 0.4465970 0.0636954
1.0000000 0.4814772 0.0995746
1.0000000 0.5245270 0.1495686
1.0000000 0.5761604 0.2151339
1.0000000 0.6365274 0.2956767
1.0000000 0.7005800 0.3877031
1.0000000 0.7657250 0.4860027
0.0000000 0.5680483 0.0004492
0.0000000 0.5680212 0.0004490
0.0000000 0.5679940 0.0004489
0.0000000 0.5679669 0.0004487
0.0000000 0.5679397 0.0004485
0.0000000 0.5679125 0.0004483
0.0000000 0.5678852 0.0004482
0.0000000 0.5678515 0.0004480
0.0000000 0.5677571 0.0004479
0.0000000 0.5651501 0.0004626
0.0000000 0.5618237 0.0004830
0.0000000 0.5576571 0.0005120
0.0000000 0.5525464 0.0005536
0.0000000 0.5464146 0.0006142
0.0000000 0.5392228 0.0007037
0.0018810 0.5310022 0.0008385
0.0126693 0.5218951 0.0010456
0.0400018 0.5121996 0.0013706
0.0917403 0.5024061 0.0018918
0.1740120 0.4932069 0.0027433
0.2885981 0.4854608 0.0041527
0.4311747 0.4801190 0.0064991
0.5917033 0.4781412 0.0103967
0.7569927 0.4804387 0.0168052
0.9140671 0.4878563 0.0271523
1.0000000 0.5011720 0.0434279
1.0000000 0.5210755 0.0681698
1.0000000 0.5480885 0.1042156
1.0000000 0.5824180 0.1541120
1.0000000 0.6248505 0.2193010
1.0000000 0.6760120 0.2992371
1.0000000 0.7312979 0.3905332
1.0000000 0.7886544 0.4881036
0.0000000 0.6898055 0.0018970
0.0000000 0.6897858 0.0018966
0.0000000 0.6897662 0.0018962
0.0000000 0.6897466 0.0018958
0.0000000 0.6897269 0.0018954
0.0000000 0.6897073 0.0018951
0.0000000 0.6896875 0.0018947
0.0000000 0.6896632 0.0018942
0.0000000 0.6896304 0.0018936
0.0000000 0.6889728 0.0018998
0.0000000 0.6854065 0.0019412
0.0000000 0.6809123 0.0019989
0.0000000 0.6753460 0.0020800
0.0000000 0.6685807 0.0021950
0.0000000 0.6605290 0.0023593
0.0010684 0.6511772 0.0025967
0.0094426 0.6406275 0.0029435
0.0324492 0.6291449 0.0034575
0.0776952 0.6171960 0.0042307
0.1514098 0.6054568 0.0054116
0.2559691 0.5947714 0.0072406
0.3881019 0.5860666 0.0101038
0.5390467 0.5802534 0.0146114
0.6967961 0.5781596 0.0216998
0.8492191 0.5805116 0.0327471
0.9865494 0.5879519 0.0496635
1.0000000 0.6010510 0.0748796
1.0000000 0.6202799 0.1111153
1.0000000 0.6459222 0.1608237
1.0000000 0.6790838 0.2254254
1.0000000 0.7207946 0.3044465
1.0000000 0.7668555 0.3946556
1.0000000 0.8157753 0.4911487
0.0000000 0.8047379 0.0055445
0.0000000 0.8047246 0.0055438
0.0000000 0.8047113 0.0055432
