luts/VLog/in-VLog.AgX_look1-BT2020.out-BT1886.cube
TITLE "in-VLog.AgX_look1-BT2020.out-BT1886"
# author = Liam Collod
# LUT resolution = 33
# LUT domain = [[ 0.  0.  0.] [ 1.  1.  1.]]
LUT_3D_SIZE 9
0.0000000 0.0000000 0.0000000
0.0000000 0.0000000 0.0000000
0.0002631 0.0000000 0.0000000
0.0177725 0.0000000 0.0000000
0.1931441 0.0000049 0.0000007
0.8032209 0.0043817 0.0006393
1.0000000 0.0695897 0.0180656
1.0000000 0.3462384 0.1421664
1.0000000 0.7465607 0.4846455
0.0000000 0.0000000 0.0000000
0.0000000 0.0000000 0.0000000
0.0002519 0.0000000 0.0000000
0.0176673 0.0000000 0.0000000
0.1929360 0.0000049 0.0000007
0.8030777 0.0043789 0.0006388
1.0000000 0.0695818 0.0180632
1.0000000 0.3462321 0.1421626
1.0000000 0.7465590 0.4846435
0.0000000 0.0000656 0.0000000
0.0000000 0.0000616 0.0000000
0.0001150 0.0000674 0.0000000
0.0151726 0.0000544 0.0000000
0.1830991 0.0001839 0.0000002
0.8029017 0.0043755 0.0006382
1.0000000 0.0695720 0.0180601
1.0000000 0.3462243 0.1421579
1.0000000 0.7465569 0.4846410
0.0000000 0.0048970 0.0000000
0.0000000 0.0048272 0.0000000
0.0000000 0.0048968 0.0000000
0.0077057 0.0047218 0.0000000
0.1473865 0.0054192 0.0000000
0.7385320 0.0132425 0.0006009
1.0000000 0.0695426 0.0180510
1.0000000 0.3462007 0.1421438
1.0000000 0.7465504 0.4846336
0.0000000 0.0647620 0.0000000
0.0000000 0.0645871 0.0000000
0.0000000 0.0638752 0.0000000
0.0004037 0.0610267 0.0000000
0.0845745 0.0579684 0.0000000
0.5865772 0.0665974 0.0006258
1.0000000 0.1300887 0.0182134
1.0000000 0.3461231 0.1420972
1.0000000 0.7465290 0.4846090
0.0000000 0.3355245 0.0000000
0.0000000 0.3353563 0.0000000
0.0000000 0.3332169 0.0000000
0.0000000 0.3222086 0.0000004
0.0265015 0.3023404 0.0000574
0.3759258 0.2869564 0.0015653
1.0000000 0.3225190 0.0212327
1.0000000 0.4738392 0.1465607
1.0000000 0.7468560 0.4845568
0.0000000 0.8047379 0.0055445
0.0000000 0.8046846 0.0055419
0.0000000 0.8046190 0.0055387
0.0000000 0.7928389 0.0057803
0.0080778 0.7555727 0.0070752
0.2313398 0.7023933 0.0127591
0.7923537 0.6737265 0.0412664
1.0000000 0.7126605 0.1705140
1.0000000 0.8468652 0.4955291
0.0033518 1.0000000 0.0877708
0.0033505 1.0000000 0.0877642
0.0033490 1.0000000 0.0877561
0.0033442 1.0000000 0.0877317
0.0257147 1.0000000 0.0898271
0.2093540 1.0000000 0.1000474
0.6501860 0.9813398 0.1381222
1.0000000 0.9600396 0.2619982
1.0000000 0.9929632 0.5382498
0.2272378 1.0000000 0.3972306
0.2272330 1.0000000 0.3972260
0.2272271 1.0000000 0.3972203
0.2272093 1.0000000 0.3972032
0.2271507 1.0000000 0.3971470
0.3526641 1.0000000 0.4020599
0.6727316 1.0000000 0.4249494
1.0000000 1.0000000 0.4970464
1.0000000 1.0000000 0.6633871
0.0000000 0.0000000 0.0000000
0.0000000 0.0000000 0.0000000
0.0002223 0.0000000 0.0000000
0.0172691 0.0000000 0.0000000
0.1921438 0.0000047 0.0000007
0.8025321 0.0043682 0.0006369
1.0000000 0.0695516 0.0180538
1.0000000 0.3462079 0.1421481
1.0000000 0.7465524 0.4846359
0.0000000 0.0000000 0.0000000
0.0000000 0.0000000 0.0000000
0.0002128 0.0000000 0.0000000
0.0171652 0.0000000 0.0000000
0.1919358 0.0000046 0.0000007
0.8023888 0.0043654 0.0006364
1.0000000 0.0695436 0.0180513
1.0000000 0.3462015 0.1421443
1.0000000 0.7465506 0.4846338
0.0000000 0.0000482 0.0000000
0.0000000 0.0000442 0.0000000
0.0001009 0.0000490 0.0000000
0.0149523 0.0000369 0.0000000
0.1832671 0.0001433 0.0000002
0.8022126 0.0043619 0.0006358
1.0000000 0.0695339 0.0180483
1.0000000 0.3461937 0.1421396
1.0000000 0.7465485 0.4846314
0.0000000 0.0046385 0.0000000
0.0000000 0.0045706 0.0000000
0.0000000 0.0046386 0.0000000
0.0075517 0.0044749 0.0000000
0.1473385 0.0051654 0.0000000
0.7395653 0.0128998 0.0005991
1.0000000 0.0695044 0.0180392
1.0000000 0.3461702 0.1421255
1.0000000 0.7465420 0.4846239
0.0000000 0.0641080 0.0000000
0.0000000 0.0639334 0.0000000
0.0000000 0.0632677 0.0000000
0.0003643 0.0604339 0.0000000
0.0842648 0.0573874 0.0000000
0.5868991 0.0660302 0.0006224
1.0000000 0.1295142 0.0181976
1.0000000 0.3460925 0.1420789
1.0000000 0.7465206 0.4845994
0.0000000 0.3348949 0.0000000
0.0000000 0.3347265 0.0000000
0.0000000 0.3327814 0.0000000
0.0000000 0.3217320 0.0000003
0.0262353 0.3018120 0.0000561
0.3756985 0.2864261 0.0015573
1.0000000 0.3220553 0.0212090
1.0000000 0.4735356 0.1465274
1.0000000 0.7467456 0.4845398
0.0000000 0.8045383 0.0055349
0.0000000 0.8044849 0.0055323
0.0000000 0.8044193 0.0055291
0.0000000 0.7928723 0.0057648
0.0079354 0.7555072 0.0070576
0.2309949 0.7022422 0.0127359
0.7923009 0.6735560 0.0412319
1.0000000 0.7125289 0.1704746
1.0000000 0.8468001 0.4955100
0.0033470 1.0000000 0.0877462
0.0033458 1.0000000 0.0877396
0.0033442 1.0000000 0.0877315
0.0033394 1.0000000 0.0877071
0.0255135 1.0000000 0.0897886
0.2090594 1.0000000 0.1000063
0.6500704 0.9813176 0.1380796
1.0000000 0.9600107 0.2619610
1.0000000 0.9929412 0.5382314
0.2272199 1.0000000 0.3972134
0.2272151 1.0000000 0.3972088
0.2272092 1.0000000 0.3972031
0.2271914 1.0000000 0.3971860
0.2271328 1.0000000 0.3971297
0.3524418 1.0000000 0.4020331
0.6726309 1.0000000 0.4249228
1.0000000 1.0000000 0.4970243
1.0000000 1.0000000 0.6633745
0.0000000 0.0000002 0.0001032
0.0000000 0.0000002 0.0001009
0.0002112 0.0000000 0.0001113
0.0167558 0.0000000 0.0001388
0.1875512 0.0000325 0.0002877
0.7948097 0.0047894 0.0017259
1.0000000 0.0695047 0.0180393
1.0000000 0.3461704 0.1421256
1.0000000 0.7465420 0.4846240
0.0000000 0.0000002 0.0000934
0.0000000 0.0000002 0.0000912
0.0002028 0.0000000 0.0001008
0.0166579 0.0000000 0.0001264
0.1874509 0.0000311 0.0002674
0.7949398 0.0047684 0.0016698
1.0000000 0.0694968 0.0180368
1.0000000 0.3461640 0.1421218
1.0000000 0.7465403 0.4846220
0.0000000 0.0000850 0.0000781
0.0000000 0.0000786 0.0000764
0.0000833 0.0000833 0.0000833
0.0145254 0.0000681 0.0001032
0.1804006 0.0002005 0.0002321
0.7951002 0.0047427 0.0016021
1.0000000 0.0694870 0.0180338
1.0000000 0.3461562 0.1421171
1.0000000 0.7465381 0.4846195
0.0000000 0.0050466 0.0000256
0.0000000 0.0049708 0.0000248
0.0000000 0.0050052 0.0000280
0.0072759 0.0048047 0.0000393
0.1453216 0.0054331 0.0001279
0.7363823 0.0129939 0.0013475
1.0000000 0.0694576 0.0180246
1.0000000 0.3461327 0.1421030
1.0000000 0.7465317 0.4846121
0.0000000 0.0643515 0.0000000
0.0000000 0.0641651 0.0000000
0.0000000 0.0634969 0.0000000
0.0003254 0.0606068 0.0000000
0.0834283 0.0574034 0.0000147
0.5862698 0.0656245 0.0008414
1.0000000 0.1288083 0.0181783
1.0000000 0.3460550 0.1420565
1.0000000 0.7465103 0.4845875
0.0000000 0.3341204 0.0000000
0.0000000 0.3339518 0.0000000
0.0000000 0.3322454 0.0000000
0.0000000 0.3211462 0.0000003
0.0259093 0.3011620 0.0000545
0.3754192 0.2857737 0.0015475
1.0000000 0.3214849 0.0211799
1.0000000 0.4731622 0.1464866
1.0000000 0.7466098 0.4845189
0.0000000 0.8042928 0.0055230
0.0000000 0.8042393 0.0055205
0.0000000 0.8041736 0.0055173
0.0000000 0.7929143 0.0057458
0.0077620 0.7554268 0.0070360
0.2305708 0.7020564 0.0127075
0.7922360 0.6733463 0.0411895
1.0000000 0.7123670 0.1704261
1.0000000 0.8467202 0.4954866
0.0033412 1.0000000 0.0877159
0.0033399 1.0000000 0.0877094
0.0033383 1.0000000 0.0877013
0.0033336 1.0000000 0.0876768
0.0252671 1.0000000 0.0897412
0.2086974 1.0000000 0.0999558
0.6499282 0.9812904 0.1380274
1.0000000 0.9599752 0.2619154
1.0000000 0.9929142 0.5382089
0.2271979 1.0000000 0.3971922
0.2271931 1.0000000 0.3971876
0.2271872 1.0000000 0.3971820
0.2271694 1.0000000 0.3971649
0.2271108 1.0000000 0.3971086
0.3521684 1.0000000 0.4020002
0.6725069 1.0000000 0.4248901
1.0000000 1.0000000 0.4969971
1.0000000 1.0000000 0.6633591
0.0000000 0.0000601 0.0073059
0.0000000 0.0000597 0.0072788
0.0000870 0.0000643 0.0073396
0.0143161 0.0000719 0.0075514
0.1731043 0.0003905 0.0084762
0.7645370 0.0069354 0.0129266
1.0000000 0.0739037 0.0357080
1.0000000 0.3462572 0.1434175
1.0000000 0.7465109 0.4845881
0.0000000 0.0000585 0.0071875
0.0000000 0.0000582 0.0071607
0.0000824 0.0000627 0.0072204
0.0142339 0.0000699 0.0074318
0.1729987 0.0003844 0.0083529
0.7646230 0.0069106 0.0127861
1.0000000 0.0738524 0.0355205
1.0000000 0.3462189 0.1431967
1.0000000 0.7465091 0.4845861
0.0000000 0.0003059 0.0069475
0.0000000 0.0002906 0.0069252
0.0000247 0.0002911 0.0069827
0.0128472 0.0002722 0.0071968
0.1703602 0.0005383 0.0081618
0.7647292 0.0068801 0.0126142
1.0000000 0.0737893 0.0352905
1.0000000 0.3461719 0.1429254
1.0000000 0.7465070 0.4845837
0.0000000 0.0066761 0.0060317
0.0000000 0.0065904 0.0060105
0.0000000 0.0065450 0.0060592
0.0062699 0.0062699 0.0062699
0.1375984 0.0068841 0.0072340
0.7161028 0.0148363 0.0118066
1.0000000 0.0735989 0.0345980
1.0000000 0.3460296 0.1421054
1.0000000 0.7465005 0.4845762
0.0000000 0.0676612 0.0043147
0.0000000 0.0674742 0.0042949
0.0000000 0.0668000 0.0043264
0.0002296 0.0638001 0.0045359
0.0793312 0.0604341 0.0054605
0.5717221 0.0685059 0.0098161
1.0000000 0.1306191 0.0322436
1.0000000 0.3459416 0.1419885
1.0000000 0.7464791 0.4845516
0.0000000 0.3349084 0.0025868
0.0000000 0.3347330 0.0025710
0.0000000 0.3337380 0.0025657
0.0000000 0.3226469 0.0027441
0.0246376 0.3025869 0.0035169
0.3695233 0.2867964 0.0072805
1.0000000 0.3213679 0.0283977
1.0000000 0.4720310 0.1463631
1.0000000 0.7464088 0.4844708
0.0000000 0.8035492 0.0054874
0.0000000 0.8034956 0.0054848
0.0000000 0.8034297 0.0054817
0.0000000 0.7930472 0.0056886
0.0072488 0.7551850 0.0069709
0.2292879 0.7014938 0.0126217
0.7920398 0.6727114 0.0410613
1.0000000 0.7118770 0.1702796
1.0000000 0.8464782 0.4954159
0.0033235 1.0000000 0.0876245
0.0033222 1.0000000 0.0876180
0.0033206 1.0000000 0.0876099
0.0033159 1.0000000 0.0875854
0.0245278 1.0000000 0.0895980
0.2076023 1.0000000 0.0998033
0.6494980 0.9812081 0.1378693
1.0000000 0.9598679 0.2617772
1.0000000 0.9928325 0.5381408
0.2271313 1.0000000 0.3971283
0.2271265 1.0000000 0.3971237
0.2271206 1.0000000 0.3971180
0.2271028 1.0000000 0.3971009
0.2270442 1.0000000 0.3970446
0.3513412 1.0000000 0.4019009
0.6721321 1.0000000 0.4247914
1.0000000 1.0000000 0.4969149
1.0000000 1.0000000 0.6633124
0.0000000 0.0036638 0.0816333
0.0000000 0.0036595 0.0815770
0.0000000 0.0036584 0.0815001
0.0083283 0.0037495 0.0812269
0.1393057 0.0051994 0.0815059
0.6893132 0.0162967 0.0867222
1.0000000 0.0896567 0.1145400
1.0000000 0.3575572 0.2209994
1.0000000 0.7467773 0.4894341
0.0000000 0.0036449 0.0813860
0.0000000 0.0036406 0.0813297
0.0000000 0.0036394 0.0812534
0.0082669 0.0037301 0.0809813
0.1391801 0.0051766 0.0812623
0.6893263 0.0162616 0.0864822
1.0000000 0.0896034 0.1143046
1.0000000 0.3575193 0.2207907
1.0000000 0.7467674 0.4893226
0.0000000 0.0036218 0.0810823
0.0000000 0.0036175 0.0810260
0.0000000 0.0036160 0.0809503
0.0081918 0.0037064 0.0806796
0.1390258 0.0051485 0.0809631
0.6893425 0.0162186 0.0861874
1.0000000 0.0895379 0.1140153
1.0000000 0.3574728 0.2205341
1.0000000 0.7467552 0.4891855
0.0000000 0.0131418 0.0777765
0.0000000 0.0130301 0.0777391
0.0000000 0.0128815 0.0776924
0.0044622 0.0123177 0.0775945
0.1205137 0.0127431 0.0783576
0.6666902 0.0216696 0.0845750
1.0000000 0.0893400 0.1131411
1.0000000 0.3573321 0.2197580
1.0000000 0.7467182 0.4887708
0.0000000 0.0786459 0.0698394
0.0000000 0.0784564 0.0697939
0.0000000 0.0782145 0.0697384
0.0001180 0.0749048 0.0698084
0.0710050 0.0710054 0.0710053
0.5375771 0.0785000 0.0781256
1.0000000 0.1403431 0.1087075
1.0000000 0.3568686 0.2171976
1.0000000 0.7465965 0.4874018
0.0000000 0.3408442 0.0589408
0.0000000 0.3406728 0.0588915
0.0000000 0.3404621 0.0588309
0.0000000 0.3311604 0.0590159
0.0223682 0.3112963 0.0605529
0.3513593 0.2951046 0.0682713
1.0000000 0.3284733 0.1000591
1.0000000 0.4754476 0.2114170
1.0000000 0.7463060 0.4843526
0.0000000 0.7990734 0.0533088
0.0000000 0.7990212 0.0532600
0.0000000 0.7989571 0.0532000
0.0000000 0.7920497 0.0532750
0.0065303 0.7548942 0.0550196
0.2207326 0.7018375 0.0628313
0.7766551 0.6731764 0.0944101
1.0000000 0.7116981 0.2059928
1.0000000 0.8456789 0.4951830
0.0032655 1.0000000 0.0873236
0.0032642 1.0000000 0.0873171
0.0032627 1.0000000 0.0873090
0.0032580 1.0000000 0.0872846
0.0221531 1.0000000 0.0891274
0.2039892 1.0000000 0.0993014
0.6480767 0.9809366 0.1373489
1.0000000 0.9595137 0.2613222
1.0000000 0.9925632 0.5379165
0.2269119 1.0000000 0.3969176
0.2269071 1.0000000 0.3969130
0.2269013 1.0000000 0.3969074
0.2268834 1.0000000 0.3968903
0.2268248 1.0000000 0.3968339
0.3486090 1.0000000 0.4015737
0.6708947 1.0000000 0.4244660
1.0000000 1.0000000 0.4966441
1.0000000 1.0000000 0.6631587
0.0002818 0.0481240 0.3668281
0.0002816 0.0481131 0.3667833
0.0002813 0.0480996 0.3667283
0.0026906 0.0477068 0.3659341
0.0899336 0.0481599 0.3623655
0.5474491 0.0631629 0.3590001
1.0000000 0.1440220 0.3683171
1.0000000 0.3936511 0.4283412
1.0000000 0.7563254 0.6003366
0.0002808 0.0480761 0.3666317
0.0002805 0.0480651 0.3665869
0.0002802 0.0480517 0.3665319
0.0026588 0.0476613 0.3657423
0.0898104 0.0481112 0.3621730
0.5473893 0.0631106 0.3588105
1.0000000 0.1439670 0.3681402
1.0000000 0.3936156 0.4281987
1.0000000 0.7563156 0.6002579
0.0002795 0.0480172 0.3663903
0.0002792 0.0480062 0.3663455
0.0002789 0.0479928 0.3662904
0.0026199 0.0476053 0.3655066
0.0896589 0.0480514 0.3619364
0.5473158 0.0630463 0.3585775
1.0000000 0.1438994 0.3679228
1.0000000 0.3935719 0.4280235
1.0000000 0.7563036 0.6001610
0.0002755 0.0478393 0.3656598
0.0002753 0.0478284 0.3656149
0.0002750 0.0478150 0.3655598
0.0025042 0.0474364 0.3647935
0.0892015 0.0478709 0.3612203
0.5470935 0.0628522 0.3578724
1.0000000 0.1436950 0.3672649
1.0000000 0.3934399 0.4274935
1.0000000 0.7562672 0.5998681
0.0000000 0.1164372 0.3508852
0.0000000 0.1162440 0.3508648
0.0000000 0.1160065 0.3508397
0.0001654 0.1142984 0.3503424
0.0603607 0.1087186 0.3479395
0.4748914 0.1137982 0.3474718
1.0000000 0.1733217 0.3620655
1.0000000 0.3930048 0.4257434
1.0000000 0.7561474 0.5989016
0.0000000 0.3642996 0.3236827
0.0000000 0.3641405 0.3236454
0.0000000 0.3639449 0.3235996
0.0000000 0.3614182 0.3233106
0.0218321 0.3419340 0.3220198
0.3241689 0.3241699 0.3241698
0.9628138 0.3531417 0.3443652
1.0000000 0.4912980 0.4174589
1.0000000 0.7557525 0.5956958
0.0000000 0.7913056 0.2998887
0.0000000 0.7912542 0.2998437
0.0000000 0.7911911 0.2997885
0.0000000 0.7910001 0.2996217
0.0073994 0.7591085 0.2993164
0.2101107 0.7083273 0.3031604
0.7417193 0.6800611 0.3265229
1.0000000 0.7171526 0.4055673
1.0000000 0.8479061 0.5906602
0.0074145 1.0000000 0.2987017
0.0074114 1.0000000 0.2986573
0.0074077 1.0000000 0.2986028
0.0073964 1.0000000 0.2984380
0.0222713 1.0000000 0.2985480
0.1963695 1.0000000 0.3033915
0.6272598 0.9790260 0.3268808
1.0000000 0.9587211 0.4048082
1.0000000 0.9923031 0.5884268
0.2261893 1.0000000 0.3962232
0.2261845 1.0000000 0.3962186
0.2261786 1.0000000 0.3962129
0.2261608 1.0000000 0.3961958
0.2261021 1.0000000 0.3961394
0.3395179 1.0000000 0.4004961
0.6667847 1.0000000 0.4233929
1.0000000 1.0000000 0.4957507
1.0000000 1.0000000 0.6626518
0.0239623 0.2571444 0.7770572
0.0239599 0.2571332 0.7770455
0.0239570 0.2571196 0.7770310
0.0239483 0.2570782 0.7769874
0.0591040 0.2539544 0.7743287
0.3839731 0.2545269 0.7638143
0.9794231 0.3118908 0.7522199
1.0000000 0.4955455 0.7521748
1.0000000 0.7860433 0.8001342
0.0239520 0.2570955 0.7770057
0.0239496 0.2570844 0.7769939
0.0239467 0.2570707 0.7769795
0.0239380 0.2570294 0.7769358
0.0590098 0.2539104 0.7742816
0.3838837 0.2544778 0.7637643
0.9794275 0.3118462 0.7521689
1.0000000 0.4955181 0.7521279
1.0000000 0.7860346 0.8001008
0.0239393 0.2570355 0.7769423
0.0239369 0.2570244 0.7769305
0.0239340 0.2570107 0.7769161
0.0239253 0.2569693 0.7768724
0.0588941 0.2538565 0.7742237
0.3837738 0.2544175 0.7637027
0.9794330 0.3117913 0.7521062
1.0000000 0.4954845 0.7520701
1.0000000 0.7860239 0.8000598
0.0239010 0.2568540 0.7767506
0.0238986 0.2568429 0.7767389
0.0238958 0.2568292 0.7767244
0.0238870 0.2567879 0.7766807
0.0585448 0.2536933 0.7740486
0.3834417 0.2542352 0.7635165
0.9794495 0.3116254 0.7519167
1.0000000 0.4953827 0.7518954
1.0000000 0.7859916 0.7999358
0.0237751 0.2562561 0.7761182
0.0237727 0.2562450 0.7761064
0.0237699 0.2562313 0.7760919
0.0237612 0.2561899 0.7760480
0.0573984 0.2531562 0.7734709
0.3823462 0.2536346 0.7629022
0.9795043 0.3110789 0.7512912
1.0000000 0.4950475 0.7513192
1.0000000 0.7858851 0.7995268
0.0122932 0.4436162 0.7491056
0.0122952 0.4434906 0.7491059
0.0122977 0.4433363 0.7491064
0.0123051 0.4428694 0.7491077
0.0336897 0.4352846 0.7473399
0.3039448 0.4137907 0.7399199
0.8758546 0.4299993 0.7353198
1.0000000 0.5418275 0.7454017
1.0000000 0.7855342 0.7981738
0.0087465 0.7895995 0.7138121
0.0087440 0.7895543 0.7138015
0.0087409 0.7894988 0.7137884
0.0087315 0.7893308 0.7137489
0.0185196 0.7816307 0.7127736
0.2186616 0.7365879 0.7078060
0.7082188 0.7082197 0.7082196
1.0000000 0.7385970 0.7278309
1.0000000 0.8585900 0.7920169
0.0420104 1.0000000 0.6915660
0.0420042 1.0000000 0.6915523
0.0419966 1.0000000 0.6915356
0.0419736 1.0000000 0.6914849
0.0418979 1.0000000 0.6913180
0.2069898 1.0000000 0.6886534
0.6098407 0.9807010 0.6913667
0.9969111 0.9614076 0.7144751
1.0000000 0.9948231 0.7843172
0.2648709 1.0000000 0.6990974
0.2648636 1.0000000 0.6990841
0.2648547 1.0000000 0.6990677
0.2648275 1.0000000 0.6990182
0.2647382 1.0000000 0.6988550
0.3415138 1.0000000 0.6986299
0.6542027 1.0000000 0.7030163
0.9879964 1.0000000 0.7258542
1.0000000 1.0000000 0.7942704
0.2179468 0.6448374 1.0000000
0.2179434 0.6448335 1.0000000
0.2179391 0.6448288 1.0000000
0.2179264 0.6448144 1.0000000
0.2178843 0.6447671 1.0000000
0.3293817 0.6368525 1.0000000
0.7687880 0.6350061 1.0000000
1.0000000 0.7006583 1.0000000
1.0000000 0.8611892 1.0000000
0.2179317 0.6448204 1.0000000
0.2179283 0.6448165 1.0000000
0.2179240 0.6448118 1.0000000
0.2179113 0.6447974 1.0000000
0.2178692 0.6447501 1.0000000
0.3293076 0.6368386 1.0000000
0.7687652 0.6349888 1.0000000
1.0000000 0.7006453 1.0000000
1.0000000 0.8611835 1.0000000
0.2179132 0.6447995 1.0000000
0.2179097 0.6447957 1.0000000
0.2179055 0.6447909 1.0000000
0.2178927 0.6447766 1.0000000
0.2178506 0.6447292 1.0000000
0.3292166 0.6368216 1.0000000
0.7687373 0.6349675 1.0000000
1.0000000 0.7006293 1.0000000
1.0000000 0.8611764 1.0000000
0.2178571 0.6447365 1.0000000
0.2178536 0.6447326 1.0000000
0.2178494 0.6447279 1.0000000
0.2178366 0.6447135 1.0000000
0.2177945 0.6446662 1.0000000
0.3289412 0.6367701 1.0000000
0.7686527 0.6349033 1.0000000
1.0000000 0.7005809 1.0000000
1.0000000 0.8611551 1.0000000
0.2176724 0.6445288 1.0000000
0.2176689 0.6445249 1.0000000
0.2176647 0.6445202 1.0000000
0.2176519 0.6445058 1.0000000
0.2176098 0.6444584 1.0000000
0.3280335 0.6366004 1.0000000
0.7683742 0.6346917 1.0000000
1.0000000 0.7004217 1.0000000
1.0000000 0.8610849 1.0000000
0.2170639 0.6438436 1.0000000
0.2170605 0.6438397 1.0000000
0.2170562 0.6438349 1.0000000
0.2170434 0.6438205 1.0000000
0.2170013 0.6437730 1.0000000
0.3250349 0.6360420 1.0000000
0.7674543 0.6339936 1.0000000
1.0000000 0.6998964 1.0000000
1.0000000 0.8608535 1.0000000
0.1967683 0.8265418 1.0000000
0.1967655 0.8265118 1.0000000
0.1967620 0.8264750 1.0000000
0.1967515 0.8263636 1.0000000
0.1967170 0.8259965 1.0000000
0.2843124 0.8139927 1.0000000
0.6929767 0.7867048 0.9961624
1.0000000 0.8009330 0.9924886
1.0000000 0.8920980 0.9988991
0.2236899 1.0000000 0.9830187
0.2236835 1.0000000 0.9830170
0.2236756 1.0000000 0.9830150
0.2236517 1.0000000 0.9830089
0.2235730 1.0000000 0.9829886
0.2747516 1.0000000 0.9818187
0.6234480 0.9951676 0.9769513
0.9767302 0.9767307 0.9767306
1.0000000 1.0000000 0.9898161
0.4079896 1.0000000 0.9784662
0.4079839 1.0000000 0.9784638
0.4079769 1.0000000 0.9784609
0.4079556 1.0000000 0.9784521
0.4078855 1.0000000 0.9784231
0.4076546 1.0000000 0.9783274
0.6688358 1.0000000 0.9757963
0.9775296 1.0000000 0.9772013
1.0000000 1.0000000 0.9923729
0.6240451 0.9444339 1.0000000
0.6240439 0.9444333 1.0000000
0.6240424 0.9444324 1.0000000
0.6240378 0.9444300 1.0000000
0.6240227 0.9444218 1.0000000
0.6239730 0.9443949 1.0000000
0.7318918 0.9381195 1.0000000
1.0000000 0.9362535 1.0000000
1.0000000 0.9868169 1.0000000
0.6240397 0.9444310 1.0000000
0.6240385 0.9444303 1.0000000
0.6240370 0.9444295 1.0000000
0.6240324 0.9444270 1.0000000
0.6240173 0.9444189 1.0000000
0.6239676 0.9443920 1.0000000
0.7318724 0.9381172 1.0000000
1.0000000 0.9362505 1.0000000
1.0000000 0.9868146 1.0000000
0.6240331 0.9444274 1.0000000
0.6240318 0.9444267 1.0000000
0.6240303 0.9444259 1.0000000
0.6240257 0.9444234 1.0000000
0.6240106 0.9444153 1.0000000
0.6239609 0.9443884 1.0000000
0.7318485 0.9381144 1.0000000
1.0000000 0.9362467 1.0000000
1.0000000 0.9868119 1.0000000
0.6240130 0.9444165 1.0000000
0.6240117 0.9444159 1.0000000
0.6240102 0.9444150 1.0000000
0.6240056 0.9444126 1.0000000
0.6239905 0.9444044 1.0000000
0.6239408 0.9443776 1.0000000
0.7317764 0.9381059 1.0000000
1.0000000 0.9362352 1.0000000
1.0000000 0.9868035 1.0000000
0.6239467 0.9443807 1.0000000
0.6239455 0.9443801 1.0000000
0.6239440 0.9443793 1.0000000
0.6239394 0.9443768 1.0000000
0.6239243 0.9443686 1.0000000
0.6238746 0.9443418 1.0000000
0.7315386 0.9380779 1.0000000
1.0000000 0.9361976 1.0000000
1.0000000 0.9867761 1.0000000
0.6237285 0.9442628 1.0000000
0.6237273 0.9442622 1.0000000
0.6237258 0.9442613 1.0000000
0.6237212 0.9442589 1.0000000
0.6237061 0.9442507 1.0000000
0.6236563 0.9442238 1.0000000
0.7307541 0.9379859 1.0000000
1.0000000 0.9360735 1.0000000
1.0000000 0.9866855 1.0000000
0.6230086 0.9438737 1.0000000
0.6230074 0.9438730 1.0000000
0.6230059 0.9438722 1.0000000
0.6230013 0.9438697 1.0000000
0.6229861 0.9438615 1.0000000
0.6229362 0.9438345 1.0000000
0.7281529 0.9376834 1.0000000
1.0000000 0.9356641 1.0000000
1.0000000 0.9863869 1.0000000
0.6152825 1.0000000 1.0000000
0.6152791 1.0000000 1.0000000
0.6152750 1.0000000 1.0000000
0.6152624 1.0000000 1.0000000
0.6152210 1.0000000 1.0000000
0.6150844 1.0000000 1.0000000
0.7037935 1.0000000 1.0000000
0.9855348 1.0000000 1.0000000
1.0000000 1.0000000 1.0000000
0.6979543 1.0000000 1.0000000
0.6979517 1.0000000 1.0000000
0.6979486 1.0000000 1.0000000
0.6979390 1.0000000 1.0000000
0.6979074 1.0000000 1.0000000
0.6978033 1.0000000 1.0000000
0.7485670 1.0000000 1.0000000
0.9981351 1.0000000 1.0000000
1.0000000 1.0000000 1.0000000
