luts/VLog/in-VLog.AgX_look1-BT2020.out-BT1886.cube
TITLE "in-VLog.AgX_look1-BT2020.out-BT1886"
# author = Liam Collod
# LUT resolution = 33
# LUT domain = [[ 0.  0.  0.] [ 1.  1.  1.]]
LUT_3D_SIZE 5
0.0000000 0.0000000 0.0000000
0.0002631 0.0000000 0.0000000
0.1931441 0.0000049 0.0000007
1.0000000 0.0695897 0.0180656
1.0000000 0.7465607 0.4846455
0.0000000 0.0000656 0.0000000
0.0001150 0.0000674 0.0000000
0.1830991 0.0001839 0.0000002
1.0000000 0.0695720 0.0180601
1.0000000 0.7465569 0.4846410
0.0000000 0.0647620 0.0000000
0.0000000 0.0638752 0.0000000
0.0845745 0.0579684 0.0000000
1.0000000 0.1300887 0.0182134
1.0000000 0.7465290 0.4846090
0.0000000 0.8047379 0.0055445
0.0000000 0.8046190 0.0055387
0.0080778 0.7555727 0.0070752
0.7923537 0.6737265 0.0412664
1.0000000 0.8468652 0.4955291
0.2272378 1.0000000 0.3972306
0.2272271 1.0000000 0.3972203
0.2271507 1.0000000 0.3971470
0.6727316 1.0000000 0.4249494
1.0000000 1.0000000 0.6633871
0.0000000 0.0000002 0.0001032
0.0002112 0.0000000 0.0001113
0.1875512 0.0000325 0.0002877
1.0000000 0.0695047 0.0180393
1.0000000 0.7465420 0.4846240
0.0000000 0.0000850 0.0000781
0.0000833 0.0000833 0.0000833
0.1804006 0.0002005 0.0002321
1.0000000 0.0694870 0.0180338
1.0000000 0.7465381 0.4846195
0.0000000 0.0643515 0.0000000
0.0000000 0.0634969 0.0000000
0.0834283 0.0574034 0.0000147
1.0000000 0.1288083 0.0181783
1.0000000 0.7465103 0.4845875
0.0000000 0.8042928 0.0055230
0.0000000 0.8041736 0.0055173
0.0077620 0.7554268 0.0070360
0.7922360 0.6733463 0.0411895
1.0000000 0.8467202 0.4954866
0.2271979 1.0000000 0.3971922
0.2271872 1.0000000 0.3971820
0.2271108 1.0000000 0.3971086
0.6725069 1.0000000 0.4248901
1.0000000 1.0000000 0.6633591
0.0000000 0.0036638 0.0816333
0.0000000 0.0036584 0.0815001
0.1393057 0.0051994 0.0815059
1.0000000 0.0896567 0.1145400
1.0000000 0.7467773 0.4894341
0.0000000 0.0036218 0.0810823
0.0000000 0.0036160 0.0809503
0.1390258 0.0051485 0.0809631
1.0000000 0.0895379 0.1140153
1.0000000 0.7467552 0.4891855
0.0000000 0.0786459 0.0698394
0.0000000 0.0782145 0.0697384
0.0710050 0.0710054 0.0710053
1.0000000 0.1403431 0.1087075
1.0000000 0.7465965 0.4874018
0.0000000 0.7990734 0.0533088
0.0000000 0.7989571 0.0532000
0.0065303 0.7548942 0.0550196
0.7766551 0.6731764 0.0944101
1.0000000 0.8456789 0.4951830
0.2269119 1.0000000 0.3969176
0.2269013 1.0000000 0.3969074
0.2268248 1.0000000 0.3968339
0.6708947 1.0000000 0.4244660
1.0000000 1.0000000 0.6631587
0.0239623 0.2571444 0.7770572
0.0239570 0.2571196 0.7770310
0.0591040 0.2539544 0.7743287
0.9794231 0.3118908 0.7522199
1.0000000 0.7860433 0.8001342
0.0239393 0.2570355 0.7769423
0.0239340 0.2570107 0.7769161
0.0588941 0.2538565 0.7742237
0.9794330 0.3117913 0.7521062
1.0000000 0.7860239 0.8000598
0.0237751 0.2562561 0.7761182
0.0237699 0.2562313 0.7760919
0.0573984 0.2531562 0.7734709
0.9795043 0.3110789 0.7512912
1.0000000 0.7858851 0.7995268
0.0087465 0.7895995 0.7138121
0.0087409 0.7894988 0.7137884
0.0185196 0.7816307 0.7127736
0.7082188 0.7082197 0.7082196
1.0000000 0.8585900 0.7920169
0.2648709 1.0000000 0.6990974
0.2648547 1.0000000 0.6990677
0.2647382 1.0000000 0.6988550
0.6542027 1.0000000 0.7030163
1.0000000 1.0000000 0.7942704
0.6240451 0.9444339 1.0000000
0.6240424 0.9444324 1.0000000
0.6240227 0.9444218 1.0000000
0.7318918 0.9381195 1.0000000
1.0000000 0.9868169 1.0000000
0.6240331 0.9444274 1.0000000
0.6240303 0.9444259 1.0000000
0.6240106 0.9444153 1.0000000
0.7318485 0.9381144 1.0000000
1.0000000 0.9868119 1.0000000
0.6239467 0.9443807 1.0000000
0.6239440 0.9443793 1.0000000
0.6239243 0.9443686 1.0000000
0.7315386 0.9380779 1.0000000
1.0000000 0.9867761 1.0000000
0.6230086 0.9438737 1.0000000
0.6230059 0.9438722 1.0000000
0.6229861 0.9438615 1.0000000
0.7281529 0.9376834 1.0000000
1.0000000 0.9863869 1.0000000
0.6979543 1.0000000 1.0000000
0.6979486 1.0000000 1.0000000
0.6979074 1.0000000 1.0000000
0.7485670 1.0000000 1.0000000
1.0000000 1.0000000 1.0000000
