luts/VLog/in-VLog.AgX_look3-BT2020.out-sRGB.cube
TITLE "in-VLog.AgX_look3-BT2020.out-sRGB"
# author = Liam Collod
# LUT resolution = 33
# LUT domain = [[ 0.  0.  0.] [ 1.  1.  1.]]
LUT_3D_SIZE 9
0.0000000 0.0000000 0.0000000
0.0000741 0.0000000 0.0000000
0.0805726 0.0000000 0.0000000
0.3082611 0.0000000 0.0000000
0.6215449 0.0208138 0.0028117
0.9350355 0.2074684 0.1021058
1.0000000 0.4697460 0.3017721
1.0000000 0.7428998 0.5609761
1.0000000 0.9220529 0.8059069
0.0000000 0.0001555 0.0000000
0.0000042 0.0000904 0.0000000
0.0793501 0.0000000 0.0000000
0.3077117 0.0000000 0.0000000
0.6213517 0.0207310 0.0027941
0.9349880 0.2074280 0.1020781
1.0000000 0.4697306 0.3017595
1.0000000 0.7428959 0.5609716
1.0000000 0.9220523 0.8059059
0.0000000 0.0485608 0.0000000
0.0000000 0.0474357 0.0000000
0.0600809 0.0493719 0.0000000
0.2939606 0.0462871 0.0000000
0.6121551 0.0741090 0.0004677
0.9349295 0.2073782 0.1020439
1.0000000 0.4697116 0.3017439
1.0000000 0.7428912 0.5609662
1.0000000 0.9220515 0.8059047
0.0000000 0.2071612 0.0000000
0.0000000 0.2062396 0.0000000
0.0000000 0.2074535 0.0000000
0.2392880 0.2057136 0.0000000
0.5753212 0.2161766 0.0000000
0.9134878 0.2866323 0.0993192
1.0000000 0.4696541 0.3016971
1.0000000 0.7428769 0.5609497
1.0000000 0.9220493 0.8059010
0.0000000 0.4515521 0.0000000
0.0000000 0.4511929 0.0000000
0.0000000 0.4499035 0.0000000
0.0897040 0.4441976 0.0000000
0.4896259 0.4382139 0.0000000
0.8564408 0.4582177 0.0988163
1.0000000 0.5597624 0.3020261
1.0000000 0.7428298 0.5608953
1.0000000 0.9220419 0.8058890
0.0000000 0.7290646 0.0000000
0.0000000 0.7289589 0.0000000
0.0000000 0.7276515 0.0000000
0.0000000 0.7207221 0.0000000
0.3448348 0.7078459 0.0277447
0.7545786 0.6979559 0.1322294
1.0000000 0.7234459 0.3149057
1.0000000 0.8098584 0.5656360
1.0000000 0.9221504 0.8058628
0.0000000 0.9386762 0.1959280
0.0000000 0.9386582 0.1958970
0.0000000 0.9386361 0.1958590
0.0000000 0.9346145 0.1988549
0.2273546 0.9217327 0.2135914
0.6537562 0.9027059 0.2614492
0.9350462 0.8923455 0.3822036
1.0000000 0.9077170 0.5900975
1.0000000 0.9543436 0.8109537
0.1276930 1.0000000 0.4736086
0.1276676 1.0000000 0.4735977
0.1276363 1.0000000 0.4735844
0.1275418 1.0000000 0.4735439
0.3138894 1.0000000 0.4771297
0.6288301 1.0000000 0.4938985
0.8827009 0.9938473 0.5471662
1.0000000 0.9877356 0.6674745
1.0000000 0.9975571 0.8301120
0.6256872 1.0000000 0.7504510
0.6256830 1.0000000 0.7504484
0.6256779 1.0000000 0.7504451
0.6256623 1.0000000 0.7504352
0.6256110 1.0000000 0.7504028
0.7251643 1.0000000 0.7533512
0.8880845 1.0000000 0.7668364
1.0000000 1.0000000 0.8059327
1.0000000 1.0000000 0.8815064
0.0000000 0.0000000 0.0000075
0.0000001 0.0000000 0.0000037
0.0760533 0.0000000 0.0000000
0.3056108 0.0000000 0.0000000
0.6206146 0.0204155 0.0027273
0.9348067 0.2072738 0.1019723
1.0000000 0.4696717 0.3017114
1.0000000 0.7428813 0.5609547
1.0000000 0.9220500 0.8059021
0.0000000 0.0000009 0.0000000
0.0000000 0.0000000 0.0000000
0.0748711 0.0000000 0.0000000
0.3050568 0.0000000 0.0000000
0.6204207 0.0203326 0.0027099
0.9347591 0.2072333 0.1019445
1.0000000 0.4696562 0.3016988
1.0000000 0.7428774 0.5609503
1.0000000 0.9220494 0.8059012
0.0000000 0.0432254 0.0000000
0.0000000 0.0418017 0.0000000
0.0573238 0.0438199 0.0000000
0.2926581 0.0399929 0.0000000
0.6123025 0.0681979 0.0006160
0.9347005 0.2071835 0.1019103
1.0000000 0.4696372 0.3016833
1.0000000 0.7428727 0.5609448
1.0000000 0.9220486 0.8058999
0.0000000 0.2036970 0.0000000
0.0000000 0.2027634 0.0000000
0.0000000 0.2039815 0.0000000
0.2378134 0.2023164 0.0000000
0.5752597 0.2130354 0.0000000
0.9138374 0.2844426 0.0992362
1.0000000 0.4695797 0.3016364
1.0000000 0.7428584 0.5609283
1.0000000 0.9220464 0.8058963
0.0000000 0.4502058 0.0000000
0.0000000 0.4498447 0.0000000
0.0000000 0.4486336 0.0000000
0.0864521 0.4429222 0.0000000
0.4891017 0.4369199 0.0000000
0.8565690 0.4570833 0.0986343
1.0000000 0.5590643 0.3019502
1.0000000 0.7428113 0.5608739
1.0000000 0.9220390 0.8058842
0.0000000 0.7286687 0.0000000
0.0000000 0.7285628 0.0000000
0.0000000 0.7273732 0.0000000
0.0000000 0.7204129 0.0000000
0.3437814 0.7074875 0.0273224
0.7544472 0.6975840 0.1319953
1.0000000 0.7231499 0.3148007
1.0000000 0.8097143 0.5655991
1.0000000 0.9221134 0.8058546
0.0000000 0.9386089 0.1958122
0.0000000 0.9385909 0.1957813
0.0000000 0.9385688 0.1957433
0.0000000 0.9346263 0.1986711
0.2259642 0.9217094 0.2134108
0.6534703 0.9026498 0.2612952
0.9350282 0.8922807 0.3821066
1.0000000 0.9076697 0.5900578
1.0000000 0.9543234 0.8109447
0.1275978 1.0000000 0.4735679
0.1275724 1.0000000 0.4735570
0.1275411 1.0000000 0.4735436
0.1274465 1.0000000 0.4735032
0.3129958 1.0000000 0.4770660
0.6285593 1.0000000 0.4938356
0.8826552 0.9938408 0.5471147
1.0000000 0.9877271 0.6674464
1.0000000 0.9975509 0.8301038
0.6256715 1.0000000 0.7504411
0.6256674 1.0000000 0.7504384
0.6256622 1.0000000 0.7504352
0.6256466 1.0000000 0.7504253
0.6255954 1.0000000 0.7503928
0.7250160 1.0000000 0.7533356
0.8880445 1.0000000 0.7668215
1.0000000 1.0000000 0.8059217
1.0000000 1.0000000 0.8815014
0.0000000 0.0029851 0.0597391
0.0000000 0.0029349 0.0592564
0.0763496 0.0016435 0.0611483
0.3036767 0.0000000 0.0655060
0.6164265 0.0429584 0.0823849
0.9322017 0.2134957 0.1455343
1.0000000 0.4695802 0.3016368
1.0000000 0.7428586 0.5609284
1.0000000 0.9220464 0.8058963
0.0000000 0.0027686 0.0576193
0.0000000 0.0027207 0.0571356
0.0752645 0.0014547 0.0590077
0.3031247 0.0000000 0.0633518
0.6163282 0.0422626 0.0802737
0.9322465 0.2131982 0.1438892
1.0000000 0.4695647 0.3016242
1.0000000 0.7428547 0.5609240
1.0000000 0.9220458 0.8058953
0.0000000 0.0550925 0.0537833
0.0000000 0.0535495 0.0533550
0.0548690 0.0548815 0.0548803
0.2908376 0.0518732 0.0587081
0.6096315 0.0776608 0.0762185
0.9323017 0.2128321 0.1418520
1.0000000 0.4695457 0.3016086
1.0000000 0.7428500 0.5609185
1.0000000 0.9220451 0.8058941
0.0000000 0.2100426 0.0346685
0.0000000 0.2090588 0.0341907
0.0000000 0.2096913 0.0357216
0.2358373 0.2076102 0.0401259
0.5731071 0.2170172 0.0605503
0.9126779 0.2853645 0.1332437
1.0000000 0.4694882 0.3015617
1.0000000 0.7428357 0.5609020
1.0000000 0.9220428 0.8058905
0.0000000 0.4509251 0.0000000
0.0000000 0.4505386 0.0000000
0.0000000 0.4492940 0.0000000
0.0838087 0.4434708 0.0000000
0.4878123 0.4371109 0.0197340
0.8562985 0.4563245 0.1107025
1.0000000 0.5582035 0.3018570
1.0000000 0.7427886 0.5608476
1.0000000 0.9220354 0.8058784
0.0000000 0.7281810 0.0000000
0.0000000 0.7280748 0.0000000
0.0000000 0.7270301 0.0000000
0.0000000 0.7200324 0.0000000
0.3424813 0.7070461 0.0268018
0.7542856 0.6971259 0.1317075
1.0000000 0.7227853 0.3146717
1.0000000 0.8095369 0.5655537
1.0000000 0.9220679 0.8058445
0.0000000 0.9385261 0.1956699
0.0000000 0.9385081 0.1956390
0.0000000 0.9384859 0.1956009
0.0000000 0.9346410 0.1984451
0.2242463 0.9216808 0.2131886
0.6531183 0.9025809 0.2611059
0.9350061 0.8922011 0.3819872
1.0000000 0.9076114 0.5900090
1.0000000 0.9542985 0.8109337
0.1274808 1.0000000 0.4735179
0.1274554 1.0000000 0.4735070
0.1274241 1.0000000 0.4734936
0.1273295 1.0000000 0.4734531
0.3118941 1.0000000 0.4769877
0.6282259 1.0000000 0.4937582
0.8825991 0.9938329 0.5470514
1.0000000 0.9877167 0.6674118
1.0000000 0.9975433 0.8300937
0.6256523 1.0000000 0.7504289
0.6256481 1.0000000 0.7504262
0.6256429 1.0000000 0.7504230
0.6256274 1.0000000 0.7504131
0.6255761 1.0000000 0.7503806
0.7248336 1.0000000 0.7533165
0.8879953 1.0000000 0.7668032
1.0000000 1.0000000 0.8059083
1.0000000 1.0000000 0.8814953
0.0000000 0.0535809 0.2395279
0.0000000 0.0534659 0.2392586
0.0605407 0.0548926 0.2397449
0.2917117 0.0581571 0.2414675
0.6027096 0.1006875 0.2489929
0.9218225 0.2400828 0.2800659
1.0000000 0.4784993 0.3750800
1.0000000 0.7429186 0.5625264
1.0000000 0.9220356 0.8058787
0.0000000 0.0530763 0.2383440
0.0000000 0.0529613 0.2380734
0.0594246 0.0543768 0.2385565
0.2911998 0.0575913 0.2402985
0.6026004 0.1001766 0.2478795
0.9218529 0.2398151 0.2791190
1.0000000 0.4783988 0.3744634
1.0000000 0.7428942 0.5622552
1.0000000 0.9220350 0.8058777
0.0000000 0.0902935 0.2358079
0.0000000 0.0888330 0.2355799
0.0399500 0.0889127 0.2360675
0.2823981 0.0879122 0.2379115
0.5999745 0.1106597 0.2461188
0.9218903 0.2394858 0.2779503
1.0000000 0.4782752 0.3737037
1.0000000 0.7428642 0.5619214
1.0000000 0.9220343 0.8058765
0.0000000 0.2317061 0.2255882
0.0000000 0.2308071 0.2253480
0.0000000 0.2303569 0.2258121
0.2278179 0.2278611 0.2278570
0.5646219 0.2355897 0.2369663
0.9052912 0.2984017 0.2721895
1.0000000 0.4779013 0.3713938
1.0000000 0.7427736 0.5609097
1.0000000 0.9220320 0.8058729
0.0000000 0.4587010 0.2021106
0.0000000 0.4583290 0.2018236
0.0000000 0.4570396 0.2022188
0.0784540 0.4512200 0.2048971
0.4815374 0.4448041 0.2160040
0.8501509 0.4629805 0.2560833
1.0000000 0.5608648 0.3628875
1.0000000 0.7427198 0.5607681
1.0000000 0.9220246 0.8058608
0.0000000 0.7288376 0.1657320
0.0000000 0.7287270 0.1653911
0.0000000 0.7281150 0.1652588
0.0000000 0.7211720 0.1687194
0.3382843 0.7082234 0.1822843
0.7509487 0.6980517 0.2286110
1.0000000 0.7228134 0.3463199
1.0000000 0.8089990 0.5654166
1.0000000 0.9220003 0.8058211
0.0000000 0.9382752 0.1952393
0.0000000 0.9382571 0.1952083
0.0000000 0.9382349 0.1951702
0.0000000 0.9346877 0.1977614
0.2189898 0.9215947 0.2125162
0.6520505 0.9023722 0.2605328
0.9349394 0.8919599 0.3816262
1.0000000 0.9074349 0.5898615
1.0000000 0.9542232 0.8109003
0.1271268 1.0000000 0.4733665
0.1271013 1.0000000 0.4733557
0.1270699 1.0000000 0.4733423
0.1269752 1.0000000 0.4733018
0.3085390 1.0000000 0.4767509
0.6272151 1.0000000 0.4935243
0.8824293 0.9938090 0.5468601
1.0000000 0.9876851 0.6673071
1.0000000 0.9975202 0.8300631
0.6255940 1.0000000 0.7503920
0.6255898 1.0000000 0.7503893
0.6255847 1.0000000 0.7503861
0.6255691 1.0000000 0.7503762
0.6255178 1.0000000 0.7503437
0.7242810 1.0000000 0.7532587
0.8878464 1.0000000 0.7667480
1.0000000 1.0000000 0.8058676
1.0000000 1.0000000 0.8814769
0.0000000 0.2034956 0.4892756
0.0000000 0.2034237 0.4891777
0.0000000 0.2033960 0.4890365
0.2554477 0.2051816 0.4884853
0.5680338 0.2256439 0.4886579
0.8949652 0.3123629 0.4963510
1.0000000 0.5074455 0.5349501
1.0000000 0.7501037 0.6429076
1.0000000 0.9221350 0.8083854
0.0000000 0.2031801 0.4888457
0.0000000 0.2031081 0.4887476
0.0000000 0.2030780 0.4886074
0.2548981 0.2048625 0.4880566
0.5678824 0.2253476 0.4882330
0.8949698 0.3121610 0.4959487
1.0000000 0.5073553 0.5346230
1.0000000 0.7500802 0.6427228
1.0000000 0.9221314 0.8083280
0.0000000 0.2027917 0.4883163
0.0000000 0.2027196 0.4882180
0.0000000 0.2026865 0.4880791
0.2542210 0.2044698 0.4875287
0.5676962 0.2249828 0.4877098
0.8949756 0.3119127 0.4954534
1.0000000 0.5072445 0.5342204
1.0000000 0.7500513 0.6424954
1.0000000 0.9221270 0.8082575
0.0000000 0.2902835 0.4825270
0.0000000 0.2895830 0.4824594
0.0000000 0.2886444 0.4823698
0.2141291 0.2853603 0.4821101
0.5454395 0.2890544 0.4831395
0.8868046 0.3378750 0.4927325
1.0000000 0.5069092 0.5329992
1.0000000 0.7499639 0.6418063
1.0000000 0.9221136 0.8080442
0.0000000 0.4822035 0.4674872
0.0000000 0.4818698 0.4673992
0.0000000 0.4814436 0.4672916
0.0776308 0.4758293 0.4673382
0.4692138 0.4692983 0.4692901
0.8354725 0.4843600 0.4812496
1.0000000 0.5741415 0.5266027
1.0000000 0.7496760 0.6395201
1.0000000 0.9220696 0.8073390
0.0000000 0.7331509 0.4430776
0.0000000 0.7330448 0.4429691
0.0000000 0.7329144 0.4428358
0.0000000 0.7272947 0.4431614
0.3329933 0.7149203 0.4461627
0.7408095 0.7047748 0.4609747
1.0000000 0.7281069 0.5126945
1.0000000 0.8109436 0.6338580
1.0000000 0.9219648 0.8057631
0.0000000 0.9365546 0.4227167
0.0000000 0.9365371 0.4225979
0.0000000 0.9365155 0.4224517
0.0000000 0.9341858 0.4225867
0.2160021 0.9214624 0.4264416
0.6456196 0.9025875 0.4430744
0.9296195 0.8922519 0.4987920
1.0000000 0.9074244 0.6263829
1.0000000 0.9539743 0.8107902
0.1259573 1.0000000 0.4728677
0.1259316 1.0000000 0.4728568
0.1259001 1.0000000 0.4728433
0.1258049 1.0000000 0.4728028
0.2972168 1.0000000 0.4759705
0.6238516 1.0000000 0.4927527
0.8818675 0.9937301 0.5462291
1.0000000 0.9875810 0.6669622
1.0000000 0.9974439 0.8299624
0.6254021 1.0000000 0.7502705
0.6253979 1.0000000 0.7502678
0.6253927 1.0000000 0.7502646
0.6253771 1.0000000 0.7502547
0.6253258 1.0000000 0.7502222
0.7224484 1.0000000 0.7530684
0.8873543 1.0000000 0.7665661
1.0000000 1.0000000 0.8057335
1.0000000 1.0000000 0.8814161
0.1388835 0.4319238 0.7526844
0.1388592 0.4318957 0.7526584
0.1388292 0.4318612 0.7526264
0.2124781 0.4311093 0.7521895
0.5103364 0.4328809 0.7501624
0.8395547 0.4662116 0.7480148
1.0000000 0.5843314 0.7526015
1.0000000 0.7718637 0.7835238
1.0000000 0.9256136 0.8607341
0.1387765 0.4318005 0.7525701
0.1387521 0.4317725 0.7525441
0.1387221 0.4317379 0.7525120
0.2119072 0.4309898 0.7520776
0.5101401 0.4327557 0.7500492
0.8395278 0.4661008 0.7479023
1.0000000 0.5842665 0.7524977
1.0000000 0.7718434 0.7834474
1.0000000 0.9256101 0.8606999
0.1386449 0.4316490 0.7524295
0.1386204 0.4316209 0.7524034
0.1385904 0.4315864 0.7523713
0.2112039 0.4308429 0.7519398
0.5098988 0.4326018 0.7499100
0.8394948 0.4659646 0.7477640
1.0000000 0.5841868 0.7523700
1.0000000 0.7718183 0.7833534
1.0000000 0.9256058 0.8606578
0.1382466 0.4311905 0.7520037
0.1382221 0.4311624 0.7519775
0.1381921 0.4311278 0.7519453
0.2090662 0.4303983 0.7515227
0.5091678 0.4321360 0.7494885
0.8393948 0.4655524 0.7473452
1.0000000 0.5839457 0.7519834
1.0000000 0.7717426 0.7830688
1.0000000 0.9255928 0.8605307
0.0347242 0.5469033 0.7435577
0.0349434 0.5466549 0.7435450
0.0352126 0.5463493 0.7435294
0.1226840 0.5443029 0.7432452
0.4580008 0.5376747 0.7418152
0.8077564 0.5454233 0.7412779
1.0000000 0.6139917 0.7489766
1.0000000 0.7714930 0.7821272
1.0000000 0.9255499 0.8601107
0.0000000 0.7493760 0.7267104
0.0000000 0.7492838 0.7266867
0.0000000 0.7491704 0.7266576
0.0000000 0.7477878 0.7264786
0.3447011 0.7369082 0.7256400
0.7266045 0.7267323 0.7267200
0.9871736 0.7455151 0.7382481
1.0000000 0.8195346 0.7776044
1.0000000 0.9254083 0.8587137
0.0000000 0.9335673 0.7093328
0.0000000 0.9335499 0.7093023
0.0000000 0.9335286 0.7092649
0.0000000 0.9334641 0.7091518
0.2426567 0.9229283 0.7088928
0.6401621 0.9053682 0.7112089
0.9176582 0.8953811 0.7255817
1.0000000 0.9097666 0.7701834
1.0000000 0.9548061 0.8562300
0.2064653 1.0000000 0.7022088
0.2064306 1.0000000 0.7021774
0.2063880 1.0000000 0.7021388
0.2062593 1.0000000 0.7020222
0.3087210 1.0000000 0.7020525
0.6196044 1.0000000 0.7051679
0.8736788 0.9931596 0.7202858
1.0000000 0.9873700 0.7659398
1.0000000 0.9973870 0.8537242
0.6247687 1.0000000 0.7498696
0.6247645 1.0000000 0.7498669
0.6247593 1.0000000 0.7498637
0.6247437 1.0000000 0.7498538
0.6246922 1.0000000 0.7498212
0.7162676 1.0000000 0.7524409
0.8857149 1.0000000 0.7659653
1.0000000 1.0000000 0.8052908
1.0000000 1.0000000 0.8812157
0.3976626 0.6924831 0.9303789
0.3976527 0.6924749 0.9303749
0.3976405 0.6924647 0.9303701
0.3976035 0.6924339 0.9303554
0.4840663 0.6905791 0.9295507
0.7682401 0.6916848 0.9262527
0.9899124 0.7295220 0.9224041
1.0000000 0.8254364 0.9221637
1.0000000 0.9361829 0.9375105
0.3976190 0.6924468 0.9303615
0.3976091 0.6924385 0.9303576
0.3975968 0.6924283 0.9303527
0.3975599 0.6923976 0.9303380
0.4838838 0.6905454 0.9295346
0.7681913 0.6916480 0.9262355
0.9899134 0.7294930 0.9223864
1.0000000 0.8254234 0.9221473
1.0000000 0.9361799 0.9374991
0.3975654 0.6924021 0.9303402
0.3975555 0.6923939 0.9303362
0.3975432 0.6923837 0.9303313
0.3975063 0.6923529 0.9303166
0.4836592 0.6905040 0.9295148
0.7681313 0.6916028 0.9262144
0.9899146 0.7294572 0.9223647
1.0000000 0.8254075 0.9221271
1.0000000 0.9361762 0.9374851
0.3974033 0.6922671 0.9302756
0.3973934 0.6922588 0.9302716
0.3973812 0.6922486 0.9302667
0.3973442 0.6922178 0.9302520
0.4829793 0.6903787 0.9294551
0.7679498 0.6914660 0.9261507
0.9899182 0.7293492 0.9222990
1.0000000 0.8253592 0.9220660
1.0000000 0.9361651 0.9374427
0.3968691 0.6918216 0.9300623
0.3968591 0.6918133 0.9300583
0.3968469 0.6918031 0.9300534
0.3968099 0.6917722 0.9300386
0.4807283 0.6899656 0.9292578
0.7673505 0.6910149 0.9259402
0.9899301 0.7289928 0.9220821
1.0000000 0.8252003 0.9218644
1.0000000 0.9361283 0.9373028
0.3411649 0.7976110 0.9214442
0.3411779 0.7975506 0.9214440
0.3411940 0.7974765 0.9214439
0.3412428 0.7972520 0.9214435
0.4220298 0.7939047 0.9208930
0.7224128 0.7842151 0.9184899
0.9611777 0.7929763 0.9168202
1.0000000 0.8450060 0.9198761
1.0000000 0.9360072 0.9368398
0.3018723 0.9332715 0.9092601
0.3018541 0.9332565 0.9092563
0.3018318 0.9332381 0.9092516
0.3017642 0.9331823 0.9092374
0.3561101 0.9308423 0.9089158
0.6588221 0.9166256 0.9072355
0.9071148 0.9072726 0.9072574
1.0000000 0.9185136 0.9137082
1.0000000 0.9586382 0.9347234
0.4103739 1.0000000 0.9003376
0.4103566 1.0000000 0.9003326
0.4103355 1.0000000 0.9003264
0.4102716 1.0000000 0.9003076
0.4100609 1.0000000 0.9002458
0.6402262 1.0000000 0.8992641
0.8685007 0.9937607 0.9001306
0.9984445 0.9883673 0.9081150
1.0000000 0.9982515 0.9316393
0.6677664 1.0000000 0.8997865
0.6677603 1.0000000 0.8997814
0.6677528 1.0000000 0.8997750
0.6677303 1.0000000 0.8997559
0.6676559 1.0000000 0.8996930
0.7235496 1.0000000 0.8995718
0.8818915 1.0000000 0.9010983
0.9950706 1.0000000 0.9093240
1.0000000 1.0000000 0.9331052
0.6943866 0.8899619 1.0000000
0.6943839 0.8899605 1.0000000
0.6943806 0.8899587 1.0000000
0.6943705 0.8899533 1.0000000
0.6943373 0.8899357 1.0000000
0.7590492 0.8876423 1.0000000
0.9309515 0.8875552 1.0000000
1.0000000 0.9101601 1.0000000
1.0000000 0.9612416 1.0000000
0.6943747 0.8899556 1.0000000
0.6943720 0.8899542 1.0000000
0.6943686 0.8899524 1.0000000
0.6943586 0.8899470 1.0000000
0.6943253 0.8899294 1.0000000
0.7590097 0.8876368 1.0000000
0.9309441 0.8875487 1.0000000
1.0000000 0.9101554 1.0000000
1.0000000 0.9612398 1.0000000
0.6943601 0.8899478 1.0000000
0.6943573 0.8899464 1.0000000
0.6943540 0.8899446 1.0000000
0.6943439 0.8899392 1.0000000
0.6943107 0.8899216 1.0000000
0.7589612 0.8876301 1.0000000
0.9309349 0.8875407 1.0000000
1.0000000 0.9101497 1.0000000
1.0000000 0.9612376 1.0000000
0.6943158 0.8899243 1.0000000
0.6943131 0.8899229 1.0000000
0.6943097 0.8899211 1.0000000
0.6942997 0.8899157 1.0000000
0.6942664 0.8898981 1.0000000
0.7588143 0.8876097 1.0000000
0.9309073 0.8875166 1.0000000
1.0000000 0.9101325 1.0000000
1.0000000 0.9612309 1.0000000
0.6941700 0.8898468 1.0000000
0.6941673 0.8898454 1.0000000
0.6941639 0.8898436 1.0000000
0.6941538 0.8898382 1.0000000
0.6941206 0.8898206 1.0000000
0.7583296 0.8875427 1.0000000
0.9308163 0.8874369 1.0000000
1.0000000 0.9100758 1.0000000
1.0000000 0.9612087 1.0000000
0.6936889 0.8895911 1.0000000
0.6936862 0.8895897 1.0000000
0.6936828 0.8895879 1.0000000
0.6936727 0.8895825 1.0000000
0.6936393 0.8895648 1.0000000
0.7567223 0.8873217 1.0000000
0.9305156 0.8871742 1.0000000
1.0000000 0.9098888 1.0000000
1.0000000 0.9611357 1.0000000
0.6740125 0.9480329 1.0000000
0.6740110 0.9480237 1.0000000
0.6740091 0.9480126 1.0000000
0.6740033 0.9479787 1.0000000
0.6739845 0.9478670 1.0000000
0.7305417 0.9447042 1.0000000
0.9063341 0.9371779 0.9988786
1.0000000 0.9419377 0.9978463
1.0000000 0.9701230 0.9994682
0.6825776 1.0000000 0.9950986
0.6825730 1.0000000 0.9950981
0.6825675 1.0000000 0.9950975
0.6825506 1.0000000 0.9950958
0.6824950 1.0000000 0.9950900
0.7163124 1.0000000 0.9948006
0.8796841 0.9982967 0.9935452
0.9932813 0.9934534 0.9934368
1.0000000 1.0000000 0.9969271
0.7794393 1.0000000 0.9935195
0.7794363 1.0000000 0.9935188
0.7794325 1.0000000 0.9935180
0.7794211 1.0000000 0.9935155
0.7793836 1.0000000 0.9935071
0.7792602 1.0000000 0.9934795
0.8927560 1.0000000 0.9927691
0.9928606 1.0000000 0.9931179
1.0000000 1.0000000 0.9972600
0.8984034 0.9866297 1.0000000
0.8984030 0.9866295 1.0000000
0.8984024 0.9866293 1.0000000
0.8984008 0.9866286 1.0000000
0.8983956 0.9866263 1.0000000
0.8983782 0.9866187 1.0000000
0.9295295 0.9853083 1.0000000
1.0000000 0.9851179 1.0000000
1.0000000 0.9987496 1.0000000
0.8984015 0.9866289 1.0000000
0.8984011 0.9866287 1.0000000
0.8984005 0.9866285 1.0000000
0.8983989 0.9866278 1.0000000
0.8983937 0.9866255 1.0000000
0.8983763 0.9866179 1.0000000
0.9295238 0.9853076 1.0000000
1.0000000 0.9851170 1.0000000
1.0000000 0.9987490 1.0000000
0.8983992 0.9866279 1.0000000
0.8983987 0.9866277 1.0000000
0.8983982 0.9866275 1.0000000
0.8983966 0.9866268 1.0000000
0.8983913 0.9866244 1.0000000
0.8983740 0.9866168 1.0000000
0.9295169 0.9853067 1.0000000
1.0000000 0.9851159 1.0000000
1.0000000 0.9987482 1.0000000
0.8983922 0.9866248 1.0000000
0.8983917 0.9866246 1.0000000
0.8983912 0.9866244 1.0000000
0.8983896 0.9866237 1.0000000
0.8983843 0.9866214 1.0000000
0.8983670 0.9866138 1.0000000
0.9294959 0.9853041 1.0000000
1.0000000 0.9851127 1.0000000
1.0000000 0.9987459 1.0000000
0.8983690 0.9866147 1.0000000
0.8983686 0.9866145 1.0000000
0.8983681 0.9866143 1.0000000
0.8983665 0.9866136 1.0000000
0.8983612 0.9866112 1.0000000
0.8983438 0.9866036 1.0000000
0.9294266 0.9852956 1.0000000
1.0000000 0.9851021 1.0000000
1.0000000 0.9987383 1.0000000
0.8982928 0.9865813 1.0000000
0.8982924 0.9865811 1.0000000
0.8982918 0.9865809 1.0000000
0.8982902 0.9865802 1.0000000
0.8982850 0.9865779 1.0000000
0.8982676 0.9865702 1.0000000
0.9291981 0.9852676 1.0000000
1.0000000 0.9850672 1.0000000
1.0000000 0.9987132 1.0000000
0.8980412 0.9864711 1.0000000
0.8980408 0.9864709 1.0000000
0.8980402 0.9864707 1.0000000
0.8980386 0.9864700 1.0000000
0.8980333 0.9864677 1.0000000
0.8980159 0.9864600 1.0000000
0.9284398 0.9851753 1.0000000
1.0000000 0.9849518 1.0000000
1.0000000 0.9986304 1.0000000
0.8938171 1.0000000 1.0000000
0.8938160 1.0000000 1.0000000
0.8938147 1.0000000 1.0000000
0.8938107 1.0000000 1.0000000
0.8937975 1.0000000 1.0000000
0.8937541 1.0000000 1.0000000
0.9204644 1.0000000 1.0000000
0.9985226 1.0000000 1.0000000
0.9998940 1.0000000 1.0000000
0.9164262 1.0000000 1.0000000
0.9164253 1.0000000 1.0000000
0.9164244 1.0000000 1.0000000
0.9164213 1.0000000 1.0000000
0.9164114 1.0000000 1.0000000
0.9163787 1.0000000 1.0000000
0.9316206 1.0000000 1.0000000
0.9998940 1.0000000 1.0000000
0.9998940 1.0000000 1.0000000
