luts/VLog/in-VLog.AgX_look3-BT2020.out-sRGB.cube
TITLE "in-VLog.AgX_look3-BT2020.out-sRGB"
# author = Liam Collod
# LUT resolution = 33
# LUT domain = [[ 0.  0.  0.] [ 1.  1.  1.]]
LUT_3D_SIZE 33
0.0000000 0.0000000 0.0000000
0.0000000 0.0000000 0.0000000
0.0000000 0.0000000 0.0000000
0.0000000 0.0000000 0.0000000
0.0000741 0.0000000 0.0000000
0.0061263 0.0000000 0.0000000
0.0228191 0.0000000 0.0000000
0.0468967 0.0000000 0.0000000
0.0805726 0.0000000 0.0000000
0.1243175 0.0000000 0.0000000
0.1777387 0.0000000 0.0000000
0.2396203 0.0000000 0.0000000
0.3082611 0.0000000 0.0000000
0.3819263 0.0000000 0.0000000
0.4592438 0.0000000 0.0000000
0.5393873 0.0000000 0.0000000
0.6215449 0.0208138 0.0028117
0.7043867 0.0590703 0.0163776
0.7859603 0.1031257 0.0377476
0.8637661 0.1527571 0.0663482
0.9350355 0.2074684 0.1021058
0.9971613 0.2668827 0.1444406
1.0000000 0.3308227 0.1924124
1.0000000 0.3988121 0.2450693
1.0000000 0.4697460 0.3017721
1.0000000 0.5418823 0.3622855
1.0000000 0.6129976 0.4262916
1.0000000 0.6807098 0.4929899
1.0000000 0.7428998 0.5609761
1.0000000 0.7984270 0.6283589
1.0000000 0.8473448 0.6930374
1.0000000 0.8883213 0.7527182
1.0000000 0.9220529 0.8059069
0.0000000 0.0000000 0.0000000
0.0000000 0.0000000 0.0000000
0.0000000 0.0000000 0.0000000
0.0000000 0.0000000 0.0000000
0.0000644 0.0000000 0.0000000
0.0059650 0.0000000 0.0000000
0.0225943 0.0000000 0.0000000
0.0466519 0.0000000 0.0000000
0.0803278 0.0000000 0.0000000
0.1240887 0.0000000 0.0000000
0.1775368 0.0000000 0.0000000
0.2394506 0.0000000 0.0000000
0.3081238 0.0000000 0.0000000
0.3818184 0.0000000 0.0000000
0.4591603 0.0000000 0.0000000
0.5393234 0.0000000 0.0000000
0.6214966 0.0207931 0.0028073
0.7043509 0.0590525 0.0163698
0.7859345 0.1031106 0.0377395
0.8637482 0.1527447 0.0663405
0.9350236 0.2074583 0.1020989
0.9971539 0.2668746 0.1444347
1.0000000 0.3308162 0.1924074
1.0000000 0.3988071 0.2450653
1.0000000 0.4697422 0.3017689
1.0000000 0.5418795 0.3622830
1.0000000 0.6129955 0.4262896
1.0000000 0.6807084 0.4929885
1.0000000 0.7428988 0.5609750
1.0000000 0.7984263 0.6283581
1.0000000 0.8473444 0.6930368
1.0000000 0.8883210 0.7527179
1.0000000 0.9220527 0.8059066
0.0000000 0.0000000 0.0000000
0.0000000 0.0000000 0.0000000
0.0000000 0.0000000 0.0000000
0.0000000 0.0000000 0.0000000
0.0000555 0.0000000 0.0000000
0.0058064 0.0000000 0.0000000
0.0223699 0.0000000 0.0000000
0.0464071 0.0000000 0.0000000
0.0800829 0.0000000 0.0000000
0.1238597 0.0000000 0.0000000
0.1773348 0.0000000 0.0000000
0.2392808 0.0000000 0.0000000
0.3079865 0.0000000 0.0000000
0.3817104 0.0000000 0.0000000
0.4590768 0.0000000 0.0000000
0.5392595 0.0000000 0.0000000
0.6214483 0.0207724 0.0028029
0.7043152 0.0590347 0.0163621
0.7859088 0.1030956 0.0377315
0.8637303 0.1527322 0.0663328
0.9350118 0.2074482 0.1020919
0.9971464 0.2668665 0.1444287
1.0000000 0.3308098 0.1924025
1.0000000 0.3988020 0.2450614
1.0000000 0.4697383 0.3017658
1.0000000 0.5418766 0.3622805
1.0000000 0.6129934 0.4262877
1.0000000 0.6807070 0.4929870
1.0000000 0.7428979 0.5609739
1.0000000 0.7984257 0.6283573
1.0000000 0.8473440 0.6930363
1.0000000 0.8883208 0.7527175
1.0000000 0.9220526 0.8059064
0.0000000 0.0000000 0.0000000
0.0000000 0.0000000 0.0000000
0.0000000 0.0000000 0.0000000
0.0000000 0.0000000 0.0000000
0.0000475 0.0000000 0.0000000
0.0056505 0.0000000 0.0000000
0.0221459 0.0000000 0.0000000
0.0461624 0.0000000 0.0000000
0.0798379 0.0000000 0.0000000
0.1236306 0.0000000 0.0000000
0.1771326 0.0000000 0.0000000
0.2391109 0.0000000 0.0000000
0.3078492 0.0000000 0.0000000
0.3816024 0.0000000 0.0000000
0.4589933 0.0000000 0.0000000
0.5391955 0.0000000 0.0000000
0.6214000 0.0207517 0.0027985
0.7042794 0.0590169 0.0163544
0.7858830 0.1030805 0.0377235
0.8637124 0.1527197 0.0663251
0.9349999 0.2074381 0.1020850
0.9971389 0.2668584 0.1444228
1.0000000 0.3308033 0.1923976
1.0000000 0.3987969 0.2450574
1.0000000 0.4697344 0.3017626
1.0000000 0.5418737 0.3622780
1.0000000 0.6129914 0.4262857
1.0000000 0.6807055 0.4929855
1.0000000 0.7428969 0.5609728
1.0000000 0.7984250 0.6283565
1.0000000 0.8473436 0.6930357
1.0000000 0.8883205 0.7527171
1.0000000 0.9220524 0.8059061
0.0000000 0.0001555 0.0000000
0.0000000 0.0001322 0.0000000
0.0000000 0.0001112 0.0000000
0.0000000 0.0000925 0.0000000
0.0000042 0.0000904 0.0000000
0.0052254 0.0000387 0.0000000
0.0216453 0.0000000 0.0000000
0.0456627 0.0000000 0.0000000
0.0793501 0.0000000 0.0000000
0.1231775 0.0000000 0.0000000
0.1767628 0.0000000 0.0000000
0.2389114 0.0000000 0.0000000
0.3077117 0.0000000 0.0000000
0.3814943 0.0000000 0.0000000
0.4589098 0.0000000 0.0000000
0.5391316 0.0000000 0.0000000
0.6213517 0.0207310 0.0027941
0.7042436 0.0589991 0.0163467
0.7858572 0.1030654 0.0377155
0.8636945 0.1527072 0.0663174
0.9349880 0.2074280 0.1020781
0.9971314 0.2668503 0.1444168
1.0000000 0.3307968 0.1923927
1.0000000 0.3987919 0.2450534
1.0000000 0.4697306 0.3017595
1.0000000 0.5418708 0.3622755
1.0000000 0.6129893 0.4262838
1.0000000 0.6807041 0.4929840
1.0000000 0.7428959 0.5609716
1.0000000 0.7984244 0.6283557
1.0000000 0.8473432 0.6930351
1.0000000 0.8883203 0.7527167
1.0000000 0.9220523 0.8059059
0.0000000 0.0033361 0.0000000
0.0000000 0.0031695 0.0000000
0.0000000 0.0030081 0.0000000
0.0000000 0.0028520 0.0000000
0.0000000 0.0028565 0.0000000
0.0029867 0.0030617 0.0000000
0.0191725 0.0028352 0.0000000
0.0434969 0.0021721 0.0000000
0.0773708 0.0010417 0.0000000
0.1212649 0.0000004 0.0000000
0.1748185 0.0000000 0.0000000
0.2368631 0.0000000 0.0000000
0.3057613 0.0000000 0.0000000
0.3798580 0.0000000 0.0000000
0.4578672 0.0000000 0.0000000
0.5390319 0.0000000 0.0000000
0.6213033 0.0207103 0.0027897
0.7042078 0.0589812 0.0163390
0.7858314 0.1030503 0.0377074
0.8636766 0.1526948 0.0663097
0.9349761 0.2074178 0.1020711
0.9971240 0.2668422 0.1444108
1.0000000 0.3307904 0.1923877
1.0000000 0.3987868 0.2450495
1.0000000 0.4697267 0.3017563
1.0000000 0.5418680 0.3622730
1.0000000 0.6129872 0.4262818
1.0000000 0.6807027 0.4929825
1.0000000 0.7428950 0.5609705
1.0000000 0.7984238 0.6283549
1.0000000 0.8473428 0.6930346
1.0000000 0.8883200 0.7527164
1.0000000 0.9220521 0.8059056
0.0000000 0.0126098 0.0000000
0.0000000 0.0123065 0.0000000
0.0000000 0.0120048 0.0000000
0.0000000 0.0117046 0.0000000
0.0000000 0.0117061 0.0000000
0.0002938 0.0123813 0.0000000
0.0147521 0.0124934 0.0000000
0.0398142 0.0120728 0.0000000
0.0742053 0.0108756 0.0000000
0.1184173 0.0086808 0.0000000
0.1721377 0.0055413 0.0000000
0.2342417 0.0025108 0.0000000
0.3031311 0.0006566 0.0000000
0.3771866 0.0002504 0.0000000
0.4551569 0.0018761 0.0000000
0.5363182 0.0113398 0.0000000
0.6199059 0.0301487 0.0023539
0.7041718 0.0589633 0.0163312
0.7858055 0.1030351 0.0376994
0.8636586 0.1526822 0.0663020
0.9349641 0.2074076 0.1020641
0.9971164 0.2668340 0.1444048
1.0000000 0.3307839 0.1923828
1.0000000 0.3987818 0.2450455
1.0000000 0.4697228 0.3017531
1.0000000 0.5418651 0.3622705
1.0000000 0.6129852 0.4262799
1.0000000 0.6807012 0.4929810
1.0000000 0.7428940 0.5609694
1.0000000 0.7984231 0.6283540
1.0000000 0.8473424 0.6930340
1.0000000 0.8883198 0.7527160
1.0000000 0.9220520 0.8059054
0.0000000 0.0272768 0.0000000
0.0000000 0.0269329 0.0000000
0.0000000 0.0265895 0.0000000
0.0000000 0.0262467 0.0000000
0.0000000 0.0262275 0.0000000
0.0000000 0.0271505 0.0000000
0.0068991 0.0275759 0.0000000
0.0335023 0.0276036 0.0000000
0.0689811 0.0270816 0.0000000
0.1138949 0.0258584 0.0000000
0.1680538 0.0239657 0.0000000
0.2304182 0.0217718 0.0000000
0.2994538 0.0201287 0.0000000
0.3735936 0.0204414 0.0000000
0.4516311 0.0245154 0.0000000
0.5328810 0.0340759 0.0000000
0.6166078 0.0503382 0.0014258
0.7014628 0.0739226 0.0152716
0.7853830 0.1049708 0.0375731
0.8636364 0.1526668 0.0662924
0.9349494 0.2073951 0.1020555
0.9971072 0.2668239 0.1443974
1.0000000 0.3307759 0.1923767
1.0000000 0.3987755 0.2450406
1.0000000 0.4697180 0.3017492
1.0000000 0.5418615 0.3622674
1.0000000 0.6129826 0.4262775
1.0000000 0.6806994 0.4929792
1.0000000 0.7428928 0.5609680
1.0000000 0.7984223 0.6283530
1.0000000 0.8473419 0.6930333
1.0000000 0.8883195 0.7527155
1.0000000 0.9220518 0.8059051
0.0000000 0.0485608 0.0000000
0.0000000 0.0482040 0.0000000
0.0000000 0.0478473 0.0000000
0.0000000 0.0474905 0.0000000
0.0000000 0.0474357 0.0000000
0.0000000 0.0484811 0.0000000
0.0000000 0.0490975 0.0000000
0.0222331 0.0494237 0.0000000
0.0600809 0.0493719 0.0000000
0.1064487 0.0488371 0.0000000
0.1615418 0.0478707 0.0000000
0.2245168 0.0467945 0.0000000
0.2939606 0.0462871 0.0000000
0.3683912 0.0474065 0.0000000
0.4466674 0.0514993 0.0000000
0.5281553 0.0599761 0.0000000
0.6121551 0.0741090 0.0004677
0.6973385 0.0948644 0.0136611
0.7816441 0.1227873 0.0364713
0.8623976 0.1580034 0.0660198
0.9349295 0.2073782 0.1020439
0.9970947 0.2668104 0.1443875
1.0000000 0.3307651 0.1923684
1.0000000 0.3987671 0.2450339
1.0000000 0.4697116 0.3017439
1.0000000 0.5418567 0.3622633
1.0000000 0.6129791 0.4262742
1.0000000 0.6806970 0.4929767
1.0000000 0.7428912 0.5609662
1.0000000 0.7984212 0.6283517
1.0000000 0.8473412 0.6930324
1.0000000 0.8883191 0.7527149
1.0000000 0.9220515 0.8059047
0.0000000 0.0772332 0.0000000
0.0000000 0.0768871 0.0000000
0.0000000 0.0765408 0.0000000
0.0000000 0.0761943 0.0000000
0.0000000 0.0760926 0.0000000
0.0000000 0.0771423 0.0000000
0.0000000 0.0778245 0.0000000
0.0027474 0.0782902 0.0000000
0.0453754 0.0784883 0.0000000
0.0946664 0.0783398 0.0000000
0.1515447 0.0778956 0.0000000
0.2156989 0.0774241 0.0000000
0.2859643 0.0774706 0.0000000
0.3610067 0.0788646 0.0000000
0.4397845 0.0826618 0.0000000
0.5217338 0.0900235 0.0000000
0.6062013 0.1021321 0.0000000
0.6918850 0.1200783 0.0115495
0.7767307 0.1446962 0.0350614
0.8580519 0.1764551 0.0651060
0.9328850 0.2154538 0.1017270
0.9970779 0.2667921 0.1443741
1.0000000 0.3307506 0.1923574
1.0000000 0.3987557 0.2450250
1.0000000 0.4697029 0.3017368
1.0000000 0.5418502 0.3622577
1.0000000 0.6129745 0.4262699
1.0000000 0.6806938 0.4929733
1.0000000 0.7428891 0.5609637
1.0000000 0.7984198 0.6283499
1.0000000 0.8473403 0.6930311
1.0000000 0.8883185 0.7527140
1.0000000 0.9220512 0.8059041
0.0000000 0.1135568 0.0000000
0.0000000 0.1132400 0.0000000
0.0000000 0.1129229 0.0000000
0.0000000 0.1126056 0.0000000
0.0000000 0.1124524 0.0000000
0.0000000 0.1134081 0.0000000
0.0000000 0.1140499 0.0000000
0.0000000 0.1145180 0.0000000
0.0209693 0.1147768 0.0000000
0.0766302 0.1147602 0.0000000
0.1367886 0.1145089 0.0000000
0.2030061 0.1142413 0.0000000
0.2746978 0.1143978 0.0000000
0.3508049 0.1156438 0.0000000
0.4304462 0.1188282 0.0000000
0.5131593 0.1249136 0.0000000
0.5983522 0.1349565 0.0000000
0.6847589 0.1500586 0.0088442
0.7703394 0.1712276 0.0333017
0.8524020 0.1992266 0.0639881
0.9279624 0.2344796 0.1010205
0.9942528 0.2770840 0.1440717
1.0000000 0.3307310 0.1923424
1.0000000 0.3987404 0.2450130
1.0000000 0.4696911 0.3017273
1.0000000 0.5418415 0.3622501
1.0000000 0.6129682 0.4262640
1.0000000 0.6806895 0.4929688
1.0000000 0.7428861 0.5609603
1.0000000 0.7984178 0.6283474
1.0000000 0.8473390 0.6930294
1.0000000 0.8883177 0.7527129
1.0000000 0.9220507 0.8059034
0.0000000 0.1571621 0.0000000
0.0000000 0.1568864 0.0000000
0.0000000 0.1566104 0.0000000
0.0000000 0.1563342 0.0000000
0.0000000 0.1561332 0.0000000
0.0000000 0.1569278 0.0000000
0.0000000 0.1574541 0.0000000
0.0000000 0.1578263 0.0000000
0.0000000 0.1580088 0.0000000
0.0493172 0.1579393 0.0000000
0.1157485 0.1576439 0.0000000
0.1854192 0.1572946 0.0000000
0.2593849 0.1572462 0.0000000
0.3371517 0.1580371 0.0000000
0.4181135 0.1603594 0.0000000
0.5019626 0.1650153 0.0000000
0.5881929 0.1729345 0.0000000
0.6755880 0.1851726 0.0055605
0.7621322 0.2028201 0.0311844
0.8451373 0.2268579 0.0626756
0.9216057 0.2580133 0.1002029
0.9887492 0.2966790 0.1435495
1.0000000 0.3428278 0.1920790
1.0000000 0.3987198 0.2449968
1.0000000 0.4696754 0.3017144
1.0000000 0.5418298 0.3622400
1.0000000 0.6129598 0.4262560
1.0000000 0.6806836 0.4929627
1.0000000 0.7428822 0.5609558
1.0000000 0.7984152 0.6283441
1.0000000 0.8473374 0.6930271
1.0000000 0.8883167 0.7527113
1.0000000 0.9220501 0.8059024
0.0000000 0.2071612 0.0000000
0.0000000 0.2069311 0.0000000
0.0000000 0.2067008 0.0000000
0.0000000 0.2064703 0.0000000
0.0000000 0.2062396 0.0000000
0.0000000 0.2068334 0.0000000
0.0000000 0.2072043 0.0000000
0.0000000 0.2074260 0.0000000
0.0000000 0.2074535 0.0000000
0.0048256 0.2072236 0.0000000
0.0863203 0.2067450 0.0000000
0.1618486 0.2061477 0.0000000
0.2392880 0.2057136 0.0000000
0.3194702 0.2058780 0.0000000
0.4022960 0.2072068 0.0000000
0.4877059 0.2103697 0.0000000
0.5753212 0.2161766 0.0000000
0.6639957 0.2256090 0.0024394
0.7517519 0.2397734 0.0287702
0.8359163 0.2597892 0.0612268
0.9134878 0.2866323 0.0993192
0.9816724 0.3209625 0.1429908
1.0000000 0.3629557 0.1917079
1.0000000 0.4122081 0.2447883
1.0000000 0.4696541 0.3016971
1.0000000 0.5418139 0.3622263
1.0000000 0.6129484 0.4262454
1.0000000 0.6806757 0.4929546
1.0000000 0.7428769 0.5609497
1.0000000 0.7984117 0.6283397
1.0000000 0.8473352 0.6930240
1.0000000 0.8883154 0.7527092
1.0000000 0.9220493 0.8059010
0.0000000 0.2624385 0.0000000
0.0000000 0.2622524 0.0000000
0.0000000 0.2620661 0.0000000
0.0000000 0.2618798 0.0000000
0.0000000 0.2616933 0.0000000
0.0000000 0.2620267 0.0000000
0.0000000 0.2622317 0.0000000
0.0000000 0.2622855 0.0000000
0.0000000 0.2621302 0.0000000
0.0000000 0.2616993 0.0000000
0.0441696 0.2609844 0.0000000
0.1309160 0.2600779 0.0000000
0.2136701 0.2591989 0.0000000
0.2972456 0.2586958 0.0000000
0.3825703 0.2590294 0.0000000
0.4700054 0.2607555 0.0000000
0.5593694 0.2645724 0.0000000
0.6496200 0.2713723 0.0002870
0.7388371 0.2822309 0.0262384
0.8243768 0.2983311 0.0597799
0.9032529 0.3208057 0.0984718
0.9726824 0.3505229 0.1424702
1.0000000 0.3878828 0.1913656
1.0000000 0.4326820 0.2445559
1.0000000 0.4840594 0.3015711
1.0000000 0.5417926 0.3622078
1.0000000 0.6129330 0.4262310
1.0000000 0.6806650 0.4929435
1.0000000 0.7428698 0.5609414
1.0000000 0.7984069 0.6283337
1.0000000 0.8473322 0.6930198
1.0000000 0.8883135 0.7527064
1.0000000 0.9220482 0.8058992
0.0000000 0.3219814 0.0000000
0.0000000 0.3218340 0.0000000
0.0000000 0.3216865 0.0000000
0.0000000 0.3215389 0.0000000
0.0000000 0.3213912 0.0000000
0.0000000 0.3215091 0.0000000
0.0000000 0.3215576 0.0000000
0.0000000 0.3214514 0.0000000
0.0000000 0.3211200 0.0000000
0.0000000 0.3204942 0.0000000
0.0000000 0.3195506 0.0000000
0.0901518 0.3183491 0.0000000
0.1815975 0.3170552 0.0000000
0.2699419 0.3159438 0.0000000
0.3585365 0.3153858 0.0000000
0.4485083 0.3158376 0.0000000
0.5399944 0.3178942 0.0000000
0.6321109 0.3223492 0.0000000
0.7230268 0.3302071 0.0239477
0.8101530 0.3426344 0.0585954
0.8905395 0.3608257 0.0978543
0.9614266 0.3857974 0.1421308
1.0000000 0.4181628 0.1911558
1.0000000 0.4579537 0.2444174
1.0000000 0.5045277 0.3014972
1.0000000 0.5565628 0.3622052
1.0000000 0.6129124 0.4262116
1.0000000 0.6806507 0.4929287
1.0000000 0.7428602 0.5609303
1.0000000 0.7984005 0.6283257
1.0000000 0.8473282 0.6930142
1.0000000 0.8883110 0.7527027
1.0000000 0.9220467 0.8058967
0.0000000 0.3851395 0.0000000
0.0000000 0.3850240 0.0000000
0.0000000 0.3849084 0.0000000
0.0000000 0.3847927 0.0000000
0.0000000 0.3846770 0.0000000
0.0000000 0.3846432 0.0000000
0.0000000 0.3845535 0.0000000
0.0000000 0.3843078 0.0000000
0.0000000 0.3838254 0.0000000
0.0000000 0.3830357 0.0000000
0.0000000 0.3819038 0.0000000
0.0322300 0.3804627 0.0000000
0.1414429 0.3788328 0.0000000
0.2368066 0.3772264 0.0000000
0.3297083 0.3759367 0.0000000
0.4228263 0.3753316 0.0000000
0.5168443 0.3759066 0.0000000
0.6111292 0.3783467 0.0000000
0.7039868 0.3835533 0.0225256
0.7929136 0.3926199 0.0581169
0.8750165 0.4067302 0.0977962
0.9475746 0.4269778 0.1422197
1.0000000 0.4541436 0.1912623
1.0000000 0.4884938 0.2445080
1.0000000 0.5296474 0.3015922
1.0000000 0.5765338 0.3623322
1.0000000 0.6274498 0.4263701
1.0000000 0.6806314 0.4929087
1.0000000 0.7428473 0.5609154
1.0000000 0.7983919 0.6283148
1.0000000 0.8473227 0.6930067
1.0000000 0.8883077 0.7526976
1.0000000 0.9220446 0.8058934
0.0000000 0.4515521 0.0000000
0.0000000 0.4514624 0.0000000
0.0000000 0.4513726 0.0000000
0.0000000 0.4512828 0.0000000
0.0000000 0.4511929 0.0000000
0.0000000 0.4510844 0.0000000
0.0000000 0.4508748 0.0000000
0.0000000 0.4505105 0.0000000
0.0000000 0.4499035 0.0000000
0.0000000 0.4489832 0.0000000
0.0000000 0.4477065 0.0000000
0.0000000 0.4460839 0.0000000
0.0897040 0.4441976 0.0000000
0.1967034 0.4422057 0.0000000
0.2955024 0.4403333 0.0000000
0.3925781 0.4388687 0.0000000
0.4896259 0.4382139 0.0000000
0.5864216 0.4389443 0.0000000
0.6814798 0.4418431 0.0229664
0.7724224 0.4478957 0.0590368
0.8564408 0.4582177 0.0988163
0.9308722 0.4739077 0.1431330
0.9937312 0.4958484 0.1919869
1.0000000 0.5245040 0.2450550
1.0000000 0.5597624 0.3020261
1.0000000 0.6008535 0.3627156
1.0000000 0.6463642 0.4267340
1.0000000 0.6943685 0.4932480
1.0000000 0.7428298 0.5608953
1.0000000 0.7983802 0.6283002
1.0000000 0.8473154 0.6929965
1.0000000 0.8883032 0.7526907
1.0000000 0.9220419 0.8058890
0.0000000 0.5205894 0.0000000
0.0000000 0.5205207 0.0000000
0.0000000 0.5204519 0.0000000
0.0000000 0.5203832 0.0000000
0.0000000 0.5203144 0.0000000
0.0000000 0.5202257 0.0000000
0.0000000 0.5199118 0.0000000
0.0000000 0.5194469 0.0000000
0.0000000 0.5187375 0.0000000
0.0000000 0.5177148 0.0000000
0.0000000 0.5163294 0.0000000
0.0000000 0.5145736 0.0000000
0.0139244 0.5124968 0.0000000
0.1479526 0.5102099 0.0000000
0.2553869 0.5078784 0.0000000
0.3575539 0.5057203 0.0000000
0.4582454 0.5040526 0.0000000
0.5579358 0.5033465 0.0000000
0.6554610 0.5042640 0.0266390
0.7486246 0.5076644 0.0623409
0.8347365 0.5145563 0.1016717
0.9112163 0.5259838 0.1454631
0.9761333 0.5428603 0.1937927
1.0000000 0.5657869 0.2464170
1.0000000 0.5948905 0.3030723
1.0000000 0.6297147 0.3635602
1.0000000 0.6691895 0.4274463
1.0000000 0.7117065 0.4938593
1.0000000 0.7553161 0.5614066
1.0000000 0.7983664 0.6282806
1.0000000 0.8473056 0.6929828
1.0000000 0.8882971 0.7526815
1.0000000 0.9220382 0.8058830
0.0000000 0.5910807 0.0000000
0.0000000 0.5910292 0.0000000
0.0000000 0.5909777 0.0000000
0.0000000 0.5909262 0.0000000
0.0000000 0.5908746 0.0000000
0.0000000 0.5908231 0.0000000
0.0000000 0.5905210 0.0000000
0.0000000 0.5899727 0.0000000
0.0000000 0.5891819 0.0000000
0.0000000 0.5880821 0.0000000
0.0000000 0.5866201 0.0000000
0.0000000 0.5847728 0.0000000
0.0000000 0.5825616 0.0000000
0.0872356 0.5800569 0.0000000
0.2089978 0.5773720 0.0000000
0.3179006 0.5746635 0.0000000
0.4229765 0.5721739 0.0000000
0.5259649 0.5702794 0.0036215
0.6262037 0.5695261 0.0350922
0.7217563 0.5706435 0.0692790
0.8100933 0.5745132 0.1073752
0.8887439 0.5820828 0.1500324
0.9558514 0.5942356 0.1973437
1.0000000 0.6116387 0.2491233
1.0000000 0.6345994 0.3051454
1.0000000 0.6629475 0.3651821
1.0000000 0.6959711 0.4287413
1.0000000 0.7324333 0.4949020
1.0000000 0.7707014 0.5622380
1.0000000 0.8093255 0.6289252
1.0000000 0.8473785 0.6929705
1.0000000 0.8882889 0.7526691
1.0000000 0.9220333 0.8058749
0.0000000 0.6612878 0.0000000
0.0000000 0.6612502 0.0000000
0.0000000 0.6612127 0.0000000
0.0000000 0.6611752 0.0000000
0.0000000 0.6611376 0.0000000
0.0000000 0.6611001 0.0000000
0.0000000 0.6609899 0.0000000
0.0000000 0.6603778 0.0000000
0.0000000 0.6595280 0.0000000
0.0000000 0.6583772 0.0000000
0.0000000 0.6568697 0.0000000
0.0000000 0.6549702 0.0000000
0.0000000 0.6526768 0.0000000
0.0011648 0.6500245 0.0000000
0.1561810 0.6470818 0.0000000
0.2743445 0.6439535 0.0000000
0.3846532 0.6408181 0.0000408
0.4913037 0.6379684 0.0216911
0.5944268 0.6358462 0.0496953
0.6924513 0.6350574 0.0812164
0.7830584 0.6363521 0.1171409
0.8639142 0.6405598 0.1578848
0.9332544 0.6484887 0.2035199
0.9902042 0.6608086 0.2539016
1.0000000 0.6779342 0.3088326
1.0000000 0.6999210 0.3680405
1.0000000 0.7263856 0.4309660
1.0000000 0.7564763 0.4966295
1.0000000 0.7889311 0.5635617
1.0000000 0.8225809 0.6299142
1.0000000 0.8566333 0.6936832
1.0000000 0.8884016 0.7526632
1.0000000 0.9220266 0.8058640
0.0000000 0.7290646 0.0000000
0.0000000 0.7290382 0.0000000
0.0000000 0.7290118 0.0000000
0.0000000 0.7289853 0.0000000
0.0000000 0.7289589 0.0000000
0.0000000 0.7289324 0.0000000
0.0000000 0.7289058 0.0000000
0.0000000 0.7285347 0.0000000
0.0000000 0.7276515 0.0000000
0.0000000 0.7264785 0.0000000
0.0000000 0.7249583 0.0000000
0.0000000 0.7230467 0.0000000
0.0000000 0.7207221 0.0000000
0.0000000 0.7179902 0.0000000
0.0966658 0.7148817 0.0002007
0.2284237 0.7114584 0.0108709
0.3448348 0.7078459 0.0277447
0.4553590 0.7042671 0.0476976
0.5613708 0.7010737 0.0713697
0.6617965 0.6987612 0.0993833
0.7545786 0.6979559 0.1322294
0.8375444 0.6993641 0.1702033
0.9090343 0.7036945 0.2133821
0.9682387 0.7115707 0.2616731
1.0000000 0.7234459 0.3149057
1.0000000 0.7395231 0.3727581
1.0000000 0.7596805 0.4346042
1.0000000 0.7834183 0.4994026
1.0000000 0.8098584 0.5656360
1.0000000 0.8381685 0.6314247
1.0000000 0.8677699 0.6947459
1.0000000 0.8960654 0.7533833
1.0000000 0.9221504 0.8058628
0.0000000 0.7922012 0.0184815
0.0000000 0.7921832 0.0184639
0.0000000 0.7921653 0.0184462
0.0000000 0.7921474 0.0184286
0.0000000 0.7921294 0.0184109
0.0000000 0.7921115 0.0183933
0.0000000 0.7920934 0.0183755
0.0000000 0.7920712 0.0183536
0.0000000 0.7913422 0.0193802
0.0000000 0.7901783 0.0210771
0.0000000 0.7886805 0.0233594
0.0000000 0.7867979 0.0264323
0.0000000 0.7844935 0.0305629
0.0000000 0.7817489 0.0360847
0.0273643 0.7785638 0.0433949
0.1827088 0.7749664 0.0529529
0.3058797 0.7710398 0.0652787
0.4201490 0.7669504 0.0809422
0.5287645 0.7629755 0.1005365
0.6312834 0.7595176 0.1246336
0.7259488 0.7570941 0.1537222
0.8107607 0.7562958 0.1881461
0.8841658 0.7577251 0.2280689
0.9454182 0.7619309 0.2734954
0.9946155 0.7693504 0.3242959
1.0000000 0.7802571 0.3801178
1.0000000 0.7947052 0.4402856
1.0000000 0.8124744 0.5037061
1.0000000 0.8330351 0.5688171
1.0000000 0.8559086 0.6337064
1.0000000 0.8807885 0.6963255
1.0000000 0.9052530 0.7544370
1.0000000 0.9284100 0.8065410
0.0000000 0.8488409 0.0757067
0.0000000 0.8488291 0.0756941
0.0000000 0.8488174 0.0756814
0.0000000 0.8488057 0.0756688
0.0000000 0.8487940 0.0756561
0.0000000 0.8487823 0.0756435
0.0000000 0.8487705 0.0756307
0.0000000 0.8487559 0.0756150
0.0000000 0.8487153 0.0756155
0.0000000 0.8475927 0.0767381
0.0000000 0.8461526 0.0782676
0.0000000 0.8443395 0.0803564
0.0000000 0.8421049 0.0832113
0.0000000 0.8394112 0.0871044
0.0000000 0.8362343 0.0923820
0.1410605 0.8325766 0.0994740
0.2708853 0.8284886 0.1088968
0.3881597 0.8240925 0.1212454
0.4986612 0.8196067 0.1371686
0.6026452 0.8153588 0.1573250
0.6986562 0.8117757 0.1823218
0.7848546 0.8093484 0.2126497
0.8597772 0.8085796 0.2486391
0.9227268 0.8099336 0.2904469
0.9738240 0.8137982 0.3380180
1.0000000 0.8204563 0.3910201
1.0000000 0.8300541 0.4487689
1.0000000 0.8425593 0.5101477
1.0000000 0.8577173 0.5735681
1.0000000 0.8753719 0.6370946
1.0000000 0.8955079 0.6986523
1.0000000 0.9159481 0.7559749
1.0000000 0.9358959 0.8075211
0.0000000 0.8978017 0.1342009
0.0000000 0.8977943 0.1341911
0.0000000 0.8977869 0.1341812
0.0000000 0.8977795 0.1341713
0.0000000 0.8977721 0.1341615
0.0000000 0.8977647 0.1341516
0.0000000 0.8977573 0.1341417
0.0000000 0.8977482 0.1341294
0.0000000 0.8977358 0.1341130
0.0000000 0.8974874 0.1342830
0.0000000 0.8961369 0.1354023
0.0000000 0.8944299 0.1369370
0.0000000 0.8923093 0.1390441
0.0000000 0.8897232 0.1419344
0.0000000 0.8866307 0.1458857
0.1089712 0.8830153 0.1512570
0.2434719 0.8789022 0.1585001
0.3620856 0.8743800 0.1681635
0.4731915 0.8696219 0.1808833
0.5776275 0.8648967 0.1973535
0.6741691 0.8605599 0.2182746
0.7610885 0.8570210 0.2442883
0.8369737 0.8546980 0.2759127
0.9011437 0.8539752 0.3134757
0.9537169 0.8551776 0.3570522
0.9954441 0.8585595 0.4064004
1.0000000 0.8642931 0.4608901
1.0000000 0.8724468 0.5194325
1.0000000 0.8829498 0.5804513
1.0000000 0.8959004 0.6420132
1.0000000 0.9115463 0.7020285
1.0000000 0.9279861 0.7582007
1.0000000 0.9445872 0.8089339
0.0000000 0.9386762 0.1959280
0.0000000 0.9386717 0.1959202
0.0000000 0.9386672 0.1959125
