luts/VLog/in-VLog.AgX_look3-BT2020.out-sRGB.cube
TITLE "in-VLog.AgX_look3-BT2020.out-sRGB"
# author = Liam Collod
# LUT resolution = 33
# LUT domain = [[ 0.  0.  0.] [ 1.  1.  1.]]
LUT_3D_SIZE 5
0.0000000 0.0000000 0.0000000
0.0805726 0.0000000 0.0000000
0.6215449 0.0208138 0.0028117
1.0000000 0.4697460 0.3017721
1.0000000 0.9220529 0.8059069
0.0000000 0.0485608 0.0000000
0.0600809 0.0493719 0.0000000
0.6121551 0.0741090 0.0004677
1.0000000 0.4697116 0.3017439
1.0000000 0.9220515 0.8059047
0.0000000 0.4515521 0.0000000
0.0000000 0.4499035 0.0000000
0.4896259 0.4382139 0.0000000
1.0000000 0.5597624 0.3020261
1.0000000 0.9220419 0.8058890
0.0000000 0.9386762 0.1959280
0.0000000 0.9386361 0.1958590
0.2273546 0.9217327 0.2135914
0.9350462 0.8923455 0.3822036
1.0000000 0.9543436 0.8109537
0.6256872 1.0000000 0.7504510
0.6256779 1.0000000 0.7504451
0.6256110 1.0000000 0.7504028
0.8880845 1.0000000 0.7668364
1.0000000 1.0000000 0.8815064
0.0000000 0.0029851 0.0597391
0.0763496 0.0016435 0.0611483
0.6164265 0.0429584 0.0823849
1.0000000 0.4695802 0.3016368
1.0000000 0.9220464 0.8058963
0.0000000 0.0550925 0.0537833
0.0548690 0.0548815 0.0548803
0.6096315 0.0776608 0.0762185
1.0000000 0.4695457 0.3016086
1.0000000 0.9220451 0.8058941
0.0000000 0.4509251 0.0000000
0.0000000 0.4492940 0.0000000
0.4878123 0.4371109 0.0197340
1.0000000 0.5582035 0.3018570
1.0000000 0.9220354 0.8058784
0.0000000 0.9385261 0.1956699
0.0000000 0.9384859 0.1956009
0.2242463 0.9216808 0.2131886
0.9350061 0.8922011 0.3819872
1.0000000 0.9542985 0.8109337
0.6256523 1.0000000 0.7504289
0.6256429 1.0000000 0.7504230
0.6255761 1.0000000 0.7503806
0.8879953 1.0000000 0.7668032
1.0000000 1.0000000 0.8814953
0.0000000 0.2034956 0.4892756
0.0000000 0.2033960 0.4890365
0.5680338 0.2256439 0.4886579
1.0000000 0.5074455 0.5349501
1.0000000 0.9221350 0.8083854
0.0000000 0.2027917 0.4883163
0.0000000 0.2026865 0.4880791
0.5676962 0.2249828 0.4877098
1.0000000 0.5072445 0.5342204
1.0000000 0.9221270 0.8082575
0.0000000 0.4822035 0.4674872
0.0000000 0.4814436 0.4672916
0.4692138 0.4692983 0.4692901
1.0000000 0.5741415 0.5266027
1.0000000 0.9220696 0.8073390
0.0000000 0.9365546 0.4227167
0.0000000 0.9365155 0.4224517
0.2160021 0.9214624 0.4264416
0.9296195 0.8922519 0.4987920
1.0000000 0.9539743 0.8107902
0.6254021 1.0000000 0.7502705
0.6253927 1.0000000 0.7502646
0.6253258 1.0000000 0.7502222
0.8873543 1.0000000 0.7665661
1.0000000 1.0000000 0.8814161
0.3976626 0.6924831 0.9303789
0.3976405 0.6924647 0.9303701
0.4840663 0.6905791 0.9295507
0.9899124 0.7295220 0.9224041
1.0000000 0.9361829 0.9375105
0.3975654 0.6924021 0.9303402
0.3975432 0.6923837 0.9303313
0.4836592 0.6905040 0.9295148
0.9899146 0.7294572 0.9223647
1.0000000 0.9361762 0.9374851
0.3968691 0.6918216 0.9300623
0.3968469 0.6918031 0.9300534
0.4807283 0.6899656 0.9292578
0.9899301 0.7289928 0.9220821
1.0000000 0.9361283 0.9373028
0.3018723 0.9332715 0.9092601
0.3018318 0.9332381 0.9092516
0.3561101 0.9308423 0.9089158
0.9071148 0.9072726 0.9072574
1.0000000 0.9586382 0.9347234
0.6677664 1.0000000 0.8997865
0.6677528 1.0000000 0.8997750
0.6676559 1.0000000 0.8996930
0.8818915 1.0000000 0.9010983
1.0000000 1.0000000 0.9331052
0.8984034 0.9866297 1.0000000
0.8984024 0.9866293 1.0000000
0.8983956 0.9866263 1.0000000
0.9295295 0.9853083 1.0000000
1.0000000 0.9987496 1.0000000
0.8983992 0.9866279 1.0000000
0.8983982 0.9866275 1.0000000
0.8983913 0.9866244 1.0000000
0.9295169 0.9853067 1.0000000
1.0000000 0.9987482 1.0000000
0.8983690 0.9866147 1.0000000
0.8983681 0.9866143 1.0000000
0.8983612 0.9866112 1.0000000
0.9294266 0.9852956 1.0000000
1.0000000 0.9987383 1.0000000
0.8980412 0.9864711 1.0000000
0.8980402 0.9864707 1.0000000
0.8980333 0.9864677 1.0000000
0.9284398 0.9851753 1.0000000
1.0000000 0.9986304 1.0000000
0.9164262 1.0000000 1.0000000
0.9164244 1.0000000 1.0000000
0.9164114 1.0000000 1.0000000
0.9316206 1.0000000 1.0000000
0.9998940 1.0000000 1.0000000
