luts/VLog/in-VLog.AgX_look1-BT2020.out-BT709.cube
TITLE "in-VLog.AgX_look1-BT2020.out-BT709"
# author = Liam Collod
# LUT resolution = 33
# LUT domain = [[ 0.  0.  0.] [ 1.  1.  1.]]
LUT_3D_SIZE 9
0.0000000 0.0000000 0.0000000
0.0007198 0.0000000 0.0000000
0.1326484 0.0000000 0.0000000
0.4132986 0.0000000 0.0000000
0.7041779 0.0325498 0.0075966
0.9520698 0.3018088 0.1651883
1.0000000 0.5706216 0.4064304
1.0000000 0.8036835 0.6521973
1.0000000 0.9422500 0.8534887
0.0000000 0.0011656 0.0000000
0.0001111 0.0008194 0.0000000
0.1307203 0.0000000 0.0000000
0.4127253 0.0000000 0.0000000
0.7040148 0.0324290 0.0075654
0.9520344 0.3017612 0.1651476
1.0000000 0.5706074 0.4064171
1.0000000 0.8036804 0.6521935
1.0000000 0.9422495 0.8534879
0.0000000 0.0782423 0.0000000
0.0000000 0.0762191 0.0000000
0.0989683 0.0796948 0.0000000
0.3982709 0.0740835 0.0000000
0.6962355 0.1221569 0.0023294
0.9519907 0.3017026 0.1650977
1.0000000 0.5705899 0.4064008
1.0000000 0.8036767 0.6521887
1.0000000 0.9422489 0.8534869
0.0000000 0.3016180 0.0000000
0.0000000 0.3005322 0.0000000
0.0000000 0.3019559 0.0000000
0.3386160 0.2998790 0.0000000
0.6647164 0.3120767 0.0000000
0.9359337 0.3903382 0.1610947
1.0000000 0.5705371 0.4063516
1.0000000 0.8036652 0.6521743
1.0000000 0.9422473 0.8534841
0.0000000 0.5539404 0.0000000
0.0000000 0.5536065 0.0000000
0.0000000 0.5524036 0.0000000
0.1467736 0.5470698 0.0000000
0.5889081 0.5414377 0.0000000
0.8926493 0.5600292 0.1603525
1.0000000 0.6510911 0.4066972
1.0000000 0.8036276 0.6521270
1.0000000 0.9422417 0.8534747
0.0000000 0.7926843 0.0000000
0.0000000 0.7925992 0.0000000
0.0000000 0.7915458 0.0000000
0.0000000 0.7859519 0.0000000
0.4508046 0.7755112 0.0431755
0.8131265 0.7674380 0.2074726
1.0000000 0.7880740 0.4201334
1.0000000 0.8565390 0.6562484
1.0000000 0.9423230 0.8534543
0.0000000 0.9547443 0.2882540
0.0000000 0.9547309 0.2882169
0.0000000 0.9547144 0.2881714
0.0000000 0.9517106 0.2917479
0.3250729 0.9420624 0.3091136
0.7311581 0.9277350 0.3631852
0.9520824 0.9198869 0.4878233
1.0000000 0.9314808 0.6773509
1.0000000 0.9663244 0.8574233
0.2014232 1.0000000 0.5742505
0.2013885 1.0000000 0.5742405
0.2013458 1.0000000 0.5742283
0.2012168 1.0000000 0.5741913
0.4191731 1.0000000 0.5774697
0.7103263 1.0000000 0.5927098
0.9126874 0.9954552 0.6401357
1.0000000 0.9909636 0.7424375
1.0000000 0.9981625 0.8722927
0.7076906 1.0000000 0.8097593
0.7076871 1.0000000 0.8097572
0.7076827 1.0000000 0.8097546
0.7076696 1.0000000 0.8097467
0.7076264 1.0000000 0.8097208
0.7895897 1.0000000 0.8120684
0.9167775 1.0000000 0.8227755
1.0000000 1.0000000 0.8535091
1.0000000 1.0000000 0.9116815
0.0000000 0.0000000 0.0001622
0.0000064 0.0000000 0.0001029
0.1254743 0.0000000 0.0000000
0.4105298 0.0000000 0.0000000
0.7033926 0.0319694 0.0074466
0.9518991 0.3015796 0.1649929
1.0000000 0.5705533 0.4063666
1.0000000 0.8036687 0.6521787
1.0000000 0.9422478 0.8534850
0.0000000 0.0000397 0.0000000
0.0000000 0.0000000 0.0000000
0.1235760 0.0000000 0.0000000
0.4099502 0.0000000 0.0000000
0.7032289 0.0318488 0.0074155
0.9518635 0.3015319 0.1649522
1.0000000 0.5705390 0.4063534
1.0000000 0.8036656 0.6521749
1.0000000 0.9422473 0.8534842
0.0000000 0.0687768 0.0000000
0.0000000 0.0663066 0.0000000
0.0941818 0.0698015 0.0000000
0.3968913 0.0631186 0.0000000
0.6963605 0.1124801 0.0027970
0.9518198 0.3014733 0.1649023
1.0000000 0.5705216 0.4063371
1.0000000 0.8036619 0.6521701
1.0000000 0.9422468 0.8534832
0.0000000 0.2975288 0.0000000
0.0000000 0.2964231 0.0000000
0.0000000 0.2978597 0.0000000
0.3369528 0.2958605 0.0000000
0.6646633 0.3084171 0.0000000
0.9361964 0.3879992 0.1609722
1.0000000 0.5704688 0.4062878
1.0000000 0.8036504 0.6521557
1.0000000 0.9422451 0.8534804
0.0000000 0.5526885 0.0000000
0.0000000 0.5523526 0.0000000
0.0000000 0.5512218 0.0000000
0.1417957 0.5458782 0.0000000
0.5884326 0.5402236 0.0000000
0.8927475 0.5589791 0.1600834
1.0000000 0.6504829 0.4066175
1.0000000 0.8036128 0.6521084
1.0000000 0.9422396 0.8534710
0.0000000 0.7923659 0.0000000
0.0000000 0.7922806 0.0000000
0.0000000 0.7913220 0.0000000
0.0000000 0.7857025 0.0000000
0.4497417 0.7752205 0.0425211
0.8130219 0.7671350 0.2071564
1.0000000 0.7878353 0.4200245
1.0000000 0.8564266 0.6562163
1.0000000 0.9422953 0.8534478
0.0000000 0.9546941 0.2881154
0.0000000 0.9546807 0.2880783
0.0000000 0.9546642 0.2880327
0.0000000 0.9517195 0.2915288
0.3234801 0.9420449 0.3089029
0.7309204 0.9276927 0.3630163
0.9520690 0.9198379 0.4877284
1.0000000 0.9314451 0.6773169
1.0000000 0.9663094 0.8574162
0.2012933 1.0000000 0.5742132
0.2012586 1.0000000 0.5742032
0.2012158 1.0000000 0.5741910
0.2010867 1.0000000 0.5741539
0.4182455 1.0000000 0.5774114
0.7100985 1.0000000 0.5926529
0.9126528 0.9954505 0.6400906
1.0000000 0.9909574 0.7424143
1.0000000 0.9981580 0.8722864
0.7076774 1.0000000 0.8097514
0.7076739 1.0000000 0.8097493
0.7076695 1.0000000 0.8097467
0.7076564 1.0000000 0.8097388
0.7076132 1.0000000 0.8097129
0.7894702 1.0000000 0.8120560
0.9167472 1.0000000 0.8227637
1.0000000 1.0000000 0.8535005
1.0000000 1.0000000 0.9116777
0.0000000 0.0079567 0.0983656
0.0000000 0.0078694 0.0975312
0.1259520 0.0053840 0.1007866
0.4085061 0.0000000 0.1081615
0.6998540 0.0680756 0.1354343
0.9499547 0.3088750 0.2251800
1.0000000 0.5704692 0.4062883
1.0000000 0.8036505 0.6521559
1.0000000 0.9422451 0.8534804
0.0000000 0.0075766 0.0946855
0.0000000 0.0074911 0.0938398
0.1242120 0.0049725 0.0970976
0.4079274 0.0000000 0.1045285
0.6997708 0.0668678 0.1321215
0.9499882 0.3085278 0.2230182
1.0000000 0.5704550 0.4062750
1.0000000 0.8036474 0.6521520
1.0000000 0.9422446 0.8534796
0.0000000 0.0902514 0.0879165
0.0000000 0.0875074 0.0871514
0.0898635 0.0898639 0.0898639
0.3949613 0.0844152 0.0965630
0.6940955 0.1278569 0.1256815
0.9500293 0.3081002 0.2203308
1.0000000 0.5704376 0.4062587
1.0000000 0.8036437 0.6521472
1.0000000 0.9422441 0.8534787
0.0000000 0.3050034 0.0542893
0.0000000 0.3038492 0.0535067
0.0000000 0.3045857 0.0560201
0.3347206 0.3021144 0.0634039
0.6628036 0.3130537 0.0997143
0.9353254 0.3889848 0.2088409
1.0000000 0.5703847 0.4062095
1.0000000 0.8036322 0.6521329
1.0000000 0.9422424 0.8534758
0.0000000 0.5533574 0.0000000
0.0000000 0.5529980 0.0000000
0.0000000 0.5518367 0.0000000
0.1377088 0.5463911 0.0000000
0.5872629 0.5404031 0.0311590
0.8925404 0.5582762 0.1776065
1.0000000 0.6497325 0.4065197
1.0000000 0.8035946 0.6520855
1.0000000 0.9422369 0.8534664
0.0000000 0.7919735 0.0000000
0.0000000 0.7918880 0.0000000
0.0000000 0.7910460 0.0000000
0.0000000 0.7853955 0.0000000
0.4484286 0.7748622 0.0417173
0.8128933 0.7667615 0.2067672
1.0000000 0.7875414 0.4198907
1.0000000 0.8562884 0.6561769
1.0000000 0.9422612 0.8534400
0.0000000 0.9546324 0.2879449
0.0000000 0.9546190 0.2879078
0.0000000 0.9546024 0.2878622
0.0000000 0.9517306 0.2912594
0.3215080 0.9420236 0.3086438
0.7306278 0.9276408 0.3628086
0.9520526 0.9197777 0.4876118
1.0000000 0.9314012 0.6772751
1.0000000 0.9662909 0.8574076
0.2011335 1.0000000 0.5741674
0.2010987 1.0000000 0.5741574
0.2010560 1.0000000 0.5741451
0.2009267 1.0000000 0.5741081
0.4171008 1.0000000 0.5773398
0.7098181 1.0000000 0.5925830
0.9126102 0.9954447 0.6400351
1.0000000 0.9909497 0.7423857
1.0000000 0.9981524 0.8722786
0.7076612 1.0000000 0.8097417
0.7076576 1.0000000 0.8097395
0.7076533 1.0000000 0.8097369
0.7076402 1.0000000 0.8097291
0.7075970 1.0000000 0.8097032
0.7893233 1.0000000 0.8120408
0.9167099 1.0000000 0.8227492
1.0000000 1.0000000 0.8534900
1.0000000 1.0000000 0.9116731
0.0000000 0.0875643 0.3388570
0.0000000 0.0873588 0.3385536
0.0997826 0.0898836 0.3391002
0.3958953 0.0955547 0.3410325
0.6882132 0.1630390 0.3494375
0.9421914 0.3393490 0.3833914
1.0000000 0.5786401 0.4808397
1.0000000 0.8036985 0.6535462
1.0000000 0.9422370 0.8534667
0.0000000 0.0866617 0.3375225
0.0000000 0.0864555 0.3372172
0.0978581 0.0889683 0.3377609
0.3953520 0.0945678 0.3397179
0.6881202 0.1622875 0.3481972
0.9422141 0.3390475 0.3823738
1.0000000 0.5785482 0.4802334
1.0000000 0.8036790 0.6533103
1.0000000 0.9422366 0.8534659
0.0000000 0.1476670 0.3346568
0.0000000 0.1454428 0.3343987
0.0631579 0.1455543 0.3349494
0.3859653 0.1439760 0.3370276
0.6858818 0.1774809 0.3462322
0.9422421 0.3386764 0.3811163
1.0000000 0.5784353 0.4794859
1.0000000 0.8036551 0.6530200
1.0000000 0.9422360 0.8534650
0.0000000 0.3300202 0.3230125
0.0000000 0.3289967 0.3227369
0.0000000 0.3284785 0.3232681
0.3256037 0.3256042 0.3256042
0.6554524 0.3343482 0.3359483
0.9297683 0.4028201 0.3748942
1.0000000 0.5780937 0.4772105
1.0000000 0.8035826 0.6521395
1.0000000 0.9422343 0.8534621
0.0000000 0.5605680 0.2956319
0.0000000 0.5602239 0.2952914
0.0000000 0.5590277 0.2957591
0.1293165 0.5536139 0.2989231
0.5815585 0.5476057 0.3119255
0.8878270 0.5644308 0.3572812
1.0000000 0.6520516 0.4687934
1.0000000 0.8035395 0.6520163
1.0000000 0.9422288 0.8534527
0.0000000 0.7925011 0.2511867
0.0000000 0.7924122 0.2507569
0.0000000 0.7919192 0.2505896
0.0000000 0.7863155 0.2549344
0.4441835 0.7758181 0.2717228
0.8102367 0.7675165 0.3264366
1.0000000 0.7875641 0.4522259
1.0000000 0.8558691 0.6560579
1.0000000 0.9422106 0.8534217
0.0000000 0.9544454 0.2874288
0.0000000 0.9544319 0.2873917
0.0000000 0.9544154 0.2873460
0.0000000 0.9517658 0.2904436
0.3154449 0.9419593 0.3078587
0.7297398 0.9274834 0.3621796
0.9520027 0.9195951 0.4872587
1.0000000 0.9312683 0.6771486
1.0000000 0.9662350 0.8573816
0.2006498 1.0000000 0.5740288
0.2006149 1.0000000 0.5740188
0.2005721 1.0000000 0.5740065
0.2004425 1.0000000 0.5739694
0.4136071 1.0000000 0.5771234
0.7089676 1.0000000 0.5923714
0.9124812 0.9954272 0.6398673
1.0000000 0.9909266 0.7422993
1.0000000 0.9981355 0.8722549
0.7076121 1.0000000 0.8097123
0.7076086 1.0000000 0.8097101
0.7076042 1.0000000 0.8097075
0.7075911 1.0000000 0.8096997
0.7075479 1.0000000 0.8096738
0.7888780 1.0000000 0.8119948
0.9165971 1.0000000 0.8227055
1.0000000 1.0000000 0.8534583
1.0000000 1.0000000 0.9116591
0.0000000 0.2972843 0.5885430
0.0000000 0.2971992 0.5884542
0.0000000 0.2971647 0.5883258
0.3566661 0.2992503 0.5878227
0.6584213 0.3230125 0.5879728
0.9219788 0.4174342 0.5949279
1.0000000 0.6048463 0.6293859
1.0000000 0.8094376 0.7220321
1.0000000 0.9423115 0.8554218
0.0000000 0.2969107 0.5881530
0.0000000 0.2968254 0.5880640
0.0000000 0.2967881 0.5879366
0.3560588 0.2988735 0.5874336
0.6582900 0.3226724 0.5875871
0.9219823 0.4172244 0.5945645
1.0000000 0.6047654 0.6290970
1.0000000 0.8094188 0.7218777
1.0000000 0.9423088 0.8553771
0.0000000 0.2964506 0.5876726
0.0000000 0.2963652 0.5875834
0.0000000 0.2963243 0.5874571
0.3553100 0.2984095 0.5869543
0.6581285 0.3222537 0.5871122
0.9219866 0.4169662 0.5941169
1.0000000 0.6046659 0.6287414
1.0000000 0.8093958 0.7216877
1.0000000 0.9423055 0.8553222
0.0000000 0.3943538 0.5824087
0.0000000 0.3936092 0.5823470
0.0000000 0.3926098 0.5822653
0.3098156 0.3890882 0.5820255
0.6387091 0.3929842 0.5829566
0.9157997 0.4436348 0.5916561
1.0000000 0.6043650 0.6276623
1.0000000 0.8093261 0.7211119
1.0000000 0.9422955 0.8551559
0.0000000 0.5821389 0.5686433
0.0000000 0.5818348 0.5685623
0.0000000 0.5814463 0.5684634
0.1280418 0.5763063 0.5685031
0.5702901 0.5702907 0.5702906
0.8765307 0.5840204 0.5812251
1.0000000 0.6635707 0.6219978
1.0000000 0.8090965 0.7192001
1.0000000 0.9422625 0.8546059
0.0000000 0.7959647 0.5460125
0.0000000 0.7958795 0.5459111
0.0000000 0.7957748 0.5457864
0.0000000 0.7912493 0.5460882
0.4388152 0.7812444 0.5488839
0.8021433 0.7729885 0.5626216
1.0000000 0.7918294 0.6096088
1.0000000 0.8573849 0.7144565
1.0000000 0.9421839 0.8533765
0.0000000 0.9531611 0.5268430
0.0000000 0.9531481 0.5267303
0.0000000 0.9531320 0.5265917
0.0000000 0.9513912 0.5267186
0.3119918 0.9418604 0.5303627
0.7243875 0.9276464 0.5459900
0.9480319 0.9198167 0.5971231
1.0000000 0.9312606 0.7081744
1.0000000 0.9660504 0.8572959
0.1990488 1.0000000 0.5735716
0.1990136 1.0000000 0.5735616
0.1989705 1.0000000 0.5735493
0.1988399 1.0000000 0.5735122
0.4017311 1.0000000 0.5764100
0.7061346 1.0000000 0.5916732
0.9120546 0.9953695 0.6393137
1.0000000 0.9908501 0.7420144
1.0000000 0.9980797 0.8721771
0.7074504 1.0000000 0.8096154
0.7074469 1.0000000 0.8096133
0.7074425 1.0000000 0.8096107
0.7074294 1.0000000 0.8096028
0.7073862 1.0000000 0.8095769
0.7874006 1.0000000 0.8118433
0.9162241 1.0000000 0.8225614
1.0000000 1.0000000 0.8533536
1.0000000 1.0000000 0.9116129
0.2165330 0.5355565 0.8115514
0.2165005 0.5355300 0.8115307
0.2164606 0.5354975 0.8115052
0.3079117 0.5347843 0.8111564
0.6075978 0.5364260 0.8095367
0.8796873 0.5674108 0.8078172
1.0000000 0.6723580 0.8114686
1.0000000 0.8267175 0.8359485
1.0000000 0.9449174 0.8958470
0.2163906 0.5354404 0.8114604
0.2163581 0.5354139 0.8114396
0.2163182 0.5353814 0.8114141
0.3072445 0.5346717 0.8110672
0.6074220 0.5363082 0.8094464
0.8796665 0.5673088 0.8077274
1.0000000 0.6723023 0.8113859
1.0000000 0.8267014 0.8358883
1.0000000 0.9449147 0.8958209
0.2162154 0.5352977 0.8113483
0.2161829 0.5352712 0.8113276
0.2161429 0.5352387 0.8113020
0.3064218 0.5345332 0.8109575
0.6072058 0.5361633 0.8093354
0.8796411 0.5671834 0.8076171
1.0000000 0.6722337 0.8112842
1.0000000 0.8266816 0.8358143
1.0000000 0.9449115 0.8957887
0.2156850 0.5348657 0.8110091
0.2156525 0.5348391 0.8109882
0.2156124 0.5348065 0.8109626
0.3039160 0.5341142 0.8106251
0.6065508 0.5357247 0.8089993
0.8795640 0.5668039 0.8072828
1.0000000 0.6720263 0.8109762
1.0000000 0.8266218 0.8355903
1.0000000 0.9449018 0.8956914
0.0545147 0.6399451 0.8042681
0.0548747 0.6397272 0.8042579
0.0553178 0.6394591 0.8042454
0.1945770 0.6376591 0.8040176
0.5599640 0.6318035 0.8028698
0.8550346 0.6385857 0.8024335
1.0000000 0.6976718 0.8085790
1.0000000 0.8264244 0.8348491
1.0000000 0.9448696 0.8953701
0.0000000 0.8089400 0.7907520
0.0000000 0.8088665 0.7907330
0.0000000 0.8087760 0.7907096
0.0000000 0.8076713 0.7905650
0.4507004 0.7989515 0.7898857
0.7907486 0.7907491 0.7907491
0.9906716 0.8057888 0.8000018
1.0000000 0.8640675 0.8312846
1.0000000 0.9447637 0.8943008
0.0000000 0.9509265 0.7767100
0.0000000 0.9509135 0.7766854
0.0000000 0.9508976 0.7766550
0.0000000 0.9508494 0.7765633
0.3424438 0.9429582 0.7763499
0.7198378 0.9297434 0.7782215
0.9390790 0.9221851 0.7898268
1.0000000 0.9330246 0.8254226
1.0000000 0.9666677 0.8923986
0.3008522 1.0000000 0.7709201
0.3008114 1.0000000 0.7708946
0.3007612 1.0000000 0.7708633
0.3006094 1.0000000 0.7707684
0.4138108 1.0000000 0.7707918
0.7025583 1.0000000 0.7733195
0.9058314 0.9949522 0.7855566
1.0000000 0.9906958 0.8220629
1.0000000 0.9980381 0.8904777
0.7069169 1.0000000 0.8092957
0.7069133 1.0000000 0.8092936
0.7069089 1.0000000 0.8092910
0.7068958 1.0000000 0.8092831
0.7068524 1.0000000 0.8092571
0.7824095 1.0000000 0.8113436
0.9149809 1.0000000 0.8220855
1.0000000 1.0000000 0.8530082
1.0000000 1.0000000 0.9114607
0.5029581 0.7630020 0.9485129
0.5029485 0.7629952 0.9485100
0.5029367 0.7629869 0.9485063
0.5029011 0.7629618 0.9484953
0.5838920 0.7614401 0.9478928
0.8239937 0.7623207 0.9454219
0.9926868 0.7929700 0.9425359
1.0000000 0.8686464 0.9423533
1.0000000 0.9528162 0.9538242
0.5029160 0.7629723 0.9484999
0.5029064 0.7629655 0.9484970
0.5028946 0.7629572 0.9484933
0.5028589 0.7629321 0.9484823
0.5837258 0.7614126 0.9478808
0.8239550 0.7622906 0.9454091
0.9926875 0.7929466 0.9425226
1.0000000 0.8686363 0.9423410
1.0000000 0.9528140 0.9538157
0.5028642 0.7629358 0.9484840
0.5028546 0.7629291 0.9484810
0.5028428 0.7629208 0.9484774
0.5028072 0.7628956 0.9484664
0.5835214 0.7613787 0.9478660
0.8239075 0.7622537 0.9453933
0.9926884 0.7929179 0.9425064
1.0000000 0.8686240 0.9423258
1.0000000 0.9528112 0.9538053
0.5027077 0.7628255 0.9484357
0.5026981 0.7628187 0.9484327
0.5026863 0.7628104 0.9484291
0.5026506 0.7627853 0.9484181
0.5829024 0.7612763 0.9478214
0.8237639 0.7621419 0.9453456
0.9926910 0.7928310 0.9424571
1.0000000 0.8685866 0.9422801
1.0000000 0.9528029 0.9537737
0.5021915 0.7624616 0.9482763
0.5021819 0.7624548 0.9482733
0.5021701 0.7624465 0.9482697
0.5021343 0.7624212 0.9482586
0.5808511 0.7609387 0.9476739
0.8232893 0.7617732 0.9451881
0.9926998 0.7925444 0.9422946
1.0000000 0.8684634 0.9421290
1.0000000 0.9527755 0.9536694
0.4471417 0.8470326 0.9418260
0.4471550 0.8469854 0.9418259
0.4471712 0.8469273 0.9418258
0.4472206 0.8467516 0.9418255
0.5262779 0.8441248 0.9414119
0.7873782 0.8364940 0.9396055
0.9715156 0.8433556 0.9383483
1.0000000 0.8837561 0.9406385
1.0000000 0.9526851 0.9533241
0.4066599 0.9506915 0.9326751
0.4066408 0.9506803 0.9326722
0.4066173 0.9506665 0.9326687
0.4065464 0.9506249 0.9326581
0.4621615 0.9488745 0.9324154
0.7353853 0.9382092 0.9311464
0.9311586 0.9311588 0.9311588
1.0000000 0.9395979 0.9360086
1.0000000 0.9695084 0.9517452
0.5151737 1.0000000 0.9259489
0.5151573 1.0000000 0.9259451
0.5151370 1.0000000 0.9259404
0.5150759 1.0000000 0.9259263
0.5148743 1.0000000 0.9258796
0.7198990 1.0000000 0.9251355
0.9018899 0.9953933 0.9257858
0.9989369 0.9914287 0.9318020
1.0000000 0.9986714 0.9494425
0.7427865 1.0000000 0.9255292
0.7427815 1.0000000 0.9255253
0.7427753 1.0000000 0.9255206
0.7427566 1.0000000 0.9255062
0.7426952 1.0000000 0.9254586
0.7882940 1.0000000 0.9253663
0.9120833 1.0000000 0.9265158
0.9964672 1.0000000 0.9327119
1.0000000 1.0000000 0.9505373
0.7646448 0.9181016 1.0000000
0.7646426 0.9181005 1.0000000
0.7646399 0.9180992 1.0000000
0.7646316 0.9180951 1.0000000
0.7646045 0.9180817 1.0000000
0.8167074 0.9163393 1.0000000
0.9490420 0.9162600 1.0000000
1.0000000 0.9333220 1.0000000
1.0000000 0.9714365 1.0000000
0.7646351 0.9180968 1.0000000
0.7646329 0.9180957 1.0000000
0.7646301 0.9180944 1.0000000
0.7646219 0.9180903 1.0000000
0.7645948 0.9180769 1.0000000
0.8166760 0.9163352 1.0000000
0.9490365 0.9162551 1.0000000
1.0000000 0.9333185 1.0000000
1.0000000 0.9714352 1.0000000
0.7646231 0.9180909 1.0000000
0.7646209 0.9180898 1.0000000
0.7646182 0.9180885 1.0000000
0.7646100 0.9180844 1.0000000
0.7645828 0.9180711 1.0000000
0.8166374 0.9163301 1.0000000
0.9490297 0.9162490 1.0000000
1.0000000 0.9333142 1.0000000
1.0000000 0.9714335 1.0000000
0.7645870 0.9180731 1.0000000
0.7645848 0.9180720 1.0000000
0.7645821 0.9180707 1.0000000
0.7645738 0.9180666 1.0000000
0.7645467 0.9180532 1.0000000
0.8165207 0.9163147 1.0000000
0.9490090 0.9162307 1.0000000
1.0000000 0.9333012 1.0000000
1.0000000 0.9714286 1.0000000
0.7644680 0.9180144 1.0000000
0.7644658 0.9180133 1.0000000
0.7644630 0.9180120 1.0000000
0.7644548 0.9180079 1.0000000
0.7644276 0.9179946 1.0000000
0.8161355 0.9162639 1.0000000
0.9489410 0.9161703 1.0000000
1.0000000 0.9332586 1.0000000
1.0000000 0.9714122 1.0000000
0.7640753 0.9178208 1.0000000
0.7640730 0.9178197 1.0000000
0.7640703 0.9178183 1.0000000
0.7640620 0.9178143 1.0000000
0.7640348 0.9178008 1.0000000
0.8148576 0.9160965 1.0000000
0.9487163 0.9159712 1.0000000
1.0000000 0.9331179 1.0000000
1.0000000 0.9713581 1.0000000
0.7479418 0.9616662 1.0000000
0.7479405 0.9616595 1.0000000
0.7479389 0.9616511 1.0000000
0.7479342 0.9616260 1.0000000
0.7479186 0.9615430 1.0000000
0.7939262 0.9591875 1.0000000
0.9305737 0.9535689 0.9991452
1.0000000 0.9571068 0.9983879
1.0000000 0.9780006 0.9995742
0.7549815 1.0000000 0.9963814
0.7549778 1.0000000 0.9963810
0.7549732 1.0000000 0.9963806
0.7549593 1.0000000 0.9963793
0.7549137 1.0000000 0.9963751
0.7824551 1.0000000 0.9961626
0.9104094 0.9987139 0.9952405
0.9951590 0.9951591 0.9951591
1.0000000 1.0000000 0.9977150
0.8328431 1.0000000 0.9952231
0.8328407 1.0000000 0.9952226
0.8328377 1.0000000 0.9952220
0.8328287 1.0000000 0.9952201
0.8327992 1.0000000 0.9952140
0.8327019 1.0000000 0.9951938
0.9203225 1.0000000 0.9946714
0.9948507 1.0000000 0.9949254
1.0000000 1.0000000 0.9979586
0.9245921 0.9901609 1.0000000
0.9245918 0.9901608 1.0000000
0.9245914 0.9901606 1.0000000
0.9245902 0.9901601 1.0000000
0.9245862 0.9901584 1.0000000
0.9245731 0.9901528 1.0000000
0.9479792 0.9891881 1.0000000
1.0000000 0.9890424 1.0000000
1.0000000 0.9990363 1.0000000
0.9245907 0.9901603 1.0000000
0.9245904 0.9901602 1.0000000
0.9245900 0.9901600 1.0000000
0.9245887 0.9901595 1.0000000
0.9245848 0.9901578 1.0000000
0.9245717 0.9901522 1.0000000
0.9479750 0.9891876 1.0000000
1.0000000 0.9890418 1.0000000
1.0000000 0.9990358 1.0000000
0.9245889 0.9901596 1.0000000
0.9245886 0.9901594 1.0000000
0.9245882 0.9901593 1.0000000
0.9245870 0.9901587 1.0000000
0.9245830 0.9901570 1.0000000
0.9245699 0.9901515 1.0000000
0.9479698 0.9891869 1.0000000
1.0000000 0.9890410 1.0000000
1.0000000 0.9990353 1.0000000
0.9245836 0.9901573 1.0000000
0.9245833 0.9901572 1.0000000
0.9245829 0.9901570 1.0000000
0.9245817 0.9901565 1.0000000
0.9245777 0.9901548 1.0000000
0.9245646 0.9901492 1.0000000
0.9479541 0.9891850 1.0000000
1.0000000 0.9890386 1.0000000
1.0000000 0.9990336 1.0000000
0.9245661 0.9901499 1.0000000
0.9245658 0.9901497 1.0000000
0.9245654 0.9901496 1.0000000
0.9245642 0.9901490 1.0000000
0.9245602 0.9901473 1.0000000
0.9245471 0.9901418 1.0000000
0.9479023 0.9891788 1.0000000
1.0000000 0.9890308 1.0000000
1.0000000 0.9990280 1.0000000
0.9245086 0.9901254 1.0000000
0.9245083 0.9901252 1.0000000
0.9245079 0.9901251 1.0000000
0.9245066 0.9901245 1.0000000
0.9245027 0.9901228 1.0000000
0.9244895 0.9901173 1.0000000
0.9477315 0.9891582 1.0000000
1.0000000 0.9890051 1.0000000
1.0000000 0.9990096 1.0000000
0.9243186 0.9900445 1.0000000
0.9243182 0.9900443 1.0000000
0.9243178 0.9900442 1.0000000
0.9243166 0.9900437 1.0000000
0.9243126 0.9900420 1.0000000
0.9242994 0.9900363 1.0000000
0.9471645 0.9890905 1.0000000
1.0000000 0.9889204 1.0000000
1.0000000 0.9989491 1.0000000
0.9211256 1.0000000 1.0000000
0.9211248 1.0000000 1.0000000
0.9211238 1.0000000 1.0000000
0.9211207 1.0000000 1.0000000
0.9211108 1.0000000 1.0000000
0.9210779 1.0000000 1.0000000
0.9411926 1.0000000 1.0000000
0.9989969 1.0000000 1.0000000
1.0000000 1.0000000 1.0000000
0.9381629 1.0000000 1.0000000
0.9381623 1.0000000 1.0000000
0.9381616 1.0000000 1.0000000
0.9381593 1.0000000 1.0000000
0.9381519 1.0000000 1.0000000
0.9381273 1.0000000 1.0000000
0.9495419 1.0000000 1.0000000
1.0000000 1.0000000 1.0000000
1.0000000 1.0000000 1.0000000
