luts/VLog/in-VLog.AgX_look1-BT2020.out-sRGB.cube
TITLE "in-VLog.AgX_look1-BT2020.out-sRGB"
# author = Liam Collod
# LUT resolution = 33
# LUT domain = [[ 0.  0.  0.] [ 1.  1.  1.]]
LUT_3D_SIZE 33
0.0000000 0.0000000 0.0000000
0.0000000 0.0000000 0.0000000
0.0000000 0.0000000 0.0000000
0.0000000 0.0000000 0.0000000
0.0021351 0.0000000 0.0000000
0.0375233 0.0000000 0.0000000
0.0873441 0.0000000 0.0000000
0.1390167 0.0000000 0.0000000
0.1971902 0.0000000 0.0000000
0.2609472 0.0000000 0.0000000
0.3287126 0.0000000 0.0000000
0.3986445 0.0000000 0.0000000
0.4690455 0.0000000 0.0000000
0.5386580 0.0000000 0.0000000
0.6068018 0.0000000 0.0000000
0.6733100 0.0000000 0.0026953
0.7379631 0.0718080 0.0351299
0.8001383 0.1532456 0.0822010
0.8588276 0.2237232 0.1313839
0.9127525 0.2907888 0.1838919
0.9605699 0.3561325 0.2392966
1.0000000 0.4204415 0.2965750
1.0000000 0.4841817 0.3546459
1.0000000 0.5473391 0.4127469
1.0000000 0.6093126 0.4706071
1.0000000 0.6690663 0.5282989
1.0000000 0.7253295 0.5856882
1.0000000 0.7768478 0.6422227
1.0000000 0.8226422 0.6969528
1.0000000 0.8625013 0.7487231
1.0000000 0.8967738 0.7963636
1.0000000 0.9249708 0.8387460
1.0000000 0.9478531 0.8753675
0.0000000 0.0000000 0.0000000
0.0000000 0.0000000 0.0000000
0.0000000 0.0000000 0.0000000
0.0000000 0.0000000 0.0000000
0.0019495 0.0000000 0.0000000
0.0368785 0.0000000 0.0000000
0.0867887 0.0000000 0.0000000
0.1385476 0.0000000 0.0000000
0.1968029 0.0000000 0.0000000
0.2606368 0.0000000 0.0000000
0.3284714 0.0000000 0.0000000
0.3984622 0.0000000 0.0000000
0.4689107 0.0000000 0.0000000
0.5385596 0.0000000 0.0000000
0.6067305 0.0000000 0.0000000
0.6732584 0.0000000 0.0026780
0.7379260 0.0717520 0.0351037
0.8001120 0.1532138 0.0821804
0.8588094 0.2237012 0.1313676
0.9127403 0.2907730 0.1838790
0.9605621 0.3561210 0.2392866
1.0000000 0.4204331 0.2965674
1.0000000 0.4841755 0.3546402
1.0000000 0.5473345 0.4127427
1.0000000 0.6093093 0.4706040
1.0000000 0.6690640 0.5282966
1.0000000 0.7253279 0.5856865
1.0000000 0.7768467 0.6422215
1.0000000 0.8226415 0.6969520
1.0000000 0.8625008 0.7487225
1.0000000 0.8967736 0.7963632
1.0000000 0.9249706 0.8387457
1.0000000 0.9478530 0.8753673
0.0000000 0.0000000 0.0000000
0.0000000 0.0000000 0.0000000
0.0000000 0.0000000 0.0000000
0.0000000 0.0000000 0.0000000
0.0017712 0.0000000 0.0000000
0.0362385 0.0000000 0.0000000
0.0862323 0.0000000 0.0000000
0.1380778 0.0000000 0.0000000
0.1964151 0.0000000 0.0000000
0.2603261 0.0000000 0.0000000
0.3282299 0.0000000 0.0000000
0.3982797 0.0000000 0.0000000
0.4687758 0.0000000 0.0000000
0.5384612 0.0000000 0.0000000
0.6066592 0.0000000 0.0000000
0.6732068 0.0000000 0.0026608
0.7378889 0.0716960 0.0350776
0.8000858 0.1531819 0.0821597
0.8587913 0.2236792 0.1313512
0.9127281 0.2907572 0.1838661
0.9605542 0.3561095 0.2392766
1.0000000 0.4204246 0.2965597
1.0000000 0.4841693 0.3546345
1.0000000 0.5473300 0.4127385
1.0000000 0.6093060 0.4706009
1.0000000 0.6690616 0.5282943
1.0000000 0.7253263 0.5856848
1.0000000 0.7768456 0.6422202
1.0000000 0.8226408 0.6969511
1.0000000 0.8625004 0.7487219
1.0000000 0.8967733 0.7963628
1.0000000 0.9249704 0.8387454
1.0000000 0.9478529 0.8753672
0.0000000 0.0000000 0.0000000
0.0000000 0.0000000 0.0000000
0.0000000 0.0000000 0.0000000
0.0000000 0.0000000 0.0000000
0.0016002 0.0000000 0.0000000
0.0356033 0.0000000 0.0000000
0.0856748 0.0000000 0.0000000
0.1376073 0.0000000 0.0000000
0.1960268 0.0000000 0.0000000
0.2600150 0.0000000 0.0000000
0.3279883 0.0000000 0.0000000
0.3980971 0.0000000 0.0000000
0.4686408 0.0000000 0.0000000
0.5383628 0.0000000 0.0000000
0.6065878 0.0000000 0.0000000
0.6731552 0.0000000 0.0026435
0.7378518 0.0716399 0.0350515
0.8000595 0.1531500 0.0821390
0.8587731 0.2236573 0.1313349
0.9127159 0.2907415 0.1838532
0.9605464 0.3560980 0.2392666
1.0000000 0.4204162 0.2965521
1.0000000 0.4841631 0.3546288
1.0000000 0.5473255 0.4127343
1.0000000 0.6093028 0.4705978
1.0000000 0.6690593 0.5282920
1.0000000 0.7253247 0.5856831
1.0000000 0.7768446 0.6422190
1.0000000 0.8226401 0.6969502
1.0000000 0.8624999 0.7487213
1.0000000 0.8967730 0.7963624
1.0000000 0.9249703 0.8387452
1.0000000 0.9478528 0.8753670
0.0000000 0.0035061 0.0000000
0.0000000 0.0031559 0.0000000
0.0000000 0.0028216 0.0000000
0.0000000 0.0025036 0.0000000
0.0003383 0.0024536 0.0000000
0.0339070 0.0013733 0.0000000
0.0844825 0.0000000 0.0000000
0.1366901 0.0000000 0.0000000
0.1952848 0.0000000 0.0000000
0.2594187 0.0000000 0.0000000
0.3275547 0.0000000 0.0000000
0.3978835 0.0000000 0.0000000
0.4685057 0.0000000 0.0000000
0.5382643 0.0000000 0.0000000
0.6065164 0.0000000 0.0000000
0.6731036 0.0000000 0.0026263
0.7378147 0.0715838 0.0350254
0.8000332 0.1531182 0.0821184
0.8587549 0.2236353 0.1313185
0.9127037 0.2907257 0.1838403
0.9605385 0.3560866 0.2392566
1.0000000 0.4204078 0.2965445
1.0000000 0.4841569 0.3546231
1.0000000 0.5473209 0.4127301
1.0000000 0.6092995 0.4705947
1.0000000 0.6690570 0.5282897
1.0000000 0.7253231 0.5856815
1.0000000 0.7768435 0.6422178
1.0000000 0.8226394 0.6969493
1.0000000 0.8624995 0.7487207
1.0000000 0.8967727 0.7963620
1.0000000 0.9249701 0.8387449
1.0000000 0.9478527 0.8753668
0.0000000 0.0256494 0.0000000
0.0000000 0.0248099 0.0000000
0.0000000 0.0239823 0.0000000
0.0000000 0.0231667 0.0000000
0.0000000 0.0231535 0.0000000
0.0236657 0.0240836 0.0000000
0.0782505 0.0227885 0.0000000
0.1325718 0.0190153 0.0000000
0.1922101 0.0115553 0.0000000
0.2568765 0.0000000 0.0000000
0.3252717 0.0000000 0.0000000
0.3957091 0.0000000 0.0000000
0.4665997 0.0000000 0.0000000
0.5367738 0.0000000 0.0000000
0.6056226 0.0000000 0.0000000
0.6730229 0.0000000 0.0025503
0.7377776 0.0715277 0.0349992
0.8000069 0.1530863 0.0820977
0.8587367 0.2236133 0.1313022
0.9126915 0.2907099 0.1838273
0.9605306 0.3560751 0.2392465
1.0000000 0.4203994 0.2965369
1.0000000 0.4841507 0.3546174
1.0000000 0.5473164 0.4127259
1.0000000 0.6092962 0.4705916
1.0000000 0.6690547 0.5282874
1.0000000 0.7253215 0.5856798
1.0000000 0.7768424 0.6422166
1.0000000 0.8226387 0.6969485
1.0000000 0.8624990 0.7487200
1.0000000 0.8967724 0.7963615
1.0000000 0.9249699 0.8387446
1.0000000 0.9478526 0.8753667
0.0000000 0.0602944 0.0000000
0.0000000 0.0593650 0.0000000
0.0000000 0.0584321 0.0000000
0.0000000 0.0574957 0.0000000
0.0000000 0.0574594 0.0000000
0.0053367 0.0593856 0.0000000
0.0662124 0.0595806 0.0000000
0.1252877 0.0581185 0.0000000
0.1871488 0.0541311 0.0000000
0.2530034 0.0465120 0.0000000
0.3220663 0.0342542 0.0000000
0.3928874 0.0195338 0.0000000
0.4640051 0.0063907 0.0000000
0.5343255 0.0007404 0.0000000
0.6032903 0.0107963 0.0000000
0.6708115 0.0465501 0.0000000
0.7366913 0.0960872 0.0328183
0.7999805 0.1530542 0.0820769
0.8587184 0.2235912 0.1312857
0.9126792 0.2906941 0.1838143
0.9605227 0.3560636 0.2392364
1.0000000 0.4203909 0.2965293
1.0000000 0.4841445 0.3546117
1.0000000 0.5473118 0.4127216
1.0000000 0.6092929 0.4705885
1.0000000 0.6690523 0.5282851
1.0000000 0.7253199 0.5856781
1.0000000 0.7768413 0.6422153
1.0000000 0.8226380 0.6969476
1.0000000 0.8624986 0.7487194
1.0000000 0.8967722 0.7963611
1.0000000 0.9249698 0.8387444
1.0000000 0.9478525 0.8753665
0.0000000 0.0988204 0.0000000
0.0000000 0.0980189 0.0000000
0.0000000 0.0972150 0.0000000
0.0000000 0.0964085 0.0000000
0.0000000 0.0963299 0.0000000
0.0000000 0.0983394 0.0000000
0.0409347 0.0991885 0.0000000
0.1121782 0.0990974 0.0000000
0.1785835 0.0976958 0.0000000
0.2467495 0.0945890 0.0000000
0.3171228 0.0897407 0.0000000
0.3887324 0.0838713 0.0000000
0.4603503 0.0789893 0.0000000
0.5310130 0.0787644 0.0000000
0.6002420 0.0876155 0.0000000
0.6680008 0.1080368 0.0000000
0.7341221 0.1394304 0.0276252
0.7979573 0.1796524 0.0796811
0.8584144 0.2265109 0.1310655
0.9126641 0.2906745 0.1837983
0.9605130 0.3560493 0.2392240
1.0000000 0.4203805 0.2965198
1.0000000 0.4841368 0.3546047
1.0000000 0.5473062 0.4127164
1.0000000 0.6092888 0.4705846
1.0000000 0.6690494 0.5282823
1.0000000 0.7253179 0.5856760
1.0000000 0.7768400 0.6422138
1.0000000 0.8226372 0.6969465
1.0000000 0.8624980 0.7487187
1.0000000 0.8967718 0.7963606
1.0000000 0.9249696 0.8387440
1.0000000 0.9478523 0.8753663
0.0000000 0.1431602 0.0000000
0.0000000 0.1424829 0.0000000
0.0000000 0.1418038 0.0000000
0.0000000 0.1411229 0.0000000
0.0000000 0.1409922 0.0000000
0.0000000 0.1428459 0.0000000
0.0000000 0.1438853 0.0000000
0.0863755 0.1443570 0.0000000
0.1634360 0.1440845 0.0000000
0.2362426 0.1428636 0.0000000
0.3091368 0.1407683 0.0000000
0.3822591 0.1383686 0.0000000
0.4548516 0.1369169 0.0000000
0.5261896 0.1383919 0.0000000
0.5959313 0.1451939 0.0000000
0.6641229 0.1594127 0.0000000
0.7306444 0.1821891 0.0206801
0.7948717 0.2135049 0.0759804
0.8557188 0.2524363 0.1291673
0.9117987 0.2976269 0.1834112
0.9604999 0.3560302 0.2392073
1.0000000 0.4203664 0.2965071
1.0000000 0.4841264 0.3545952
1.0000000 0.5472986 0.4127094
1.0000000 0.6092833 0.4705794
1.0000000 0.6690456 0.5282784
1.0000000 0.7253152 0.5856731
1.0000000 0.7768382 0.6422117
1.0000000 0.8226360 0.6969450
1.0000000 0.8624972 0.7487177
1.0000000 0.8967713 0.7963600
1.0000000 0.9249693 0.8387436
1.0000000 0.9478522 0.8753660
0.0000000 0.1929576 0.0000000
0.0000000 0.1924009 0.0000000
0.0000000 0.1918429 0.0000000
0.0000000 0.1912836 0.0000000
0.0000000 0.1911007 0.0000000
0.0000000 0.1926728 0.0000000
0.0000000 0.1936552 0.0000000
0.0237103 0.1942716 0.0000000
0.1366182 0.1944298 0.0000000
0.2190971 0.1940013 0.0000000
0.2966621 0.1930586 0.0000000
0.3724773 0.1920118 0.0000000
0.4467829 0.1917044 0.0000000
0.5193015 0.1934178 0.0000000
0.5899254 0.1987324 0.0000000
0.6588338 0.2092350 0.0000000
0.7259812 0.2262560 0.0115873
0.7907833 0.2506015 0.0710133
0.8521717 0.2823634 0.1267410
0.9087599 0.3209736 0.1821295
0.9591075 0.3654446 0.2388280
1.0000000 0.4203475 0.2964900
1.0000000 0.4841125 0.3545824
1.0000000 0.5472883 0.4127000
1.0000000 0.6092759 0.4705724
1.0000000 0.6690403 0.5282732
1.0000000 0.7253116 0.5856693
1.0000000 0.7768358 0.6422090
1.0000000 0.8226344 0.6969431
1.0000000 0.8624962 0.7487163
1.0000000 0.8967707 0.7963590
1.0000000 0.9249689 0.8387430
1.0000000 0.9478519 0.8753656
0.0000000 0.2472652 0.0000000
0.0000000 0.2468213 0.0000000
0.0000000 0.2463765 0.0000000
0.0000000 0.2459309 0.0000000
0.0000000 0.2457039 0.0000000
0.0000000 0.2469424 0.0000000
0.0000000 0.2477428 0.0000000
0.0000000 0.2482839 0.0000000
0.0842594 0.2485057 0.0000000
0.1914306 0.2483141 0.0000000
0.2777609 0.2477605 0.0000000
0.3581780 0.2471379 0.0000000
0.4352984 0.2470401 0.0000000
0.5097164 0.2483616 0.0000000
0.5817328 0.2522236 0.0000000
0.6517419 0.2598371 0.0000000
0.7198139 0.2724160 0.0000538
0.7854284 0.2910244 0.0644349
0.8475500 0.3163415 0.1237260
0.9048049 0.3484982 0.1805851
0.9557528 0.3870817 0.2380014
0.9991857 0.4313112 0.2961805
1.0000000 0.4840937 0.3545652
1.0000000 0.5472746 0.4126872
1.0000000 0.6092660 0.4705630
1.0000000 0.6690333 0.5282663
1.0000000 0.7253067 0.5856642
1.0000000 0.7768325 0.6422053
1.0000000 0.8226323 0.6969404
1.0000000 0.8624948 0.7487145
1.0000000 0.8967699 0.7963578
1.0000000 0.9249684 0.8387422
1.0000000 0.9478516 0.8753651
0.0000000 0.3047438 0.0000000
0.0000000 0.3044000 0.0000000
0.0000000 0.3040556 0.0000000
0.0000000 0.3037106 0.0000000
0.0000000 0.3034539 0.0000000
0.0000000 0.3043589 0.0000000
0.0000000 0.3049315 0.0000000
0.0000000 0.3052984 0.0000000
0.0000000 0.3054061 0.0000000
0.1450310 0.3051755 0.0000000
0.2496575 0.3046351 0.0000000
0.3379108 0.3039909 0.0000000
0.4194686 0.3036696 0.0000000
0.4967666 0.3043188 0.0000000
0.5708396 0.3067637 0.0000000
0.6424346 0.3119382 0.0000000
0.7118013 0.3208792 0.0000000
0.7785178 0.3346700 0.0558981
0.8416033 0.3542689 0.1201376
0.8997126 0.3802994 0.1788184
0.9514170 0.4129036 0.2370791
0.9955127 0.4517403 0.2956683
1.0000000 0.4960361 0.3543333
1.0000000 0.5472560 0.4126701
1.0000000 0.6092526 0.4705503
1.0000000 0.6690238 0.5282569
1.0000000 0.7253002 0.5856573
1.0000000 0.7768282 0.6422002
1.0000000 0.8226295 0.6969369
1.0000000 0.8624930 0.7487120
1.0000000 0.8967687 0.7963562
1.0000000 0.9249677 0.8387411
1.0000000 0.9478512 0.8753644
0.0000000 0.3639749 0.0000000
0.0000000 0.3637149 0.0000000
0.0000000 0.3634546 0.0000000
0.0000000 0.3631939 0.0000000
0.0000000 0.3629329 0.0000000
0.0000000 0.3635307 0.0000000
0.0000000 0.3638787 0.0000000
0.0000000 0.3640473 0.0000000
0.0000000 0.3639780 0.0000000
0.0403142 0.3635981 0.0000000
0.2074418 0.3629144 0.0000000
0.3098008 0.3620676 0.0000000
0.3982732 0.3613652 0.0000000
0.4797769 0.3612829 0.0000000
0.5567425 0.3624382 0.0000000
0.6305069 0.3655548 0.0000000
0.7016011 0.3714940 0.0000000
0.7697519 0.3812578 0.0451631
0.8340628 0.3958915 0.1161481
0.8932373 0.4163081 0.1769598
0.9458730 0.4430884 0.2361468
0.9907856 0.4763222 0.2951631
1.0000000 0.5155324 0.3540336
1.0000000 0.5597273 0.4125166
1.0000000 0.6092345 0.4705332
1.0000000 0.6690110 0.5282442
1.0000000 0.7252914 0.5856480
1.0000000 0.7768222 0.6421935
1.0000000 0.8226256 0.6969321
1.0000000 0.8624905 0.7487087
1.0000000 0.8967672 0.7963539
1.0000000 0.9249668 0.8387397
1.0000000 0.9478507 0.8753635
0.0000000 0.4237650 0.0000000
0.0000000 0.4235717 0.0000000
0.0000000 0.4233783 0.0000000
0.0000000 0.4231846 0.0000000
0.0000000 0.4229907 0.0000000
0.0000000 0.4232793 0.0000000
0.0000000 0.4234317 0.0000000
0.0000000 0.4234186 0.0000000
0.0000000 0.4231738 0.0000000
0.0000000 0.4226272 0.0000000
0.1377005 0.4217683 0.0000000
0.2708937 0.4206879 0.0000000
0.3704654 0.4196051 0.0000000
0.4580345 0.4188701 0.0000000
0.5389474 0.4189463 0.0000000
0.6155702 0.4203934 0.0000000
0.6888808 0.4239141 0.0000000
0.7588308 0.4303894 0.0327298
0.8246493 0.4408400 0.1122039
0.8851139 0.4563045 0.1752840
0.9388710 0.4776355 0.2353786
0.9847732 0.5052712 0.2947778
1.0000000 0.5390802 0.3538132
1.0000000 0.5783387 0.4123813
1.0000000 0.6218175 0.4704731
1.0000000 0.6689938 0.5282272
1.0000000 0.7252795 0.5856354
1.0000000 0.7768143 0.6421844
1.0000000 0.8226205 0.6969256
1.0000000 0.8624871 0.7487042
1.0000000 0.8967651 0.7963509
1.0000000 0.9249655 0.8387377
1.0000000 0.9478499 0.8753623
0.0000000 0.4833424 0.0000000
0.0000000 0.4831999 0.0000000
0.0000000 0.4830574 0.0000000
0.0000000 0.4829148 0.0000000
0.0000000 0.4827720 0.0000000
0.0000000 0.4828420 0.0000000
0.0000000 0.4828362 0.0000000
0.0000000 0.4826751 0.0000000
0.0000000 0.4822856 0.0000000
0.0000000 0.4816002 0.0000000
0.0000000 0.4805954 0.0000000
0.2148660 0.4793247 0.0000000
0.3341643 0.4779413 0.0000000
0.4306500 0.4767007 0.0000000
0.5169063 0.4759497 0.0000000
0.5972192 0.4761177 0.0000000
0.6733009 0.4777693 0.0000000
0.7454467 0.4816531 0.0219712
0.8130719 0.4886977 0.1091701
0.8750667 0.4999355 0.1742812
0.9301518 0.5163374 0.2350850
0.9772320 0.5385880 0.2947165
1.0000000 0.5668814 0.3538071
1.0000000 0.6008180 0.4123868
1.0000000 0.6394263 0.4705004
1.0000000 0.6812768 0.5282848
1.0000000 0.7252635 0.5856185
1.0000000 0.7768036 0.6421721
1.0000000 0.8226135 0.6969169
1.0000000 0.8624826 0.7486981
1.0000000 0.8967623 0.7963469
1.0000000 0.9249638 0.8387351
1.0000000 0.9478489 0.8753606
0.0000000 0.5424215 0.0000000
0.0000000 0.5423167 0.0000000
0.0000000 0.5422119 0.0000000
0.0000000 0.5421069 0.0000000
0.0000000 0.5420019 0.0000000
0.0000000 0.5419401 0.0000000
0.0000000 0.5418125 0.0000000
0.0000000 0.5415395 0.0000000
0.0000000 0.5410441 0.0000000
0.0000000 0.5402623 0.0000000
0.0000000 0.5391620 0.0000000
0.1187832 0.5377696 0.0000000
0.2857720 0.5361882 0.0000000
0.3962553 0.5346019 0.0000000
0.4898807 0.5332662 0.0000000
0.5749607 0.5325056 0.0000000
0.6544808 0.5327636 0.0000000
0.7292786 0.5346546 0.0163275
0.7990461 0.5389799 0.1085010
0.8628351 0.5466891 0.1747480
0.9194707 0.5587612 0.2357733
0.9679291 0.5760139 0.2953186
1.0000000 0.5988924 0.3542461
1.0000000 0.6273160 0.4126905
1.0000000 0.6606291 0.4707327
1.0000000 0.6976596 0.5284929
1.0000000 0.7368558 0.5858114
1.0000000 0.7767891 0.6421556
1.0000000 0.8226041 0.6969052
1.0000000 0.8624764 0.7486900
1.0000000 0.8967585 0.7963414
1.0000000 0.9249615 0.8387315
1.0000000 0.9478475 0.8753584
0.0000000 0.6009560 0.0000000
0.0000000 0.6008791 0.0000000
0.0000000 0.6008021 0.0000000
0.0000000 0.6007251 0.0000000
0.0000000 0.6006480 0.0000000
0.0000000 0.6005370 0.0000000
0.0000000 0.6003161 0.0000000
0.0000000 0.5999603 0.0000000
0.0000000 0.5993912 0.0000000
0.0000000 0.5985489 0.0000000
0.0000000 0.5973960 0.0000000
0.0000000 0.5959388 0.0000000
0.2166513 0.5942426 0.0000000
0.3526016 0.5924349 0.0000000
0.4568846 0.5906994 0.0000000
0.5482383 0.5892752 0.0000000
0.6320509 0.5885026 0.0000000
0.7100487 0.5888721 0.0206849
0.7823422 0.5910502 0.1122925
0.8482145 0.5958657 0.1778548
0.9066348 0.6042315 0.2382073
0.9566766 0.6169972 0.2971095
0.9978130 0.6347620 0.3554975
1.0000000 0.6577073 0.4135503
1.0000000 0.6854980 0.4713507
1.0000000 0.7172777 0.5289739
1.0000000 0.7517547 0.5862099
1.0000000 0.7873625 0.6424845
1.0000000 0.8225915 0.6968893
1.0000000 0.8624682 0.7486790
1.0000000 0.8967535 0.7963340
1.0000000 0.9249584 0.8387267
1.0000000 0.9478457 0.8753553
0.0000000 0.6586249 0.0000000
0.0000000 0.6585689 0.0000000
0.0000000 0.6585129 0.0000000
0.0000000 0.6584569 0.0000000
0.0000000 0.6584009 0.0000000
0.0000000 0.6583247 0.0000000
0.0000000 0.6580324 0.0000000
0.0000000 0.6576161 0.0000000
0.0000000 0.6569972 0.0000000
0.0000000 0.6561206 0.0000000
0.0000000 0.6549459 0.0000000
0.0000000 0.6534646 0.0000000
0.0878132 0.6517121 0.0000000
0.2957711 0.6497718 0.0000000
0.4167286 0.6477700 0.0000000
0.5165561 0.6458770 0.0000000
0.6057636 0.6443475 0.0000000
0.6876124 0.6435638 0.0421478
0.7628589 0.6440647 0.1229046
0.8311190 0.6465467 0.1851168
0.8915593 0.6518153 0.2434394
0.9433823 0.6606778 0.3008445
0.9861492 0.6737944 0.3581093
1.0000000 0.6915241 0.4153628
1.0000000 0.7138075 0.4726394
1.0000000 0.7401144 0.5299295
1.0000000 0.7694696 0.5869454
1.0000000 0.8005621 0.6430611
1.0000000 0.8319247 0.6973337
1.0000000 0.8624584 0.7486643
1.0000000 0.8967466 0.7963241
1.0000000 0.9249543 0.8387203
1.0000000 0.9478432 0.8753513
0.0000000 0.7147107 0.0000000
0.0000000 0.7146706 0.0000000
0.0000000 0.7146305 0.0000000
0.0000000 0.7145905 0.0000000
0.0000000 0.7145504 0.0000000
0.0000000 0.7145103 0.0000000
0.0000000 0.7142539 0.0000000
0.0000000 0.7137958 0.0000000
0.0000000 0.7131470 0.0000000
0.0000000 0.7122569 0.0000000
0.0000000 0.7110839 0.0000000
0.0000000 0.7096084 0.0000000
0.0000000 0.7078426 0.0000000
0.2167991 0.7058350 0.0000000
0.3679895 0.7036657 0.0000000
0.4796416 0.7014506 0.0000000
0.5756467 0.6993749 0.0000000
0.6620836 0.6977300 0.0786493
0.7407257 0.6969418 0.1421199
0.8116665 0.6975790 0.1981723
0.8743390 0.7003244 0.2527596
0.9281126 0.7058992 0.3075167
0.9726596 0.7149513 0.3628381
1.0000000 0.7279303 0.4186983
1.0000000 0.7449775 0.4750213
1.0000000 0.7658509 0.5316651
1.0000000 0.7899045 0.5882331
1.0000000 0.8161361 0.6440246
1.0000000 0.8433125 0.6980498
1.0000000 0.8704550 0.7491852
1.0000000 0.8967993 0.7963155
1.0000000 0.9249487 0.8387116
1.0000000 0.9478399 0.8753458
0.0000000 0.7681651 0.0000000
0.0000000 0.7681371 0.0000000
0.0000000 0.7681092 0.0000000
0.0000000 0.7680812 0.0000000
0.0000000 0.7680531 0.0000000
0.0000000 0.7680251 0.0000000
0.0000000 0.7679392 0.0000000
0.0000000 0.7674574 0.0000000
0.0000000 0.7667970 0.0000000
0.0000000 0.7659121 0.0000000
0.0000000 0.7647608 0.0000000
0.0000000 0.7633154 0.0000000
0.0000000 0.7615704 0.0000000
0.0689351 0.7595463 0.0000000
0.3088013 0.7572872 0.0000000
0.4376931 0.7548658 0.0030995
0.5422105 0.7524125 0.0697326
0.6339894 0.7501446 0.1223474
0.7164193 0.7483929 0.1704507
0.7902694 0.7476125 0.2183670
0.8553217 0.7483656 0.2675098
0.9111532 0.7512685 0.3182872
0.9575700 0.7569103 0.3706365
0.9947856 0.7657591 0.4243137
1.0000000 0.7780737 0.4790793
1.0000000 0.7938304 0.5346156
1.0000000 0.8126773 0.5903870
1.0000000 0.8339332 0.6455939
1.0000000 0.8566502 0.6991803
1.0000000 0.8800422 0.7499826
1.0000000 0.9034197 0.7968611
1.0000000 0.9250286 0.8387079
1.0000000 0.9478353 0.8753384
0.0000000 0.8177798 0.0000000
0.0000000 0.8177608 0.0000000
0.0000000 0.8177418 0.0000000
0.0000000 0.8177228 0.0000000
0.0000000 0.8177038 0.0000000
0.0000000 0.8176848 0.0000000
0.0000000 0.8176657 0.0000000
0.0000000 0.8173896 0.0000000
0.0000000 0.8167362 0.0000000
0.0000000 0.8158747 0.0000000
0.0000000 0.8147638 0.0000000
0.0000000 0.8133703 0.0084632
0.0000000 0.8116753 0.0282799
0.0000000 0.8096775 0.0542088
0.2359301 0.8073928 0.0808104
0.3917445 0.8048612 0.1086659
0.5066860 0.8021702 0.1386587
0.6044152 0.7994792 0.1713731
0.6908559 0.7970419 0.2071977
0.7676959 0.7952180 0.2463330
0.8351520 0.7944618 0.2887730
0.8930436 0.7952844 0.3343068
0.9413267 0.7981933 0.3825649
0.9803116 0.8036262 0.4331194
1.0000000 0.8118873 0.4855529
1.0000000 0.8230899 0.5393554
1.0000000 0.8371084 0.5938359
1.0000000 0.8535488 0.6480766
1.0000000 0.8717604 0.7009371
1.0000000 0.8912007 0.7511963
1.0000000 0.9113235 0.7976748
1.0000000 0.9304251 0.8392362
1.0000000 0.9479219 0.8753379
0.0000000 0.8624316 0.1292786
0.0000000 0.8624191 0.1292466
0.0000000 0.8624066 0.1292146
0.0000000 0.8623941 0.1291825
0.0000000 0.8623816 0.1291505
0.0000000 0.8623691 0.1291185
0.0000000 0.8623566 0.1290862
0.0000000 0.8623411 0.1290465
0.0000000 0.8618253 0.1307886
0.0000000 0.8610051 0.1336579
0.0000000 0.8599528 0.1374902
0.0000000 0.8586316 0.1425964
0.0000000 0.8570126 0.1493622
0.0000000 0.8550783 0.1582384
0.1396502 0.8528230 0.1697149
0.3442225 0.8502626 0.1842909
0.4712466 0.8474526 0.2024409
0.5750826 0.8445078 0.2245736
0.6654088 0.8416219 0.2509881
0.7450617 0.8390780 0.2818312
0.8147512 0.8372407 0.3170650
0.8745541 0.8365259 0.3564586
0.9245765 0.8373561 0.3996216
0.9652226 0.8401125 0.4460788
0.9972183 0.8450931 0.4952871
1.0000000 0.8524757 0.5465800
1.0000000 0.8622805 0.5991229
1.0000000 0.8743346 0.6518772
1.0000000 0.8882536 0.7036077
1.0000000 0.9037525 0.7530217
1.0000000 0.9204783 0.7988833
1.0000000 0.9368486 0.8400107
1.0000000 0.9522749 0.8758193
0.0000000 0.9013221 0.2217576
0.0000000 0.9013142 0.2217392
0.0000000 0.9013063 0.2217208
0.0000000 0.9012983 0.2217024
0.0000000 0.9012904 0.2216839
0.0000000 0.9012825 0.2216655
0.0000000 0.9012745 0.2216470
0.0000000 0.9012646 0.2216241
0.0000000 0.9012370 0.2216232
0.0000000 0.9004744 0.2231713
0.0000000 0.8994972 0.2252724
0.0000000 0.8982663 0.2281258
0.0000000 0.8967462 0.2319949
0.0000000 0.8949069 0.2372169
0.0000000 0.8927280 0.2442058
0.2998376 0.8902078 0.2534508
0.4391356 0.8873780 0.2654994
0.5483031 0.8843205 0.2809215
0.6418179 0.8811834 0.3002536
0.7237295 0.8781910 0.3239291
0.7952204 0.8756362 0.3522081
0.8565958 0.8738563 0.3851341
0.9080863 0.8731964 0.4225345
0.9501695 0.8739739 0.4640475
0.9836171 0.8764518 0.5091273
1.0000000 0.8808192 0.5570453
1.0000000 0.8871695 0.6068772
1.0000000 0.8954735 0.6574893
1.0000000 0.9055510 0.7075587
1.0000000 0.9173487 0.7557172
1.0000000 0.9307220 0.8006594
1.0000000 0.9442641 0.8411414
1.0000000 0.9574469 0.8765166
0.0000000 0.9341171 0.3003947
0.0000000 0.9341122 0.3003824
0.0000000 0.9341073 0.3003701
0.0000000 0.9341024 0.3003577
0.0000000 0.9340976 0.3003454
0.0000000 0.9340927 0.3003330
0.0000000 0.9340877 0.3003206
0.0000000 0.9340817 0.3003053
0.0000000 0.9340735 0.3002847
0.0000000 0.9339099 0.3004868
0.0000000 0.9330206 0.3018204
0.0000000 0.9318945 0.3036419
0.0000000 0.9304912 0.3061297
0.0000000 0.9287728 0.3095203
0.0000000 0.9267087 0.3141203
0.2666437 0.9242853 0.3203163
0.4145487 0.9215166 0.3285784
0.5267779 0.9184602 0.3394497
0.6220017 0.9152305 0.3535169
0.7051435 0.9120071 0.3713565
0.7776931 0.9090284 0.3934619
0.8400899 0.9065697 0.4201688
0.8926273 0.9049123 0.4515932
0.9358125 0.9043147 0.4875963
0.9704322 0.9049949 0.5277753
0.9974674 0.9071226 0.5714672
1.0000000 0.9108121 0.6177521
1.0000000 0.9161080 0.6654626
1.0000000 0.9229618 0.7132228
1.0000000 0.9314984 0.7596030
1.0000000 0.9417583 0.8032270
1.0000000 0.9525332 0.8427765
1.0000000 0.9634063 0.8775228
0.0000000 0.9609403 0.3731323
0.0000000 0.9609373 0.3731237
0.0000000 0.9609344 0.3731150
