luts/VLog/in-VLog.AgX_look2-BT2020.out-sRGB.cube
TITLE "in-VLog.AgX_look2-BT2020.out-sRGB"
# author = Liam Collod
# LUT resolution = 33
# LUT domain = [[ 0.  0.  0.] [ 1.  1.  1.]]
LUT_3D_SIZE 33
0.0000000 0.0000000 0.0000000
0.0000000 0.0000000 0.0000000
0.0000000 0.0000000 0.0000000
0.0000000 0.0000000 0.0000000
0.0003814 0.0000000 0.0000000
0.0104098 0.0000000 0.0000000
0.0364723 0.0000000 0.0000000
0.0810777 0.0000000 0.0000000
0.1390309 0.0000000 0.0000000
0.2114270 0.0000000 0.0000000
0.2969323 0.0000000 0.0000000
0.3917026 0.0000000 0.0000000
0.4895810 0.0000000 0.0000000
0.5837160 0.0000000 0.0000000
0.6726078 0.0000000 0.0024615
0.7557830 0.0971400 0.0483507
0.8320043 0.1915213 0.1080804
0.8994923 0.2738407 0.1701567
0.9565601 0.3503182 0.2342305
1.0000000 0.4223653 0.2983148
1.0000000 0.4906125 0.3605393
1.0000000 0.5549121 0.4197552
1.0000000 0.6144977 0.4755193
1.0000000 0.6684158 0.5276557
1.0000000 0.7158371 0.5757319
1.0000000 0.7562199 0.6190330
1.0000000 0.7892989 0.6566298
1.0000000 0.8148378 0.6872698
1.0000000 0.8316517 0.7083328
1.0000000 0.8336935 0.7109429
1.0000000 0.8336935 0.7109429
1.0000000 0.8336935 0.7109429
1.0000000 0.8336935 0.7109429
0.0000000 0.0000000 0.0000000
0.0000000 0.0000000 0.0000000
0.0000000 0.0000000 0.0000000
0.0000000 0.0000000 0.0000000
0.0003431 0.0000000 0.0000000
0.0101990 0.0000000 0.0000000
0.0360472 0.0000000 0.0000000
0.0806435 0.0000000 0.0000000
0.1386185 0.0000000 0.0000000
0.2110540 0.0000000 0.0000000
0.2966152 0.0000000 0.0000000
0.3914495 0.0000000 0.0000000
0.4893956 0.0000000 0.0000000
0.5835854 0.0000000 0.0000000
0.6725165 0.0000000 0.0024313
0.7557201 0.0970551 0.0483036
0.8319621 0.1914710 0.1080450
0.8994652 0.2738065 0.1701293
0.9565435 0.3502944 0.2342098
1.0000000 0.4223485 0.2982997
1.0000000 0.4906008 0.3605285
1.0000000 0.5549040 0.4197477
1.0000000 0.6144921 0.4755141
1.0000000 0.6684121 0.5276520
1.0000000 0.7158347 0.5757294
1.0000000 0.7562185 0.6190314
1.0000000 0.7892980 0.6566288
1.0000000 0.8148373 0.6872692
1.0000000 0.8316515 0.7083325
1.0000000 0.8336935 0.7109429
1.0000000 0.8336935 0.7109429
1.0000000 0.8336935 0.7109429
1.0000000 0.8336935 0.7109429
0.0000000 0.0000000 0.0000000
0.0000000 0.0000000 0.0000000
0.0000000 0.0000000 0.0000000
0.0000000 0.0000000 0.0000000
0.0003068 0.0000000 0.0000000
0.0099906 0.0000000 0.0000000
0.0356248 0.0000000 0.0000000
0.0802091 0.0000000 0.0000000
0.1382060 0.0000000 0.0000000
0.2106807 0.0000000 0.0000000
0.2962978 0.0000000 0.0000000
0.3911963 0.0000000 0.0000000
0.4892100 0.0000000 0.0000000
0.5834547 0.0000000 0.0000000
0.6724252 0.0000000 0.0024011
0.7556572 0.0969701 0.0482566
0.8319200 0.1914206 0.1080096
0.8994381 0.2737723 0.1701018
0.9565270 0.3502705 0.2341891
1.0000000 0.4223318 0.2982846
1.0000000 0.4905890 0.3605177
1.0000000 0.5548958 0.4197401
1.0000000 0.6144865 0.4755088
1.0000000 0.6684084 0.5276484
1.0000000 0.7158323 0.5757270
1.0000000 0.7562170 0.6190298
1.0000000 0.7892971 0.6566278
1.0000000 0.8148369 0.6872686
1.0000000 0.8316513 0.7083323
1.0000000 0.8336935 0.7109429
1.0000000 0.8336935 0.7109429
1.0000000 0.8336935 0.7109429
1.0000000 0.8336935 0.7109429
0.0000000 0.0000000 0.0000000
0.0000000 0.0000000 0.0000000
0.0000000 0.0000000 0.0000000
0.0000000 0.0000000 0.0000000
0.0002724 0.0000000 0.0000000
0.0097845 0.0000000 0.0000000
0.0352053 0.0000000 0.0000000
0.0797745 0.0000000 0.0000000
0.1377933 0.0000000 0.0000000
0.2103073 0.0000000 0.0000000
0.2959803 0.0000000 0.0000000
0.3909429 0.0000000 0.0000000
0.4890243 0.0000000 0.0000000
0.5833240 0.0000000 0.0000000
0.6723339 0.0000000 0.0023709
0.7555943 0.0968850 0.0482095
0.8318779 0.1913702 0.1079742
0.8994110 0.2737380 0.1700744
0.9565104 0.3502467 0.2341683
1.0000000 0.4223151 0.2982694
1.0000000 0.4905772 0.3605070
1.0000000 0.5548876 0.4197325
1.0000000 0.6144810 0.4755035
1.0000000 0.6684047 0.5276448
1.0000000 0.7158300 0.5757245
1.0000000 0.7562155 0.6190282
1.0000000 0.7892962 0.6566268
1.0000000 0.8148364 0.6872681
1.0000000 0.8316512 0.7083321
1.0000000 0.8336935 0.7109429
1.0000000 0.8336935 0.7109429
1.0000000 0.8336935 0.7109429
1.0000000 0.8336935 0.7109429
0.0000000 0.0014689 0.0000000
0.0000000 0.0013040 0.0000000
0.0000000 0.0011489 0.0000000
0.0000000 0.0010034 0.0000000
0.0000000 0.0009637 0.0000000
0.0091725 0.0006933 0.0000000
0.0343718 0.0000000 0.0000000
0.0790680 0.0000000 0.0000000
0.1371874 0.0000000 0.0000000
0.2097789 0.0000000 0.0000000
0.2955485 0.0000000 0.0000000
0.3906893 0.0000000 0.0000000
0.4888385 0.0000000 0.0000000
0.5831931 0.0000000 0.0000000
0.6722426 0.0000000 0.0023408
0.7555314 0.0967999 0.0481624
0.8318358 0.1913198 0.1079388
0.8993839 0.2737038 0.1700469
0.9564939 0.3502228 0.2341476
1.0000000 0.4222983 0.2982543
1.0000000 0.4905655 0.3604962
1.0000000 0.5548795 0.4197250
1.0000000 0.6144754 0.4754982
1.0000000 0.6684011 0.5276411
1.0000000 0.7158276 0.5757221
1.0000000 0.7562141 0.6190265
1.0000000 0.7892954 0.6566257
1.0000000 0.8148359 0.6872675
1.0000000 0.8316510 0.7083318
1.0000000 0.8336935 0.7109429
1.0000000 0.8336935 0.7109429
1.0000000 0.8336935 0.7109429
1.0000000 0.8336935 0.7109429
0.0000000 0.0142787 0.0000000
0.0000000 0.0137353 0.0000000
0.0000000 0.0132031 0.0000000
0.0000000 0.0126820 0.0000000
0.0000000 0.0124810 0.0000000
0.0035864 0.0128701 0.0000000
0.0287799 0.0125363 0.0000000
0.0754575 0.0107454 0.0000000
0.1348035 0.0056887 0.0000000
0.2079521 0.0000000 0.0000000
0.2939486 0.0000000 0.0000000
0.3891321 0.0000000 0.0000000
0.4874747 0.0000000 0.0000000
0.5821393 0.0000000 0.0000000
0.6716324 0.0000000 0.0012583
0.7554685 0.0967147 0.0481154
0.8317936 0.1912694 0.1079034
0.8993568 0.2736695 0.1700195
0.9564773 0.3501990 0.2341269
1.0000000 0.4222816 0.2982391
1.0000000 0.4905537 0.3604854
1.0000000 0.5548713 0.4197174
1.0000000 0.6144699 0.4754930
1.0000000 0.6683974 0.5276375
1.0000000 0.7158252 0.5757196
1.0000000 0.7562126 0.6190249
1.0000000 0.7892945 0.6566247
1.0000000 0.8148354 0.6872669
1.0000000 0.8316508 0.7083316
1.0000000 0.8336935 0.7109429
1.0000000 0.8336935 0.7109429
1.0000000 0.8336935 0.7109429
1.0000000 0.8336935 0.7109429
0.0000000 0.0418417 0.0000000
0.0000000 0.0409039 0.0000000
0.0000000 0.0399584 0.0000000
0.0000000 0.0390154 0.0000000
0.0000000 0.0385652 0.0000000
0.0000000 0.0394799 0.0000000
0.0160760 0.0398988 0.0000000
0.0670172 0.0392514 0.0000000
0.1298056 0.0360157 0.0000000
0.2045537 0.0278118 0.0000000
0.2913194 0.0126864 0.0000000
0.3868689 0.0000000 0.0000000
0.4854067 0.0000000 0.0000000
0.5802258 0.0000000 0.0000000
0.6699200 0.0437274 0.0000000
0.7540184 0.1229058 0.0455198
0.8311738 0.1980586 0.1073498
0.8993296 0.2736350 0.1699918
0.9564606 0.3501750 0.2341060
1.0000000 0.4222648 0.2982239
1.0000000 0.4905419 0.3604745
1.0000000 0.5548631 0.4197098
1.0000000 0.6144643 0.4754877
1.0000000 0.6683937 0.5276338
1.0000000 0.7158229 0.5757171
1.0000000 0.7562111 0.6190233
1.0000000 0.7892936 0.6566237
1.0000000 0.8148350 0.6872663
1.0000000 0.8316506 0.7083314
1.0000000 0.8336935 0.7109429
1.0000000 0.8336935 0.7109429
1.0000000 0.8336935 0.7109429
1.0000000 0.8336935 0.7109429
0.0000000 0.0825497 0.0000000
0.0000000 0.0816679 0.0000000
0.0000000 0.0807849 0.0000000
0.0000000 0.0799007 0.0000000
0.0000000 0.0794035 0.0000000
0.0000000 0.0802423 0.0000000
0.0000000 0.0809254 0.0000000
0.0466434 0.0812100 0.0000000
0.1192587 0.0803650 0.0000000
0.1979200 0.0770903 0.0000000
0.2865684 0.0700536 0.0000000
0.3830805 0.0597050 0.0000000
0.4821572 0.0528898 0.0000000
0.5773414 0.0645792 0.0000000
0.6673758 0.1010162 0.0000000
0.7518603 0.1541882 0.0414813
0.8294601 0.2163445 0.1058191
0.8982257 0.2828643 0.1694330
0.9563112 0.3510578 0.2340446
1.0000000 0.4222440 0.2982051
1.0000000 0.4905273 0.3604612
1.0000000 0.5548530 0.4197004
1.0000000 0.6144574 0.4754811
1.0000000 0.6683891 0.5276293
1.0000000 0.7158199 0.5757140
1.0000000 0.7562093 0.6190213
1.0000000 0.7892925 0.6566224
1.0000000 0.8148344 0.6872656
1.0000000 0.8316504 0.7083311
1.0000000 0.8336935 0.7109429
1.0000000 0.8336935 0.7109429
1.0000000 0.8336935 0.7109429
1.0000000 0.8336935 0.7109429
0.0000000 0.1333469 0.0000000
0.0000000 0.1325435 0.0000000
0.0000000 0.1317388 0.0000000
0.0000000 0.1309328 0.0000000
0.0000000 0.1304145 0.0000000
0.0000000 0.1310777 0.0000000
0.0000000 0.1317402 0.0000000
0.0000000 0.1322940 0.0000000
0.0952476 0.1323818 0.0000000
0.1844065 0.1313427 0.0000000
0.2775363 0.1286643 0.0000000
0.3763211 0.1250859 0.0000000
0.4766823 0.1242416 0.0000000
0.5726940 0.1324736 0.0000000
0.6633894 0.1551151 0.0000000
0.7485020 0.1927990 0.0348992
0.8267351 0.2423606 0.1033997
0.8961276 0.2996337 0.1684066
0.9548303 0.3611044 0.2336169
1.0000000 0.4244388 0.2981212
1.0000000 0.4905076 0.3604432
1.0000000 0.5548393 0.4196878
1.0000000 0.6144481 0.4754723
1.0000000 0.6683830 0.5276232
1.0000000 0.7158160 0.5757099
1.0000000 0.7562068 0.6190186
1.0000000 0.7892911 0.6566207
1.0000000 0.8148336 0.6872646
1.0000000 0.8316501 0.7083307
1.0000000 0.8336935 0.7109429
1.0000000 0.8336935 0.7109429
1.0000000 0.8336935 0.7109429
1.0000000 0.8336935 0.7109429
0.0000000 0.1942763 0.0000000
0.0000000 0.1935792 0.0000000
0.0000000 0.1928806 0.0000000
0.0000000 0.1921806 0.0000000
0.0000000 0.1916726 0.0000000
0.0000000 0.1921237 0.0000000
0.0000000 0.1926269 0.0000000
0.0000000 0.1931227 0.0000000
0.0270687 0.1934176 0.0000000
0.1571827 0.1931302 0.0000000
0.2609429 0.1919978 0.0000000
0.3646195 0.1905557 0.0000000
0.4676661 0.1909920 0.0000000
0.5653479 0.1969435 0.0000000
0.6572704 0.2121332 0.0000000
0.7434206 0.2387304 0.0251616
0.8225977 0.2766219 0.0997811
0.8928578 0.3237562 0.1668859
0.9523432 0.3772883 0.2329493
0.9999879 0.4346029 0.2978269
1.0000000 0.4937345 0.3603615
1.0000000 0.5548209 0.4196708
1.0000000 0.6144356 0.4754605
1.0000000 0.6683747 0.5276150
1.0000000 0.7158107 0.5757044
1.0000000 0.7562035 0.6190149
1.0000000 0.7892891 0.6566184
1.0000000 0.8148325 0.6872633
1.0000000 0.8316497 0.7083302
1.0000000 0.8336935 0.7109429
1.0000000 0.8336935 0.7109429
1.0000000 0.8336935 0.7109429
1.0000000 0.8336935 0.7109429
0.0000000 0.2625381 0.0000000
0.0000000 0.2619801 0.0000000
0.0000000 0.2614210 0.0000000
0.0000000 0.2608608 0.0000000
0.0000000 0.2604104 0.0000000
0.0000000 0.2606768 0.0000000
0.0000000 0.2609961 0.0000000
0.0000000 0.2613197 0.0000000
0.0000000 0.2615178 0.0000000
0.0988148 0.2613347 0.0000000
0.2319109 0.2605902 0.0000000
0.3455208 0.2596274 0.0000000
0.4535709 0.2598473 0.0000000
0.5542222 0.2635796 0.0000000
0.6482076 0.2734366 0.0000000
0.7359770 0.2915928 0.0116386
0.8165240 0.3192364 0.0946458
0.8879803 0.3561050 0.1648046
0.9485115 0.4006492 0.2320337
0.9970589 0.4507670 0.2974025
1.0000000 0.5042311 0.3601588
1.0000000 0.5589156 0.4196032
1.0000000 0.6144188 0.4754445
1.0000000 0.6683635 0.5276040
1.0000000 0.7158035 0.5756969
1.0000000 0.7561991 0.6190100
1.0000000 0.7892865 0.6566154
1.0000000 0.8148311 0.6872615
1.0000000 0.8316492 0.7083295
1.0000000 0.8336935 0.7109429
1.0000000 0.8336935 0.7109429
1.0000000 0.8336935 0.7109429
1.0000000 0.8336935 0.7109429
0.0000000 0.3343161 0.0000000
0.0000000 0.3338904 0.0000000
0.0000000 0.3334640 0.0000000
0.0000000 0.3330369 0.0000000
0.0000000 0.3326581 0.0000000
0.0000000 0.3327722 0.0000000
0.0000000 0.3329195 0.0000000
0.0000000 0.3330461 0.0000000
0.0000000 0.3330388 0.0000000
0.0000000 0.3326944 0.0000000
0.1820655 0.3318493 0.0000000
0.3164323 0.3306909 0.0000000
0.4331024 0.3301364 0.0000000
0.5385030 0.3317826 0.0000000
0.6356231 0.3375174 0.0000000
0.7257233 0.3492082 0.0000000
0.8081326 0.3684461 0.0880471
0.8811339 0.3960360 0.1622927
0.9429625 0.4316488 0.2309483
0.9926173 0.4739187 0.2968928
1.0000000 0.5207739 0.3599020
1.0000000 0.5699038 0.4194776
1.0000000 0.6192808 0.4754048
1.0000000 0.6683485 0.5275892
1.0000000 0.7157938 0.5756868
1.0000000 0.7561931 0.6190034
1.0000000 0.7892829 0.6566112
1.0000000 0.8148291 0.6872591
1.0000000 0.8316485 0.7083286
1.0000000 0.8336935 0.7109429
1.0000000 0.8336935 0.7109429
1.0000000 0.8336935 0.7109429
1.0000000 0.8336935 0.7109429
0.0000000 0.4067419 0.0000000
0.0000000 0.4064281 0.0000000
0.0000000 0.4061138 0.0000000
0.0000000 0.4057991 0.0000000
0.0000000 0.4054840 0.0000000
0.0000000 0.4054944 0.0000000
0.0000000 0.4055046 0.0000000
0.0000000 0.4054629 0.0000000
0.0000000 0.4052575 0.0000000
0.0000000 0.4047078 0.0000000
0.0782221 0.4036469 0.0000000
0.2734722 0.4021418 0.0000000
0.4048670 0.4007847 0.0000000
0.5174090 0.4007075 0.0000000
0.6189606 0.4032949 0.0000000
0.7122125 0.4100697 0.0000000
0.7970444 0.4226274 0.0805734
0.8719919 0.4422728 0.1597550
0.9354207 0.4695401 0.2299371
0.9864180 0.5038721 0.2964465
1.0000000 0.5436907 0.3596814
1.0000000 0.5867976 0.4193685
1.0000000 0.6308565 0.4753701
1.0000000 0.6739226 0.5275955
1.0000000 0.7157808 0.5756733
1.0000000 0.7561850 0.6189944
1.0000000 0.7892781 0.6566056
1.0000000 0.8148265 0.6872559
1.0000000 0.8316475 0.7083274
1.0000000 0.8336935 0.7109429
1.0000000 0.8336935 0.7109429
1.0000000 0.8336935 0.7109429
1.0000000 0.8336935 0.7109429
0.0000000 0.4779392 0.0000000
0.0000000 0.4777120 0.0000000
0.0000000 0.4774846 0.0000000
0.0000000 0.4772569 0.0000000
0.0000000 0.4770290 0.0000000
0.0000000 0.4769421 0.0000000
0.0000000 0.4768529 0.0000000
0.0000000 0.4766866 0.0000000
0.0000000 0.4763311 0.0000000
0.0000000 0.4756210 0.0000000
0.0000000 0.4743855 0.0000000
0.2081340 0.4726079 0.0000000
0.3671228 0.4706554 0.0000000
0.4902113 0.4693419 0.0000000
0.5977524 0.4696874 0.0000000
0.6950542 0.4729002 0.0000000
0.7828905 0.4804116 0.0738596
0.8601945 0.4936461 0.1579796
0.9255446 0.5135802 0.2294517
0.9781570 0.5403018 0.2963439
1.0000000 0.5728530 0.3596788
1.0000000 0.6094461 0.4193985
1.0000000 0.6478876 0.4754309
1.0000000 0.6860097 0.5276814
1.0000000 0.7220612 0.5757460
1.0000000 0.7561741 0.6189824
1.0000000 0.7892717 0.6565980
1.0000000 0.8148230 0.6872516
1.0000000 0.8316462 0.7083257
1.0000000 0.8336935 0.7109429
1.0000000 0.8336935 0.7109429
1.0000000 0.8336935 0.7109429
1.0000000 0.8336935 0.7109429
0.0000000 0.5471858 0.0000000
0.0000000 0.5470220 0.0000000
0.0000000 0.5468581 0.0000000
0.0000000 0.5466940 0.0000000
0.0000000 0.5465298 0.0000000
0.0000000 0.5463918 0.0000000
0.0000000 0.5462350 0.0000000
0.0000000 0.5459847 0.0000000
0.0000000 0.5455312 0.0000000
0.0000000 0.5447242 0.0000000
0.0000000 0.5433967 0.0000000
0.0782637 0.5414787 0.0000000
0.3166465 0.5391819 0.0000000
0.4559223 0.5370929 0.0000000
0.5714915 0.5359580 0.0000000
0.6738832 0.5367111 0.0000000
0.7653558 0.5405478 0.0712220
0.8454515 0.5487971 0.1583171
0.9130566 0.5625865 0.2302669
0.9675647 0.5824188 0.2970747
1.0000000 0.6078965 0.3602166
1.0000000 0.6377539 0.4197863
1.0000000 0.6701486 0.4757402
1.0000000 0.7030453 0.5279517
1.0000000 0.7345547 0.5759833
1.0000000 0.7632112 0.6191434
1.0000000 0.7892630 0.6565879
1.0000000 0.8148183 0.6872457
1.0000000 0.8316444 0.7083234
1.0000000 0.8336935 0.7109429
1.0000000 0.8336935 0.7109429
1.0000000 0.8336935 0.7109429
1.0000000 0.8336935 0.7109429
0.0000000 0.6143383 0.0000000
0.0000000 0.6142207 0.0000000
0.0000000 0.6141031 0.0000000
0.0000000 0.6139854 0.0000000
0.0000000 0.6138677 0.0000000
0.0000000 0.6137173 0.0000000
0.0000000 0.6135178 0.0000000
0.0000000 0.6132148 0.0000000
0.0000000 0.6127040 0.0000000
0.0000000 0.6118509 0.0000000
0.0000000 0.6104970 0.0000000
0.0000000 0.6085411 0.0000000
0.2458406 0.6060840 0.0000000
0.4130474 0.6035427 0.0000000
0.5396394 0.6014553 0.0000000
0.6484350 0.6005270 0.0000000
0.7442720 0.6017174 0.0774843
0.8276254 0.6061749 0.1627295
0.8978218 0.6150003 0.2335480
0.9544965 0.6288962 0.2994042
0.9981840 0.6478713 0.3618182
1.0000000 0.6711562 0.4208982
1.0000000 0.6973542 0.4765590
1.0000000 0.7247286 0.5285939
1.0000000 0.7515009 0.5765037
1.0000000 0.7760716 0.6195600
1.0000000 0.7971537 0.6568588
1.0000000 0.8148119 0.6872379
1.0000000 0.8316420 0.7083204
1.0000000 0.8336935 0.7109429
1.0000000 0.8336935 0.7109429
1.0000000 0.8336935 0.7109429
1.0000000 0.8336935 0.7109429
0.0000000 0.6788269 0.0000000
0.0000000 0.6787438 0.0000000
0.0000000 0.6786606 0.0000000
0.0000000 0.6785775 0.0000000
0.0000000 0.6784943 0.0000000
0.0000000 0.6783665 0.0000000
0.0000000 0.6781459 0.0000000
0.0000000 0.6778160 0.0000000
0.0000000 0.6772796 0.0000000
0.0000000 0.6764171 0.0000000
0.0000000 0.6750814 0.0000000
0.0000000 0.6731531 0.0000000
0.1259201 0.6706522 0.0000000
0.3595397 0.6678668 0.0000000
0.5018807 0.6651766 0.0000000
0.6187450 0.6631056 0.0000000
0.7197584 0.6624061 0.0963345
0.8068415 0.6640298 0.1734986
0.8799425 0.6689633 0.2408095
0.9390199 0.6779572 0.3043931
0.9847897 0.6912623 0.3652458
1.0000000 0.7085004 0.4232893
1.0000000 0.7287114 0.4782950
1.0000000 0.7505343 0.5299084
1.0000000 0.7724365 0.5775286
1.0000000 0.7929026 0.6203676
1.0000000 0.8105103 0.6574845
1.0000000 0.8238275 0.6876454
1.0000000 0.8316388 0.7083163
1.0000000 0.8336935 0.7109429
1.0000000 0.8336935 0.7109429
1.0000000 0.8336935 0.7109429
1.0000000 0.8336935 0.7109429
0.0000000 0.7395441 0.0000000
0.0000000 0.7394868 0.0000000
0.0000000 0.7394294 0.0000000
0.0000000 0.7393721 0.0000000
0.0000000 0.7393147 0.0000000
0.0000000 0.7392394 0.0000000
0.0000000 0.7390201 0.0000000
0.0000000 0.7386877 0.0000000
0.0000000 0.7381542 0.0000000
0.0000000 0.7373133 0.0000000
0.0000000 0.7360298 0.0000000
0.0000000 0.7341744 0.0000000
0.0000000 0.7317077 0.0000000
0.2921693 0.7288180 0.0000000
0.4584124 0.7257657 0.0000000
0.5853735 0.7229350 0.0462238
0.6923806 0.7209090 0.1276511
0.7836049 0.7204592 0.1924872
0.8598510 0.7224305 0.2536648
0.9214929 0.7275351 0.3133108
0.9694721 0.7361375 0.3714798
1.0000000 0.7481245 0.4277121
1.0000000 0.7628972 0.4815212
1.0000000 0.7794682 0.5323296
1.0000000 0.7966130 0.5793879
1.0000000 0.8130138 0.6218166
1.0000000 0.8273211 0.6586188
1.0000000 0.8380093 0.6885220
1.0000000 0.8424679 0.7089056
1.0000000 0.8336935 0.7109429
1.0000000 0.8336935 0.7109429
1.0000000 0.8336935 0.7109429
1.0000000 0.8336935 0.7109429
0.0000000 0.7951251 0.0000000
0.0000000 0.7950868 0.0000000
0.0000000 0.7950485 0.0000000
0.0000000 0.7950102 0.0000000
0.0000000 0.7949718 0.0000000
0.0000000 0.7949334 0.0000000
0.0000000 0.7947733 0.0000000
0.0000000 0.7944629 0.0000000
0.0000000 0.7939598 0.0000000
0.0000000 0.7931695 0.0000000
0.0000000 0.7919677 0.0000000
0.0000000 0.7902210 0.0000000
0.0000000 0.7878463 0.0000000
0.2032744 0.7849531 0.0022680
0.4102871 0.7817139 0.0640026
0.5496124 0.7784078 0.1178139
0.6632640 0.7754856 0.1687216
0.7588656 0.7735689 0.2203395
0.8383501 0.7733655 0.2733598
0.9025943 0.7755118 0.3273930
0.9528000 0.7804030 0.3815966
0.9907193 0.7880820 0.4350580
1.0000000 0.7982126 0.4869524
1.0000000 0.8101244 0.5364207
1.0000000 0.8229013 0.5825219
1.0000000 0.8354750 0.6242521
1.0000000 0.8466695 0.6605343
1.0000000 0.8550785 0.6900430
1.0000000 0.8582443 0.7101179
1.0000000 0.8485581 0.7118212
1.0000000 0.8337833 0.7109472
1.0000000 0.8336935 0.7109429
1.0000000 0.8336935 0.7109429
0.0000000 0.8443354 0.0778361
0.0000000 0.8443107 0.0777551
0.0000000 0.8442860 0.0776740
0.0000000 0.8442612 0.0775928
0.0000000 0.8442365 0.0775116
0.0000000 0.8442117 0.0774303
0.0000000 0.8441565 0.0775205
0.0000000 0.8438929 0.0787378
0.0000000 0.8434460 0.0808913
0.0000000 0.8427331 0.0844224
0.0000000 0.8416399 0.0900088
0.0000000 0.8400327 0.0986281
0.0000000 0.8377965 0.1115434
0.0413549 0.8349771 0.1294506
0.3598011 0.8316849 0.1528118
0.5135724 0.8281212 0.1818675
0.6340722 0.8246375 0.2165087
0.7339634 0.8217373 0.2562646
0.8165495 0.8200114 0.3003013
0.8832616 0.8200127 0.3474857
0.9355723 0.8221222 0.3965370
0.9753747 0.8264613 0.4462128
1.0000000 0.8328647 0.4953566
1.0000000 0.8409011 0.5428206
1.0000000 0.8499201 0.5874518
1.0000000 0.8591051 0.6280970
1.0000000 0.8674972 0.6635768
1.0000000 0.8738986 0.6924967
1.0000000 0.8762276 0.7121577
1.0000000 0.8682670 0.7136121
1.0000000 0.8541609 0.7122491
1.0000000 0.8339165 0.7109536
1.0000000 0.8336935 0.7109429
0.0000000 0.8864143 0.1871927
0.0000000 0.8863989 0.1871568
0.0000000 0.8863835 0.1871208
0.0000000 0.8863680 0.1870849
0.0000000 0.8863526 0.1870489
0.0000000 0.8863372 0.1870130
0.0000000 0.8863216 0.1869768
0.0000000 0.8861921 0.1872076
0.0000000 0.8858248 0.1880102
0.0000000 0.8852124 0.1894295
0.0000000 0.8842511 0.1918111
0.0000000 0.8828093 0.1957215
0.0000000 0.8807504 0.2020401
0.0000000 0.8780652 0.2116276
0.3109638 0.8748232 0.2253554
0.4800604 0.8711694 0.2440921
0.6068019 0.8673821 0.2684264
0.7104273 0.8638759 0.2984946
0.7956855 0.8611484 0.3338969
0.8645332 0.8596772 0.3737461
0.9186821 0.8598109 0.4168385
0.9601447 0.8617009 0.4618476
0.9911151 0.8652829 0.5074055
1.0000000 0.8702892 0.5521411
1.0000000 0.8762745 0.5947088
1.0000000 0.8826421 0.6338027
1.0000000 0.8886508 0.6681293
1.0000000 0.8933406 0.6962148
1.0000000 0.8950565 0.7153255
1.0000000 0.8890820 0.7165787
1.0000000 0.8784984 0.7149060
1.0000000 0.8613196 0.7128859
1.0000000 0.8341186 0.7109633
0.0000000 0.9212293 0.2686598
0.0000000 0.9212200 0.2686373
0.0000000 0.9212107 0.2686148
0.0000000 0.9212014 0.2685923
0.0000000 0.9211920 0.2685699
0.0000000 0.9211827 0.2685474
0.0000000 0.9211733 0.2685247
0.0000000 0.9211617 0.2684969
0.0000000 0.9209306 0.2688270
0.0000000 0.9204378 0.2696024
0.0000000 0.9196264 0.2709717
0.0000000 0.9183702 0.2732910
0.0000000 0.9165201 0.2771448
0.0000000 0.9140153 0.2832097
0.2699990 0.9109018 0.2922009
0.4521953 0.9072831 0.3049872
0.5834340 0.9033845 0.3223788
0.6896920 0.8995550 0.3449379
0.7768867 0.8962221 0.3727992
0.8473490 0.8938017 0.4055845
0.9029434 0.8926072 0.4424524
0.9457522 0.8927951 0.4822201
0.9779995 0.8943551 0.5235029
1.0000000 0.8971233 0.5648313
1.0000000 0.9007996 0.6047314
1.0000000 0.9049601 0.6417719
1.0000000 0.9090549 0.6745526
1.0000000 0.9123501 0.7015207
1.0000000 0.9135929 0.7199229
1.0000000 0.9093779 0.7210349
1.0000000 0.9020214 0.7191984
1.0000000 0.8903067 0.7167975
1.0000000 0.8701782 0.7138324
0.0000000 0.9492084 0.3399003
0.0000000 0.9492030 0.3398853
0.0000000 0.9491975 0.3398703
0.0000000 0.9491920 0.3398554
0.0000000 0.9491865 0.3398404
0.0000000 0.9491810 0.3398254
0.0000000 0.9491755 0.3398104
0.0000000 0.9491686 0.3397918
0.0000000 0.9491504 0.3397787
0.0000000 0.9488007 0.3401918
0.0000000 0.9481534 0.3410144
0.0000000 0.9470972 0.3424709
0.0000000 0.9454800 0.3449564
0.0000000 0.9431916 0.3490043
0.2449362 0.9402637 0.3551521
0.4327608 0.9367702 0.3641311
0.5655426 0.9328971 0.3767278
0.6728326 0.9289460 0.3936484
0.7609753 0.9252922 0.4153437
0.8323902 0.9223051 0.4418517
0.8889547 0.9202674 0.4727247
0.9327433 0.9193304 0.5070677
0.9659678 0.9195108 0.5436519
0.9907460 0.9207065 0.5810495
1.0000000 0.9227137 0.6177543
1.0000000 0.9252345 0.6522664
1.0000000 0.9278708 0.6831088
1.0000000 0.9300812 0.7086665
1.0000000 0.9309527 0.7261920
1.0000000 0.9281171 0.7272257
1.0000000 0.9232490 0.7253731
1.0000000 0.9157289 0.7228644
1.0000000 0.9033467 0.7195088
0.0000000 0.9711373 0.4045260
0.0000000 0.9711342 0.4045158
0.0000000 0.9711310 0.4045056
0.0000000 0.9711279 0.4044955
0.0000000 0.9711247 0.4044853
0.0000000 0.9711216 0.4044752
0.0000000 0.9711184 0.4044649
0.0000000 0.9711145 0.4044523
0.0000000 0.9711092 0.4044354
0.0000000 0.9710457 0.4044732
0.0000000 0.9705830 0.4049394
0.0000000 0.9697389 0.4058561
0.0000000 0.9683717 0.4074876
0.0000000 0.9663331 0.4102526
0.2419554 0.9636319 0.4145653
0.4233875 0.9603256 0.4210046
0.5539641 0.9565710 0.4302567
0.6603934 0.9526342 0.4430199
0.7483637 0.9488532 0.4598649
0.8200076 0.9455632 0.4810751
0.8770396 0.9430236 0.5065217
0.9214329 0.9413784 0.5356246
0.9553343 0.9406569 0.5674020
0.9808189 0.9407934 0.6005797
0.9997140 0.9416451 0.6337180
1.0000000 0.9430006 0.6653218
1.0000000 0.9445743 0.6938856
1.0000000 0.9459754 0.7177646
1.0000000 0.9465567 0.7342534
1.0000000 0.9447189 0.7352643
1.0000000 0.9416096 0.7335227
1.0000000 0.9369431 0.7311286
1.0000000 0.9295946 0.7278277
0.0000000 0.9879425 0.4638166
0.0000000 0.9879407 0.4638097
0.0000000 0.9879390 0.4638028
