luts/VLog/in-VLog.AgX_look1-BT2020.out-BT709.cube
TITLE "in-VLog.AgX_look1-BT2020.out-BT709"
# author = Liam Collod
# LUT resolution = 33
# LUT domain = [[ 0.  0.  0.] [ 1.  1.  1.]]
LUT_3D_SIZE 33
0.0000000 0.0000000 0.0000000
0.0000000 0.0000000 0.0000000
0.0000000 0.0000000 0.0000000
0.0000000 0.0000000 0.0000000
0.0007198 0.0000000 0.0000000
0.0126964 0.0000000 0.0000000
0.0357466 0.0000000 0.0000000
0.0752593 0.0000000 0.0000000
0.1326484 0.0000000 0.0000000
0.1967607 0.0000000 0.0000000
0.2661844 0.0000000 0.0000000
0.3389908 0.0000000 0.0000000
0.4132986 0.0000000 0.0000000
0.4876265 0.0000000 0.0000000
0.5610880 0.0000000 0.0000000
0.6333751 0.0000000 0.0000000
0.7041779 0.0325498 0.0075966
0.7727602 0.0969575 0.0263664
0.8379513 0.1665420 0.0593188
0.8982545 0.2344603 0.1095106
0.9520698 0.3018088 0.1651883
0.9979807 0.3690216 0.2237376
1.0000000 0.4364245 0.2839905
1.0000000 0.5038758 0.3450310
1.0000000 0.5706216 0.4064304
1.0000000 0.6354335 0.4681937
1.0000000 0.6968176 0.5301992
1.0000000 0.7532924 0.5918775
1.0000000 0.8036835 0.6521973
1.0000000 0.8476102 0.7098367
1.0000000 0.8855518 0.7634306
1.0000000 0.9168283 0.8115584
1.0000000 0.9422500 0.8534887
0.0000000 0.0000000 0.0000000
0.0000000 0.0000000 0.0000000
0.0000000 0.0000000 0.0000000
0.0000000 0.0000000 0.0000000
0.0006571 0.0000000 0.0000000
0.0124781 0.0000000 0.0000000
0.0354124 0.0000000 0.0000000
0.0748224 0.0000000 0.0000000
0.1322630 0.0000000 0.0000000
0.1964455 0.0000000 0.0000000
0.2659352 0.0000000 0.0000000
0.3387996 0.0000000 0.0000000
0.4131554 0.0000000 0.0000000
0.4875209 0.0000000 0.0000000
0.5610109 0.0000000 0.0000000
0.6333188 0.0000000 0.0000000
0.7041371 0.0325196 0.0075888
0.7727312 0.0969266 0.0263556
0.8379310 0.1665200 0.0593053
0.8982408 0.2344442 0.1094977
0.9520610 0.3017969 0.1651781
0.9979752 0.3690127 0.2237298
1.0000000 0.4364179 0.2839845
1.0000000 0.5038709 0.3450265
1.0000000 0.5706180 0.4064271
1.0000000 0.6354310 0.4681912
1.0000000 0.6968158 0.5301974
1.0000000 0.7532912 0.5918761
1.0000000 0.8036827 0.6521964
1.0000000 0.8476097 0.7098360
1.0000000 0.8855515 0.7634302
1.0000000 0.9168281 0.8115581
1.0000000 0.9422498 0.8534885
0.0000000 0.0000000 0.0000000
0.0000000 0.0000000 0.0000000
0.0000000 0.0000000 0.0000000
0.0000000 0.0000000 0.0000000
0.0005968 0.0000000 0.0000000
0.0122614 0.0000000 0.0000000
0.0350794 0.0000000 0.0000000
0.0743864 0.0000000 0.0000000
0.1318771 0.0000000 0.0000000
0.1961301 0.0000000 0.0000000
0.2656858 0.0000000 0.0000000
0.3386083 0.0000000 0.0000000
0.4130121 0.0000000 0.0000000
0.4874153 0.0000000 0.0000000
0.5609336 0.0000000 0.0000000
0.6332625 0.0000000 0.0000000
0.7040964 0.0324894 0.0075810
0.7727021 0.0968957 0.0263448
0.8379107 0.1664980 0.0592918
0.8982271 0.2344280 0.1094849
0.9520521 0.3017850 0.1651680
0.9979697 0.3690039 0.2237219
1.0000000 0.4364113 0.2839786
1.0000000 0.5038660 0.3450221
1.0000000 0.5706145 0.4064237
1.0000000 0.6354284 0.4681887
1.0000000 0.6968141 0.5301955
1.0000000 0.7532900 0.5918748
1.0000000 0.8036820 0.6521954
1.0000000 0.8476092 0.7098354
1.0000000 0.8855512 0.7634297
1.0000000 0.9168279 0.8115578
1.0000000 0.9422497 0.8534883
0.0000000 0.0000000 0.0000000
0.0000000 0.0000000 0.0000000
0.0000000 0.0000000 0.0000000
0.0000000 0.0000000 0.0000000
0.0005390 0.0000000 0.0000000
0.0120463 0.0000000 0.0000000
0.0347476 0.0000000 0.0000000
0.0739511 0.0000000 0.0000000
0.1314908 0.0000000 0.0000000
0.1958143 0.0000000 0.0000000
0.2654362 0.0000000 0.0000000
0.3384169 0.0000000 0.0000000
0.4128687 0.0000000 0.0000000
0.4873097 0.0000000 0.0000000
0.5608564 0.0000000 0.0000000
0.6332062 0.0000000 0.0000000
0.7040556 0.0324592 0.0075732
0.7726730 0.0968648 0.0263340
0.8378905 0.1664760 0.0592784
0.8982135 0.2344119 0.1094720
0.9520432 0.3017731 0.1651578
0.9979642 0.3689950 0.2237141
1.0000000 0.4364047 0.2839727
1.0000000 0.5038611 0.3450177
1.0000000 0.5706109 0.4064204
1.0000000 0.6354259 0.4681862
1.0000000 0.6968123 0.5301937
1.0000000 0.7532888 0.5918734
1.0000000 0.8036812 0.6521944
1.0000000 0.8476087 0.7098347
1.0000000 0.8855509 0.7634293
1.0000000 0.9168277 0.8115575
1.0000000 0.9422496 0.8534881
0.0000000 0.0011656 0.0000000
0.0000000 0.0010489 0.0000000
0.0000000 0.0009375 0.0000000
0.0000000 0.0008315 0.0000000
0.0001111 0.0008194 0.0000000
0.0114493 0.0004707 0.0000000
0.0340087 0.0000000 0.0000000
0.0730643 0.0000000 0.0000000
0.1307203 0.0000000 0.0000000
0.1951891 0.0000000 0.0000000
0.2649792 0.0000000 0.0000000
0.3381920 0.0000000 0.0000000
0.4127253 0.0000000 0.0000000
0.4872040 0.0000000 0.0000000
0.5607791 0.0000000 0.0000000
0.6331498 0.0000000 0.0000000
0.7040148 0.0324290 0.0075654
0.7726439 0.0968339 0.0263232
0.8378702 0.1664540 0.0592649
0.8981998 0.2343958 0.1094592
0.9520344 0.3017612 0.1651476
0.9979588 0.3689862 0.2237062
1.0000000 0.4363981 0.2839667
1.0000000 0.5038562 0.3450132
1.0000000 0.5706074 0.4064171
1.0000000 0.6354234 0.4681838
1.0000000 0.6968105 0.5301919
1.0000000 0.7532876 0.5918721
1.0000000 0.8036804 0.6521935
1.0000000 0.8476082 0.7098340
1.0000000 0.8855505 0.7634288
1.0000000 0.9168275 0.8115572
1.0000000 0.9422495 0.8534879
0.0000000 0.0085523 0.0000000
0.0000000 0.0082721 0.0000000
0.0000000 0.0079959 0.0000000
0.0000000 0.0077237 0.0000000
0.0000000 0.0077315 0.0000000
0.0079592 0.0080870 0.0000000
0.0304080 0.0076904 0.0000000
0.0692542 0.0064631 0.0000000
0.1275790 0.0039989 0.0000000
0.1925426 0.0000000 0.0000000
0.2625723 0.0000000 0.0000000
0.3358798 0.0000000 0.0000000
0.4106872 0.0000000 0.0000000
0.4856025 0.0000000 0.0000000
0.5598145 0.0000000 0.0000000
0.6330620 0.0000000 0.0000000
0.7039740 0.0323988 0.0075575
0.7726149 0.0968030 0.0263124
0.8378499 0.1664320 0.0592515
0.8981861 0.2343797 0.1094463
0.9520255 0.3017493 0.1651375
0.9979533 0.3689773 0.2236984
1.0000000 0.4363915 0.2839608
1.0000000 0.5038514 0.3450088
1.0000000 0.5706038 0.4064138
1.0000000 0.6354208 0.4681813
1.0000000 0.6968088 0.5301900
1.0000000 0.7532865 0.5918707
1.0000000 0.8036797 0.6521925
1.0000000 0.8476077 0.7098333
1.0000000 0.8855502 0.7634283
1.0000000 0.9168273 0.8115569
1.0000000 0.9422494 0.8534877
0.0000000 0.0212484 0.0000000
0.0000000 0.0208389 0.0000000
0.0000000 0.0204326 0.0000000
0.0000000 0.0200294 0.0000000
0.0000000 0.0200314 0.0000000
0.0017628 0.0209384 0.0000000
0.0241763 0.0210874 0.0000000
0.0629016 0.0205163 0.0000000
0.1225028 0.0189074 0.0000000
0.1885782 0.0160024 0.0000000
0.2592401 0.0118540 0.0000000
0.3329117 0.0070500 0.0000000
0.4079326 0.0028884 0.0000000
0.4829835 0.0014737 0.0000000
0.5573039 0.0057323 0.0000000
0.6306695 0.0193497 0.0000000
0.7027941 0.0467692 0.0067617
0.7725856 0.0967718 0.0263015
0.8378295 0.1664098 0.0592379
0.8981723 0.2343634 0.1094333
0.9520165 0.3017373 0.1651273
0.9979478 0.3689684 0.2236905
1.0000000 0.4363849 0.2839548
1.0000000 0.5038465 0.3450043
1.0000000 0.5706002 0.4064105
1.0000000 0.6354183 0.4681788
1.0000000 0.6968070 0.5301882
1.0000000 0.7532853 0.5918694
1.0000000 0.8036789 0.6521915
1.0000000 0.8476072 0.7098326
1.0000000 0.8855499 0.7634279
1.0000000 0.9168271 0.8115566
1.0000000 0.9422493 0.8534875
0.0000000 0.0425103 0.0000000
0.0000000 0.0419791 0.0000000
0.0000000 0.0414502 0.0000000
0.0000000 0.0409237 0.0000000
0.0000000 0.0408941 0.0000000
0.0000000 0.0423137 0.0000000
0.0137154 0.0429698 0.0000000
0.0523921 0.0430088 0.0000000
0.1139754 0.0421939 0.0000000
0.1822214 0.0403042 0.0000000
0.2541334 0.0374198 0.0000000
0.3285644 0.0341334 0.0000000
0.4040692 0.0317038 0.0000000
0.4794522 0.0321284 0.0000000
0.5540310 0.0381376 0.0000000
0.6276338 0.0531328 0.0000000
0.7000064 0.0814785 0.0048660
0.7703826 0.1218161 0.0248245
0.8374973 0.1692273 0.0590262
0.8981553 0.2343434 0.1094174
0.9520055 0.3017225 0.1651147
0.9979410 0.3689574 0.2236808
1.0000000 0.4363767 0.2839475
1.0000000 0.5038404 0.3449988
1.0000000 0.5705958 0.4064064
1.0000000 0.6354152 0.4681757
1.0000000 0.6968049 0.5301859
1.0000000 0.7532838 0.5918677
1.0000000 0.8036779 0.6521903
1.0000000 0.8476066 0.7098318
1.0000000 0.8855495 0.7634273
1.0000000 0.9168269 0.8115562
1.0000000 0.9422491 0.8534873
0.0000000 0.0782423 0.0000000
0.0000000 0.0775992 0.0000000
0.0000000 0.0769576 0.0000000
0.0000000 0.0763175 0.0000000
0.0000000 0.0762191 0.0000000
0.0000000 0.0780972 0.0000000
0.0000000 0.0792085 0.0000000
0.0348764 0.0797957 0.0000000
0.0989683 0.0796948 0.0000000
0.1715827 0.0787160 0.0000000
0.2459109 0.0769597 0.0000000
0.3218110 0.0750126 0.0000000
0.3982709 0.0740835 0.0000000
0.4743207 0.0760515 0.0000000
0.5494102 0.0836738 0.0000000
0.6234504 0.0986117 0.0000000
0.6962355 0.1221569 0.0023294
0.7670237 0.1543663 0.0226080
0.8345546 0.1944544 0.0571869
0.8972084 0.2412093 0.1089613
0.9519907 0.3017026 0.1650977
0.9979319 0.3689427 0.2236677
1.0000000 0.4363657 0.2839376
1.0000000 0.5038323 0.3449914
1.0000000 0.5705899 0.4064008
1.0000000 0.6354109 0.4681716
1.0000000 0.6968019 0.5301828
1.0000000 0.7532818 0.5918655
1.0000000 0.8036767 0.6521887
1.0000000 0.8476057 0.7098307
1.0000000 0.8855490 0.7634265
1.0000000 0.9168266 0.8115557
1.0000000 0.9422489 0.8534869
0.0000000 0.1273541 0.0000000
0.0000000 0.1268020 0.0000000
0.0000000 0.1262487 0.0000000
0.0000000 0.1256944 0.0000000
0.0000000 0.1255315 0.0000000
0.0000000 0.1272079 0.0000000
0.0000000 0.1282926 0.0000000
0.0075383 0.1290294 0.0000000
0.0725553 0.1293386 0.0000000
0.1542658 0.1290952 0.0000000
0.2330874 0.1283782 0.0000000
0.3116183 0.1276127 0.0000000
0.3897714 0.1276677 0.0000000
0.4669990 0.1298598 0.0000000
0.5429769 0.1358073 0.0000000
0.6177478 0.1471248 0.0000000
0.6911804 0.1651553 0.0000000
0.7625730 0.1907257 0.0197528
0.8306812 0.2239775 0.0548550
0.8938830 0.2644208 0.1074280
0.9504645 0.3111570 0.1646338
0.9979196 0.3689227 0.2236501
1.0000000 0.4363509 0.2839242
1.0000000 0.5038213 0.3449814
1.0000000 0.5705819 0.4063934
1.0000000 0.6354052 0.4681660
1.0000000 0.6967980 0.5301787
1.0000000 0.7532792 0.5918624
1.0000000 0.8036749 0.6521865
1.0000000 0.8476046 0.7098291
1.0000000 0.8855483 0.7634255
1.0000000 0.9168262 0.8115550
1.0000000 0.9422487 0.8534865
0.0000000 0.1817361 0.0000000
0.0000000 0.1812876 0.0000000
0.0000000 0.1808382 0.0000000
0.0000000 0.1803881 0.0000000
0.0000000 0.1801706 0.0000000
0.0000000 0.1815248 0.0000000
0.0000000 0.1824312 0.0000000
0.0000000 0.1830900 0.0000000
0.0330154 0.1834512 0.0000000
0.1263967 0.1834217 0.0000000
0.2136738 0.1830584 0.0000000
0.2967204 0.1826689 0.0000000
0.3776723 0.1828755 0.0000000
0.4568087 0.1846150 0.0000000
0.5341999 0.1890595 0.0000000
0.6100999 0.1974686 0.0000000
0.6844931 0.2110899 0.0000000
0.7567414 0.2310137 0.0161727
0.8256316 0.2579480 0.0519789
0.8895521 0.2920659 0.1055431
0.9467855 0.3330147 0.1635980
0.9958508 0.3800820 0.2232524
1.0000000 0.4363309 0.2839062
1.0000000 0.5038065 0.3449680
1.0000000 0.5705712 0.4063833
1.0000000 0.6353976 0.4681585
1.0000000 0.6967927 0.5301731
1.0000000 0.7532756 0.5918583
1.0000000 0.8036726 0.6521836
1.0000000 0.8476031 0.7098271
1.0000000 0.8855474 0.7634241
1.0000000 0.9168256 0.8115541
1.0000000 0.9422483 0.8534859
0.0000000 0.2403154 0.0000000
0.0000000 0.2399621 0.0000000
0.0000000 0.2396083 0.0000000
0.0000000 0.2392540 0.0000000
0.0000000 0.2389960 0.0000000
0.0000000 0.2400144 0.0000000
0.0000000 0.2406874 0.0000000
0.0000000 0.2411618 0.0000000
0.0000000 0.2413919 0.0000000
0.0796137 0.2412983 0.0000000
0.1848355 0.2409133 0.0000000
0.2755984 0.2404570 0.0000000
0.3609826 0.2403834 0.0000000
0.4430292 0.2413819 0.0000000
0.5225196 0.2443296 0.0000000
0.6000548 0.2502149 0.0000000
0.6757982 0.2601209 0.0000000
0.7492093 0.2751712 0.0118526
0.8191288 0.2963594 0.0485694
0.8839706 0.3243457 0.1033169
0.9420262 0.3593172 0.1623966
0.9918156 0.4009863 0.2225648
1.0000000 0.4486217 0.2835888
1.0000000 0.5037866 0.3449498
1.0000000 0.5705567 0.4063698
1.0000000 0.6353872 0.4681484
1.0000000 0.6967855 0.5301656
1.0000000 0.7532708 0.5918528
1.0000000 0.8036695 0.6521797
1.0000000 0.8476010 0.7098243
1.0000000 0.8855461 0.7634222
1.0000000 0.9168248 0.8115529
1.0000000 0.9422479 0.8534851
0.0000000 0.3016180 0.0000000
0.0000000 0.3013470 0.0000000
0.0000000 0.3010757 0.0000000
0.0000000 0.3008041 0.0000000
0.0000000 0.3005322 0.0000000
0.0000000 0.3012313 0.0000000
0.0000000 0.3016670 0.0000000
0.0000000 0.3019263 0.0000000
0.0000000 0.3019559 0.0000000
0.0108702 0.3016814 0.0000000
0.1415942 0.3011120 0.0000000
0.2462999 0.3004006 0.0000000
0.3386160 0.2998790 0.0000000
0.4249296 0.3000615 0.0000000
0.5073849 0.3016145 0.0000000
0.5871658 0.3053152 0.0000000
0.6647164 0.3120767 0.0000000
0.7396444 0.3229524 0.0069102
0.8108739 0.3390367 0.0447513
0.8768653 0.3612893 0.1008426
0.9359337 0.3903382 0.1610947
0.9866170 0.4263189 0.2218284
1.0000000 0.4687850 0.2831416
1.0000000 0.5167412 0.3447166
1.0000000 0.5705371 0.4063516
1.0000000 0.6353733 0.4681348
1.0000000 0.6967759 0.5301555
1.0000000 0.7532643 0.5918454
1.0000000 0.8036652 0.6521743
1.0000000 0.8475983 0.7098206
1.0000000 0.8855444 0.7634197
1.0000000 0.9168238 0.8115512
1.0000000 0.9422473 0.8534841
0.0000000 0.3643227 0.0000000
0.0000000 0.3641188 0.0000000
0.0000000 0.3639147 0.0000000
0.0000000 0.3637104 0.0000000
0.0000000 0.3635059 0.0000000
0.0000000 0.3638708 0.0000000
0.0000000 0.3640946 0.0000000
0.0000000 0.3641521 0.0000000
0.0000000 0.3639796 0.0000000
0.0000000 0.3635038 0.0000000
0.0704297 0.3627149 0.0000000
0.2057703 0.3617132 0.0000000
0.3092549 0.3607390 0.0000000
0.4017418 0.3601760 0.0000000
0.4882555 0.3605319 0.0000000
0.5710038 0.3624160 0.0000000
0.6508784 0.3665831 0.0000000
0.7277126 0.3739720 0.0016694
0.8005553 0.3856642 0.0408277
0.8679402 0.4027603 0.0983533
0.9282293 0.4261716 0.1598429
0.9799967 0.4563839 0.2211415
1.0000000 0.4932920 0.2827288
1.0000000 0.5361625 0.3444565
1.0000000 0.5837095 0.4062193
1.0000000 0.6353546 0.4681165
1.0000000 0.6967629 0.5301419
1.0000000 0.7532556 0.5918355
1.0000000 0.8036595 0.6521672
1.0000000 0.8475945 0.7098156
1.0000000 0.8855421 0.7634163
1.0000000 0.9168224 0.8115490
1.0000000 0.9422464 0.8534827
0.0000000 0.4275052 0.0000000
0.0000000 0.4273534 0.0000000
0.0000000 0.4272015 0.0000000
0.0000000 0.4270495 0.0000000
0.0000000 0.4268974 0.0000000
0.0000000 0.4270184 0.0000000
0.0000000 0.4270674 0.0000000
0.0000000 0.4269567 0.0000000
0.0000000 0.4266134 0.0000000
0.0000000 0.4259653 0.0000000
0.0000000 0.4249879 0.0000000
0.1474553 0.4237418 0.0000000
0.2709284 0.4223974 0.0000000
0.3725193 0.4212389 0.0000000
0.4645393 0.4206512 0.0000000
0.5511254 0.4211084 0.0000000
0.6339095 0.4232241 0.0000000
0.7130720 0.4278063 0.0000000
0.7878489 0.4358518 0.0373499
0.8568868 0.4484666 0.0963014
0.9186223 0.4666927 0.1589285
0.9716818 0.4912718 0.2206932
1.0000000 0.5224287 0.2824757
1.0000000 0.5597554 0.3443015
1.0000000 0.6022240 0.4061417
1.0000000 0.6482961 0.4681140
1.0000000 0.6967454 0.5301236
1.0000000 0.7532438 0.5918220
1.0000000 0.8036518 0.6521575
1.0000000 0.8475895 0.7098088
1.0000000 0.8855390 0.7634117
1.0000000 0.9168205 0.8115460
1.0000000 0.9422453 0.8534807
0.0000000 0.4907487 0.0000000
0.0000000 0.4906361 0.0000000
0.0000000 0.4905233 0.0000000
0.0000000 0.4904105 0.0000000
0.0000000 0.4902977 0.0000000
0.0000000 0.4902642 0.0000000
0.0000000 0.4901759 0.0000000
0.0000000 0.4899350 0.0000000
0.0000000 0.4894624 0.0000000
0.0000000 0.4886886 0.0000000
0.0000000 0.4875790 0.0000000
0.0503299 0.4861644 0.0000000
0.2198623 0.4845621 0.0000000
0.3358150 0.4829795 0.0000000
0.4354455 0.4817047 0.0000000
0.5269949 0.4811006 0.0000000
0.6133912 0.4816548 0.0000000
0.6953654 0.4840381 0.0000000
0.7724353 0.4891206 0.0352258
0.8434115 0.4979308 0.0954689
0.9068363 0.5115282 0.1588425
0.9614087 0.5307998 0.2208107
1.0000000 0.5562329 0.2826043
1.0000000 0.5877474 0.3444029
1.0000000 0.6246384 0.4062416
1.0000000 0.6656309 0.4682401
1.0000000 0.7090238 0.5302735
1.0000000 0.7532279 0.5918039
1.0000000 0.8036415 0.6521445
1.0000000 0.8475827 0.7097997
1.0000000 0.8855348 0.7634056
1.0000000 0.9168180 0.8115419
1.0000000 0.9422438 0.8534782
0.0000000 0.5539404 0.0000000
0.0000000 0.5538569 0.0000000
0.0000000 0.5537735 0.0000000
0.0000000 0.5536900 0.0000000
0.0000000 0.5536065 0.0000000
0.0000000 0.5535053 0.0000000
0.0000000 0.5533096 0.0000000
0.0000000 0.5529698 0.0000000
0.0000000 0.5524036 0.0000000
0.0000000 0.5515448 0.0000000
0.0000000 0.5503525 0.0000000
0.0000000 0.5488356 0.0000000
0.1467736 0.5470698 0.0000000
0.2892167 0.5452018 0.0000000
0.3999010 0.5434421 0.0000000
0.4979969 0.5420613 0.0000000
0.5889081 0.5414377 0.0000000
0.6742776 0.5421120 0.0000000
0.7540519 0.5448157 0.0358815
0.8272790 0.5504555 0.0970678
0.8926493 0.5600292 0.1603525
0.9489614 0.5744646 0.2220162
0.9954693 0.5944166 0.2834781
1.0000000 0.6200822 0.3450151
1.0000000 0.6510911 0.4066972
1.0000000 0.6864975 0.4686210
1.0000000 0.7248712 0.5306176
1.0000000 0.7644752 0.5921110
1.0000000 0.8036276 0.6521270
1.0000000 0.8475736 0.7097874
1.0000000 0.8855292 0.7633972
1.0000000 0.9168146 0.8115365
1.0000000 0.9422417 0.8534747
0.0000000 0.6167100 0.0000000
0.0000000 0.6166488 0.0000000
0.0000000 0.6165876 0.0000000
0.0000000 0.6165263 0.0000000
0.0000000 0.6164651 0.0000000
0.0000000 0.6163861 0.0000000
0.0000000 0.6161058 0.0000000
0.0000000 0.6156907 0.0000000
0.0000000 0.6150571 0.0000000
0.0000000 0.6141433 0.0000000
0.0000000 0.6129046 0.0000000
0.0000000 0.6113331 0.0000000
0.0230348 0.6094719 0.0000000
0.2284157 0.6074194 0.0000000
0.3565758 0.6053231 0.0000000
0.4635596 0.6033786 0.0000000
0.5601642 0.6018715 0.0000000
0.6496292 0.6012271 0.0000000
0.7325704 0.6020420 0.0414432
0.8083806 0.6050853 0.1027473
0.8759550 0.6112457 0.1645533
0.9342267 0.6214130 0.2250808
0.9825408 0.6363131 0.2856514
1.0000000 0.6563371 0.3465376
1.0000000 0.6814102 0.4077951
1.0000000 0.7109328 0.4694595
1.0000000 0.7438104 0.5312909
1.0000000 0.7785754 0.5926641
1.0000000 0.8135897 0.6525720
1.0000000 0.8475628 0.7097709
1.0000000 0.8855216 0.7633860
1.0000000 0.9168100 0.8115291
1.0000000 0.9422390 0.8534700
0.0000000 0.6782528 0.0000000
0.0000000 0.6782087 0.0000000
0.0000000 0.6781646 0.0000000
0.0000000 0.6781204 0.0000000
0.0000000 0.6780762 0.0000000
0.0000000 0.6780321 0.0000000
0.0000000 0.6777726 0.0000000
0.0000000 0.6773018 0.0000000
0.0000000 0.6766223 0.0000000
0.0000000 0.6756770 0.0000000
0.0000000 0.6744194 0.0000000
0.0000000 0.6728290 0.0000000
0.0000000 0.6709233 0.0000000
0.1430006 0.6687615 0.0000000
0.3037867 0.6664405 0.0000000
0.4233083 0.6640950 0.0000000
0.5271376 0.6619346 0.0000000
0.6215077 0.6602860 0.0089534
0.7081055 0.6596243 0.0549061
0.7868248 0.6605828 0.1143779
0.8568409 0.6639212 0.1728369
0.9172629 0.6704417 0.2310472
0.9675532 0.6808630 0.2899070
1.0000000 0.6956801 0.3495553
1.0000000 0.7150393 0.4099671
1.0000000 0.7386545 0.4710681
1.0000000 0.7657857 0.5325140
1.0000000 0.7952962 0.5936071
1.0000000 0.8257967 0.6532954
1.0000000 0.8561225 0.7103130
1.0000000 0.8855777 0.7633760
1.0000000 0.9168038 0.8115192
1.0000000 0.9422353 0.8534637
0.0000000 0.7373788 0.0000000
0.0000000 0.7373477 0.0000000
0.0000000 0.7373166 0.0000000
0.0000000 0.7372855 0.0000000
0.0000000 0.7372544 0.0000000
0.0000000 0.7372233 0.0000000
0.0000000 0.7371320 0.0000000
0.0000000 0.7366239 0.0000000
0.0000000 0.7359183 0.0000000
0.0000000 0.7349625 0.0000000
0.0000000 0.7337094 0.0000000
0.0000000 0.7321294 0.0000000
0.0000000 0.7302197 0.0000000
0.0043136 0.7280084 0.0000000
0.2390651 0.7255515 0.0000000
0.3772905 0.7229354 0.0000000
0.4902898 0.7203086 0.0004327
0.5904296 0.7179165 0.0340042
0.6811394 0.7161303 0.0802101
0.7630365 0.7154603 0.1335771
0.8356692 0.7165370 0.1867128
0.8983688 0.7200514 0.2411723
0.9507417 0.7266631 0.2972533
0.9928847 0.7368932 0.3548589
1.0000000 0.7510225 0.4138190
1.0000000 0.7690085 0.4738977
1.0000000 0.7904350 0.5346127
1.0000000 0.8145148 0.5951679
1.0000000 0.8401661 0.6544464
1.0000000 0.8664292 0.7111445
1.0000000 0.8926806 0.7639580
1.0000000 0.9168892 0.8115145
1.0000000 0.9422302 0.8534552
0.0000000 0.7926843 0.0000000
0.0000000 0.7926630 0.0000000
0.0000000 0.7926418 0.0000000
0.0000000 0.7926205 0.0000000
0.0000000 0.7925992 0.0000000
0.0000000 0.7925780 0.0000000
0.0000000 0.7925565 0.0000000
0.0000000 0.7922575 0.0000000
0.0000000 0.7915458 0.0000000
0.0000000 0.7906000 0.0000000
0.0000000 0.7893736 0.0000000
0.0000000 0.7878303 0.0000000
0.0000000 0.7859519 0.0000000
0.0000000 0.7837419 0.0000000
0.1572497 0.7812239 0.0013387
0.3262883 0.7784467 0.0188679
0.4508046 0.7755112 0.0431755
0.5574920 0.7725979 0.0766145
0.6526222 0.7699930 0.1178204
0.7378253 0.7681021 0.1611978
0.8131265 0.7674380 0.2074726
0.8781230 0.7685777 0.2567509
0.9325862 0.7720946 0.3088448
0.9767193 0.7784810 0.3634206
1.0000000 0.7880740 0.4201334
1.0000000 0.8009890 0.4785534
1.0000000 0.8170647 0.5380378
1.0000000 0.8358333 0.5976701
1.0000000 0.8565390 0.6562484
1.0000000 0.8784855 0.7124136
1.0000000 0.9011973 0.7648254
1.0000000 0.9226898 0.8120880
1.0000000 0.9423230 0.8534543
0.0000000 0.8428226 0.0294040
0.0000000 0.8428085 0.0293788
0.0000000 0.8427945 0.0293535
0.0000000 0.8427804 0.0293283
0.0000000 0.8427663 0.0293031
0.0000000 0.8427522 0.0292779
0.0000000 0.8427381 0.0292525
0.0000000 0.8427206 0.0292212
0.0000000 0.8421478 0.0306930
0.0000000 0.8412329 0.0331569
0.0000000 0.8400550 0.0365318
0.0000000 0.8385734 0.0411850
0.0000000 0.8367584 0.0476342
0.0000000 0.8345945 0.0565938
0.0426510 0.8320803 0.0690277
0.2722921 0.8292366 0.0863861
0.4108125 0.8261279 0.1077488
0.5244561 0.8228848 0.1331642
0.6239919 0.8197267 0.1629037
0.7123788 0.8169742 0.1971252
0.7902053 0.8150405 0.2358305
0.8573621 0.8143985 0.2788398
0.9137925 0.8155287 0.3258087
0.9598075 0.8188640 0.3762981
0.9961194 0.8247397 0.4298242
1.0000000 0.8333493 0.4857809
1.0000000 0.8447009 0.5433692
1.0000000 0.8585785 0.6015447
1.0000000 0.8745237 0.6590080
1.0000000 0.8921249 0.7143290
1.0000000 0.9111115 0.7661140
1.0000000 0.9296243 0.8129270
1.0000000 0.9470093 0.8539834
0.0000000 0.8867845 0.1248939
0.0000000 0.8867755 0.1248736
0.0000000 0.8867665 0.1248533
0.0000000 0.8867575 0.1248330
0.0000000 0.8867485 0.1248128
0.0000000 0.8867395 0.1247925
0.0000000 0.8867305 0.1247720
0.0000000 0.8867193 0.1247469
0.0000000 0.8866881 0.1247475
0.0000000 0.8858241 0.1265431
0.0000000 0.8847153 0.1289763
0.0000000 0.8833185 0.1322763
0.0000000 0.8815957 0.1367443
0.0000000 0.8795170 0.1427621
0.0000000 0.8770628 0.1507901
0.2193617 0.8742336 0.1613597
0.3735471 0.8710669 0.1750520
0.4937085 0.8676560 0.1924577
0.5970825 0.8641695 0.2141200
0.6881563 0.8608619 0.2404670
0.7680999 0.8580667 0.2717482
0.8370842 0.8561690 0.3079939
0.8952066 0.8555636 0.3490196
0.9428692 0.8566135 0.3944714
0.9808415 0.8596183 0.4438339
1.0000000 0.8647892 0.4964100
1.0000000 0.8722233 0.5512911
1.0000000 0.8818723 0.6073259
1.0000000 0.8935117 0.6631210
1.0000000 0.9069916 0.7171693
1.0000000 0.9222680 0.7680105
1.0000000 0.9376699 0.8141508
1.0000000 0.9526012 0.8547480
0.0000000 0.9240779 0.2101748
0.0000000 0.9240724 0.2101616
0.0000000 0.9240668 0.2101483
0.0000000 0.9240612 0.2101350
0.0000000 0.9240556 0.2101218
0.0000000 0.9240501 0.2101085
0.0000000 0.9240445 0.2100951
0.0000000 0.9240375 0.2100787
0.0000000 0.9240282 0.2100565
0.0000000 0.9238403 0.2102850
0.0000000 0.9228183 0.2117862
0.0000000 0.9215258 0.2138386
0.0000000 0.9199192 0.2166454
0.0000000 0.9179583 0.2204747
0.0000000 0.9156111 0.2256718
0.1752200 0.9128637 0.2326687
0.3433235 0.9097340 0.2419856
0.4680755 0.9062878 0.2542166
0.5739301 0.9026557 0.2699949
0.6667109 0.8990424 0.2899325
0.7480446 0.8957202 0.3145426
0.8183036 0.8930045 0.3441642
0.8776847 0.8912184 0.3789131
0.9266417 0.8906589 0.4186524
0.9659731 0.8915765 0.4629851
0.9967278 0.8941639 0.5112535
1.0000000 0.8985468 0.5625322
1.0000000 0.9047666 0.6156200
1.0000000 0.9127538 0.6690615
1.0000000 0.9225644 0.7212845
1.0000000 0.9343616 0.7707589
1.0000000 0.9466920 0.8159207
1.0000000 0.9590766 0.8558494
0.0000000 0.9547443 0.2882540
0.0000000 0.9547409 0.2882447
0.0000000 0.9547376 0.2882355
