luts/VLog/in-VLog.AgX_look2-BT2020.out-sRGB.cube
TITLE "in-VLog.AgX_look2-BT2020.out-sRGB"
# author = Liam Collod
# LUT resolution = 33
# LUT domain = [[ 0.  0.  0.] [ 1.  1.  1.]]
LUT_3D_SIZE 5
0.0000000 0.0000000 0.0000000
0.1390309 0.0000000 0.0000000
0.8320043 0.1915213 0.1080804
1.0000000 0.7158371 0.5757319
1.0000000 0.8336935 0.7109429
0.0000000 0.1333469 0.0000000
0.0952476 0.1323818 0.0000000
0.8267351 0.2423606 0.1033997
1.0000000 0.7158160 0.5757099
1.0000000 0.8336935 0.7109429
0.0000000 0.6788269 0.0000000
0.0000000 0.6772796 0.0000000
0.7197584 0.6624061 0.0963345
1.0000000 0.7724365 0.5775286
1.0000000 0.8336935 0.7109429
0.0000000 0.9879425 0.4638166
0.0000000 0.9879267 0.4637549
0.5485898 0.9752422 0.4819682
0.9915936 0.9575562 0.6522179
1.0000000 0.9498984 0.7384577
0.3439179 1.0000000 0.6388769
0.3439179 1.0000000 0.6388769
0.3439179 1.0000000 0.6388769
0.9645749 0.9951010 0.7237776
1.0000000 0.9939063 0.7921909
0.0000000 0.0092922 0.1069447
0.1280571 0.0041070 0.1085931
0.8286280 0.2045677 0.1949739
1.0000000 0.7157356 0.5756262
1.0000000 0.8336935 0.7109429
0.0000000 0.1285013 0.0943062
0.0852486 0.1262265 0.0956008
0.8250269 0.2373778 0.1864159
1.0000000 0.7157145 0.5756041
1.0000000 0.8336935 0.7109429
0.0000000 0.6765929 0.0000000
0.0000000 0.6751489 0.0000000
0.7182359 0.6600992 0.1341977
1.0000000 0.7713642 0.5773602
1.0000000 0.8336935 0.7109429
0.0000000 0.9878832 0.4635855
0.0000000 0.9878674 0.4635237
0.5456918 0.9752703 0.4815502
0.9915856 0.9574956 0.6520683
1.0000000 0.9498261 0.7384104
0.3439179 1.0000000 0.6388769
0.3439179 1.0000000 0.6388769
0.3439179 1.0000000 0.6388769
0.9645256 0.9951034 0.7237327
1.0000000 0.9939063 0.7921909
0.0825192 0.5062343 0.7811719
0.1107869 0.5059312 0.7809528
0.7658835 0.5189681 0.7781451
1.0000000 0.7504161 0.7955345
1.0000000 0.8340978 0.7167141
0.0798341 0.5052164 0.7802964
0.1054373 0.5049211 0.7800785
0.7656135 0.5180246 0.7772733
1.0000000 0.7502095 0.7948625
1.0000000 0.8340674 0.7162865
0.0000000 0.7169512 0.7632424
0.0000000 0.7163174 0.7630544
0.6926228 0.7035096 0.7620267
1.0000000 0.7874202 0.7885219
1.0000000 0.8338798 0.7136287
0.0000000 0.9861058 0.6995293
0.0000000 0.9860921 0.6992392
0.5348481 0.9751393 0.7006843
0.9873959 0.9575903 0.7495646
1.0000000 0.9493038 0.7380712
0.3439179 1.0000000 0.6388769
0.3439179 1.0000000 0.6388769
0.3439179 1.0000000 0.6388769
0.9641709 0.9951206 0.7234106
1.0000000 0.9939063 0.7921909
0.6769960 0.8848343 0.9934422
0.6769841 0.8848282 0.9934403
0.7180924 0.8835605 0.9930958
1.0000000 0.8975818 0.9889652
1.0000000 0.9189883 0.9863045
0.6769435 0.8848073 0.9934337
0.6769316 0.8848011 0.9934318
0.7178292 0.8835396 0.9930891
1.0000000 0.8975597 0.9889560
1.0000000 0.9189749 0.9862939
0.6765670 0.8846130 0.9933730
0.6765549 0.8846068 0.9933711
0.7159409 0.8833898 0.9930412
1.0000000 0.8974016 0.9888903
1.0000000 0.9188788 0.9862177
0.6561082 0.9831844 0.9848697
0.6560861 0.9831724 0.9848681
0.6749868 0.9823085 0.9847446
0.9734509 0.9696286 0.9830888
1.0000000 0.9630402 0.9823558
0.6547408 1.0000000 0.9698987
0.6547232 1.0000000 0.9698934
0.6545969 1.0000000 0.9698553
0.9529185 0.9975292 0.9690001
1.0000000 0.9961213 0.9669363
0.7744613 0.9315639 1.0000000
0.7744613 0.9315639 1.0000000
0.7744613 0.9315639 1.0000000
0.9405341 0.9283250 1.0000000
1.0000000 0.9455698 1.0000000
0.7744613 0.9315639 1.0000000
0.7744613 0.9315639 1.0000000
0.7744613 0.9315639 1.0000000
0.9405062 0.9283242 1.0000000
1.0000000 0.9455698 1.0000000
0.7744613 0.9315639 1.0000000
0.7744613 0.9315639 1.0000000
0.7744613 0.9315639 1.0000000
0.9403055 0.9283182 1.0000000
1.0000000 0.9455698 1.0000000
0.7744613 0.9315639 1.0000000
0.7744613 0.9315639 1.0000000
0.7744613 0.9315639 1.0000000
0.9380801 0.9282559 1.0000000
1.0000000 0.9455698 1.0000000
0.7854352 1.0000000 1.0000000
0.7854352 1.0000000 1.0000000
0.7854352 1.0000000 1.0000000
0.8834713 1.0000000 1.0000000
0.9999311 1.0000000 1.0000000
