ocio/AgXc_default_OCIO-v1/LUTs/luminance-compensation.cube
TITLE "Luminance Compensation"
LUT_3D_SIZE 4
0.0016948 0.0016948 0.0016948
0.3499335 0.1910059 0.1910059
0.6835583 0.5226934 0.5226934
1.0168926 0.8560215 0.8560215
0.2464692 0.3335621 0.2464692
0.3338596 0.3338596 0.2646584
0.6833205 0.5242341 0.5231670
1.0168918 0.8560264 0.8560230
0.5792913 0.6669022 0.5792913
0.5797623 0.6668980 0.5793581
0.6671901 0.6671901 0.5976680
1.0166540 0.8575671 0.8564967
0.9126230 1.0002356 0.9126230
0.9126245 1.0002356 0.9126232
0.9130955 1.0002313 0.9126901
1.0005234 1.0005234 0.9310003
0.1632716 0.1632716 0.3665410
0.3389626 0.2176620 0.3389626
0.6835040 0.5228013 0.5238752
1.0168924 0.8560219 0.8560252
0.2581598 0.3334209 0.3334209
0.3350282 0.3350282 0.3350282
0.6832669 0.5243393 0.5243393
1.0168917 0.8560267 0.8560267
0.5793318 0.6668997 0.5797362
0.5798025 0.6668954 0.5798025
0.6671929 0.6671929 0.5979917
1.0166538 0.8575675 0.8565003
0.9126231 1.0002356 0.9126244
0.9126246 1.0002356 0.9126246
0.9130956 1.0002313 0.9126915
1.0005234 1.0005234 0.9310013
0.4937984 0.4937984 0.7005843
0.4958528 0.4940919 0.7003888
0.6723863 0.5500323 0.6723863
1.0168380 0.8561299 0.8572071
0.4945778 0.4963241 0.7000661
0.4966050 0.4966050 0.6998744
0.6722960 0.5509953 0.6722960
1.0168373 0.8561347 0.8572086
0.5911091 0.6667521 0.6667521
0.5914931 0.6667542 0.6667542
0.6683615 0.6683615 0.6683615
1.0166002 0.8576726 0.8576726
0.9126637 1.0002330 0.9130693
0.9126651 1.0002330 0.9130695
0.9131358 1.0002288 0.9131358
1.0005262 1.0005262 0.9313250
0.8271229 0.8271229 1.0339199
0.8271293 0.8271238 1.0339193
0.8291838 0.8274174 1.0337238
1.0057200 0.8833626 1.0057200
0.8271253 0.8271309 1.0339182
0.8271318 0.8271318 1.0339176
0.8291862 0.8274253 1.0337222
1.0057197 0.8833656 1.0057197
0.8279048 0.8296565 1.0334001
0.8279112 0.8296574 1.0333995
0.8299383 0.8299383 1.0332077
1.0056293 0.8843286 1.0056293
0.9244413 1.0000854 1.0000854
0.9244424 1.0000854 1.0000854
0.9248264 1.0000875 1.0000875
1.0016948 1.0016948 1.0016948
