ocio/AgXc_default_OCIO-v1/LUTs/luminance-compensation.cube
TITLE "Luminance Compensation"
LUT_3D_SIZE 8
0.0016948 0.0016948 0.0016948
0.1533425 0.0339431 0.0339431
0.3019470 0.1454507 0.1454507
0.4454075 0.2849128 0.2849128
0.5883164 0.4274771 0.4274771
0.7311779 0.5703095 0.5703095
0.8740354 0.7131646 0.7131646
1.0168926 0.8560215 0.8560215
0.0683821 0.1429458 0.0683821
0.1434590 0.1434590 0.0823084
0.2970936 0.1753762 0.1556136
0.4449142 0.2880950 0.2858962
0.5882742 0.4277510 0.4275608
0.7311743 0.5703326 0.5703166
0.8740351 0.7131665 0.7131652
1.0168926 0.8560217 0.8560216
0.1995031 0.2859345 0.1995031
0.2104324 0.2858450 0.2011142
0.2862441 0.2862441 0.2174542
0.4400291 0.3181121 0.2964589
0.5877806 0.4309342 0.4285477
0.7311321 0.5706066 0.5704004
0.8740316 0.7131896 0.7131722
1.0168923 0.8560236 0.8560222
0.3412931 0.4288057 0.3412931
0.3422769 0.4287969 0.3414330
0.3532212 0.4287061 0.3430699
0.4290954 0.4290954 0.3596341
0.5828928 0.4609590 0.4391449
0.7306386 0.5737899 0.5713876
0.8739894 0.7134636 0.7132560
1.0168887 0.8560467 0.8560292
0.4840599 0.5716641 0.4840599
0.4841431 0.5716633 0.4840717
0.4851271 0.5716545 0.4842117
0.4960726 0.5715636 0.4858508
0.5719520 0.5719520 0.5024341
0.7257505 0.6038153 0.5819876
0.8734958 0.7166469 0.7142433
1.0168465 0.8563207 0.8561131
0.6269094 0.7145213 0.6269094
0.6269164 0.7145212 0.6269104
0.6269997 0.7145205 0.6269222
0.6279836 0.7145116 0.6270623
0.6389293 0.7144208 0.6287016
0.7148091 0.7148091 0.6452864
0.8686077 0.7466724 0.7248436
1.0163529 0.8595040 0.8571003
0.7697659 0.8573785 0.7697659
0.7697665 0.8573784 0.7697660
0.7697735 0.8573784 0.7697670
0.7698568 0.8573776 0.7697788
0.7708407 0.8573688 0.7699188
0.7817864 0.8572779 0.7715582
0.8576663 0.8576663 0.7881432
1.0114649 0.8895295 0.8677006
0.9126230 1.0002356 0.9126230
0.9126231 1.0002356 0.9126230
0.9126237 1.0002356 0.9126231
0.9126307 1.0002355 0.9126241
0.9127139 1.0002348 0.9126359
0.9136978 1.0002259 0.9127759
0.9246435 1.0001351 0.9144153
1.0005234 1.0005234 0.9310003
0.0220983 0.0220983 0.1624329
0.1464857 0.0488125 0.1464857
0.3006937 0.1479225 0.1702975
0.4452941 0.2851378 0.2873655
0.5883068 0.4274961 0.4276865
0.7311771 0.5703111 0.5703271
0.8740353 0.7131647 0.7131660
1.0168926 0.8560215 0.8560217
0.0772103 0.1430082 0.1430082
0.1445520 0.1445520 0.1445520
0.2961996 0.1768003 0.1768003
0.4448041 0.2883079 0.2883079
0.5882646 0.4277700 0.4277700
0.7311735 0.5703342 0.5703342
0.8740350 0.7131666 0.7131666
1.0168925 0.8560217 0.8560217
0.2004849 0.2858772 0.2099020
0.2112393 0.2858030 0.2112393
0.2863162 0.2863162 0.2251655
0.4399508 0.3182333 0.2984707
0.5877713 0.4309522 0.4287533
0.7311313 0.5706082 0.5704180
0.8740315 0.7131897 0.7131737
1.0168922 0.8560237 0.8560223
0.3413779 0.4288003 0.3422227
0.3423603 0.4287916 0.3423603
0.3532896 0.4287022 0.3439714
0.4291013 0.4291013 0.3603114
0.5828862 0.4609692 0.4393160
0.7306378 0.5737914 0.5714049
0.8739893 0.7134637 0.7132575
1.0168887 0.8560467 0.8560294
0.4840670 0.5716636 0.4841385
0.4841503 0.5716628 0.4841503
0.4851341 0.5716540 0.4842901
0.4960784 0.5715633 0.4859270
0.5719525 0.5719525 0.5024913
0.7257500 0.6038162 0.5820020
0.8734957 0.7166470 0.7142447
1.0168465 0.8563207 0.8561132
0.6269100 0.7145213 0.6269160
0.6269170 0.7145212 0.6269170
0.6270003 0.7145204 0.6269288
0.6279842 0.7145116 0.6270689
0.6389297 0.7144207 0.6287080
0.7148092 0.7148092 0.6452912
0.8686077 0.7466725 0.7248448
1.0163529 0.8595040 0.8571004
0.7697660 0.8573784 0.7697665
0.7697666 0.8573784 0.7697666
0.7697736 0.8573784 0.7697676
0.7698568 0.8573776 0.7697794
0.7708407 0.8573688 0.7699194
0.7817864 0.8572779 0.7715587
0.8576663 0.8576663 0.7881436
1.0114649 0.8895295 0.8677007
0.9126230 1.0002356 0.9126231
0.9126231 1.0002356 0.9126231
0.9126237 1.0002356 0.9126232
0.9126307 1.0002355 0.9126242
0.9127139 1.0002348 0.9126359
0.9136978 1.0002259 0.9127760
0.9246435 1.0001351 0.9144153
1.0005234 1.0005234 0.9310003
0.1191070 0.1191070 0.3180357
0.1573404 0.1253326 0.3138006
0.2912290 0.1712639 0.2912290
0.4440031 0.2877471 0.3125789
0.5881931 0.4277221 0.4301427
0.7311675 0.5703302 0.5705366
0.8740345 0.7131663 0.7131837
1.0168925 0.8560217 0.8560231
0.1344170 0.1621683 0.3080923
0.1649555 0.1649555 0.3052900
0.2893428 0.1916696 0.2893428
0.4435508 0.2907796 0.3131547
0.5881512 0.4279949 0.4302226
0.7311639 0.5703532 0.5705436
0.8740342 0.7131682 0.7131843
1.0168925 0.8560218 0.8560232
0.2110323 0.2858046 0.2858046
0.2200674 0.2858653 0.2858653
0.2874091 0.2874091 0.2874091
0.4390567 0.3196574 0.3196574
0.5876613 0.4311650 0.4311650
0.7311218 0.5706271 0.5706271
0.8740307 0.7131913 0.7131913
1.0168922 0.8560238 0.8560238
0.3423765 0.4287417 0.3526453
0.3433421 0.4287344 0.3527592
0.3540964 0.4286601 0.3540964
0.4291733 0.4291733 0.3680227
0.5828079 0.4610904 0.4413279
0.7306285 0.5738093 0.5716105
0.8739885 0.7134653 0.7132751
1.0168886 0.8560469 0.8560308
0.4841520 0.5716582 0.4850682
0.4842351 0.5716575 0.4850798
0.4852174 0.5716488 0.4852174
0.4961467 0.5715593 0.4868285
0.5719584 0.5719584 0.5031685
0.7257434 0.6038264 0.5821732
0.8734949 0.7166485 0.7142620
1.0168464 0.8563208 0.8561147
0.6269172 0.7145208 0.6269947
0.6269242 0.7145207 0.6269956
0.6270074 0.7145200 0.6270074
0.6279912 0.7145112 0.6271473
0.6389355 0.7144204 0.6287842
0.7148097 0.7148097 0.6453484
0.8686071 0.7466733 0.7248592
1.0163529 0.8595042 0.8571019
0.7697666 0.8573784 0.7697731
0.7697672 0.8573784 0.7697732
0.7697742 0.8573783 0.7697742
0.7698574 0.8573776 0.7697860
0.7708413 0.8573688 0.7699260
0.7817869 0.8572779 0.7715651
0.8576663 0.8576663 0.7881484
1.0114648 0.8895296 0.8677019
0.9126231 1.0002356 0.9126236
0.9126231 1.0002356 0.9126236
0.9126237 1.0002356 0.9126237
0.9126307 1.0002355 0.9126247
0.9127140 1.0002348 0.9126365
0.9136979 1.0002259 0.9127765
0.9246435 1.0001351 0.9144159
1.0005234 1.0005234 0.9310007
0.2562435 0.2562435 0.4623531
0.2604706 0.2568515 0.4619469
0.2995336 0.2636278 0.4575471
0.4342739 0.3121204 0.4342739
0.5868989 0.4303435 0.4553874
0.7310538 0.5705563 0.5729931
0.8740249 0.7131854 0.7133932
1.0168917 0.8560233 0.8560408
0.2578509 0.2614086 0.4612832
0.2619641 0.2619641 0.4608928
0.3001976 0.2681897 0.4566577
0.4340861 0.3141211 0.4340861
0.5868603 0.4306043 0.4554361
0.7310502 0.5705793 0.5729998
0.8740246 0.7131873 0.7133937
1.0168917 0.8560234 0.8560408
0.2741581 0.3047870 0.4512042
0.2772741 0.3050254 0.4509495
0.3078126 0.3078126 0.4481471
0.4322000 0.3345267 0.4322000
0.5864080 0.4336368 0.4560118
0.7310084 0.5708521 0.5730798
0.8740211 0.7132104 0.7134008
1.0168914 0.8560254 0.8560414
0.3530868 0.4286573 0.4286573
0.3538894 0.4286617 0.4286617
0.3629246 0.4287225 0.4287225
0.4302663 0.4302663 0.4302663
0.5819139 0.4625146 0.4625146
0.7305184 0.5740221 0.5740221
0.8739789 0.7134843 0.7134843
1.0168878 0.8560485 0.8560485
0.4851519 0.5715995 0.4954928
0.4852336 0.5715989 0.4955024
0.4861992 0.5715915 0.4956163
0.4969536 0.5715173 0.4969536
0.5720304 0.5720304 0.5108798
0.7256651 0.6039476 0.5841850
0.8734856 0.7166665 0.7144676
1.0168456 0.8563224 0.8561323
0.6270021 0.7145154 0.6279244
0.6270091 0.7145154 0.6279254
0.6270922 0.7145146 0.6279370
0.6280746 0.7145059 0.6280746
0.6390039 0.7144165 0.6296857
0.7148156 0.7148156 0.6460256
0.8686005 0.7466835 0.7250303
1.0163521 0.8595057 0.8571192
0.7697737 0.8573780 0.7698517
0.7697743 0.8573779 0.7698518
0.7697813 0.8573779 0.7698528
0.7698646 0.8573771 0.7698646
0.7708484 0.8573683 0.7700044
0.7817926 0.8572776 0.7716413
0.8576668 0.8576668 0.7882056
1.0114643 0.8895305 0.8677163
0.9126237 1.0002356 0.9126302
0.9126237 1.0002356 0.9126302
0.9126243 1.0002355 0.9126303
0.9126313 1.0002355 0.9126313
0.9127146 1.0002347 0.9126431
0.9136985 1.0002259 0.9127831
0.9246440 1.0001350 0.9144223
1.0005235 1.0005235 0.9310055
0.3985978 0.3985978 0.6053368
0.3989634 0.3986497 0.6053022
0.4032003 0.3992624 0.6048946
0.4423347 0.4060883 0.6004805
0.5771471 0.4548068 0.5771471
0.7297593 0.5731787 0.5982405
0.8739112 0.7134115 0.7158496
1.0168821 0.8560423 0.8562502
0.3987360 0.3990492 0.6052447
0.3991006 0.3991006 0.6052103
0.4033277 0.3997087 0.6048040
0.4423907 0.4064849 0.6004042
0.5771310 0.4549776 0.5771310
0.7297561 0.5732007 0.5982446
0.8739109 0.7134134 0.7158502
1.0168821 0.8560425 0.8562503
0.4003534 0.4042187 0.6041735
0.4007080 0.4042657 0.6041404
0.4048213 0.4048213 0.6037500
0.4430547 0.4110469 0.5995149
0.5769433 0.4569782 0.5769433
0.7297174 0.5734614 0.5982932
0.8739074 0.7134364 0.7158569
1.0168818 0.8560445 0.8562509
0.4167482 0.4476240 0.5940830
0.4170152 0.4476441 0.5940614
0.4201312 0.4478826 0.5938066
0.4506698 0.4506698 0.5910043
0.5750571 0.4773839 0.5750571
0.7292651 0.5764939 0.5988690
0.8738655 0.7137092 0.7159369
1.0168782 0.8560675 0.8562579
0.4958761 0.5715140 0.5715140
0.4959439 0.5715144 0.5715144
0.4967466 0.5715189 0.5715189
0.5057817 0.5715796 0.5715796
0.5731234 0.5731234 0.5731234
0.7247710 0.6053717 0.6053717
0.8733756 0.7168793 0.7168793
1.0168360 0.8563414 0.8563414
0.6280022 0.7144567 0.6383492
0.6280091 0.7144567 0.6383500
0.6280908 0.7144560 0.6383596
0.6290563 0.7144486 0.6384735
0.6398107 0.7143744 0.6398107
0.7148876 0.7148876 0.6537369
0.8685222 0.7468047 0.7270422
1.0163428 0.8595236 0.8573248
0.7698587 0.8573726 0.7707815
0.7698592 0.8573726 0.7707815
0.7698662 0.8573725 0.7707825
0.7699494 0.8573718 0.7707941
0.7709317 0.8573630 0.7709317
0.7818610 0.8572736 0.7725428
0.8576727 0.8576727 0.7888828
1.0114576 0.8895407 0.8678874
0.9126308 1.0002351 0.9127089
0.9126309 1.0002351 0.9127089
0.9126315 1.0002351 0.9127089
0.9126385 1.0002350 0.9127099
0.9127217 1.0002343 0.9127217
0.9137055 1.0002254 0.9128615
0.9246498 1.0001347 0.9144985
1.0005240 1.0005240 0.9310627
0.5414125 0.5414125 0.7482046
0.5414433 0.5414169 0.7482017
0.5418089 0.5414687 0.7481671
0.5460467 0.5420819 0.7477594
0.5851872 0.5489120 0.7433441
0.7200056 0.5976496 0.7200056
0.8726167 0.7160340 0.7410973
1.0167684 0.8562685 0.8587067
0.5414241 0.5414506 0.7481968
0.5414550 0.5414550 0.7481939
0.5418205 0.5415068 0.7481594
0.5460574 0.5421196 0.7477518
0.5851919 0.5489455 0.7433377
0.7200042 0.5976640 0.7200042
0.8726165 0.7160359 0.7410976
1.0167683 0.8562686 0.8587068
0.5415624 0.5419020 0.7481048
0.5415931 0.5419063 0.7481019
0.5419578 0.5419578 0.7480674
0.5461849 0.5425658 0.7476612
0.5852479 0.5493421 0.7432613
0.7199882 0.5978347 0.7199882
0.8726132 0.7160578 0.7411017
1.0167681 0.8562706 0.8587074
0.5431806 0.5470719 0.7470334
0.5432105 0.5470759 0.7470306
0.5435651 0.5471228 0.7469975
0.5476784 0.5476784 0.7466071
0.5859119 0.5539040 0.7423720
0.7198004 0.5998354 0.7198004
0.8725745 0.7163185 0.7411504
1.0167645 0.8562936 0.8587141
0.5595829 0.5904795 0.7369419
0.5596054 0.5904812 0.7369401
0.5598724 0.5905013 0.7369185
0.5629884 0.5907397 0.7366638
0.5935269 0.5935269 0.7338614
0.7179142 0.6202410 0.7179142
0.8721222 0.7193511 0.7417261
1.0167226 0.8565664 0.8587941
0.6387275 0.7143711 0.7143711
0.6387332 0.7143712 0.7143712
0.6388010 0.7143715 0.7143715
0.6396037 0.7143760 0.7143760
0.6486389 0.7144367 0.7144367
0.7159806 0.7159806 0.7159806
0.8676282 0.7482289 0.7482289
1.0162327 0.8597364 0.8597364
0.7708588 0.8573139 0.7812062
0.7708593 0.8573138 0.7812063
0.7708662 0.8573138 0.7812071
0.7709479 0.8573132 0.7812167
0.7719135 0.8573058 0.7813306
0.7826678 0.8572315 0.7826678
0.8577447 0.8577447 0.7965941
1.0113794 0.8896619 0.8698993
0.9127158 1.0002297 0.9136386
0.9127158 1.0002297 0.9136386
0.9127164 1.0002297 0.9136387
0.9127234 1.0002296 0.9136397
0.9128065 1.0002289 0.9136513
0.9137888 1.0002202 0.9137888
0.9247182 1.0001308 0.9153999
1.0005299 1.0005299 0.9317399
0.6842661 0.6842661 0.8910627
0.6842687 0.6842664 0.8910624
0.6842995 0.6842708 0.8910595
0.6846651 0.6843227 0.8910249
0.6889030 0.6849359 0.8906172
0.7280439 0.6917664 0.8862018
0.8628628 0.7405055 0.8628628
1.0154739 0.8588910 0.8839544
0.6842670 0.6842693 0.8910620
0.6842696 0.6842696 0.8910618
0.6843005 0.6842740 0.8910588
0.6846661 0.6843259 0.8910243
0.6889039 0.6849390 0.8906165
0.7280443 0.6917692 0.8862012
0.8628627 0.7405067 0.8628627
1.0154739 0.8588912 0.8839544
0.6842787 0.6843074 0.8910542
0.6842813 0.6843077 0.8910540
0.6843121 0.6843121 0.8910511
0.6846776 0.6843639 0.8910165
0.6889146 0.6849767 0.8906089
0.7280490 0.6918026 0.8861948
0.8628613 0.7405211 0.8628613
1.0154736 0.8588930 0.8839548
0.6844169 0.6847588 0.8909621
0.6844195 0.6847592 0.8909619
0.6844502 0.6847635 0.8909590
0.6848149 0.6848149 0.8909245
0.6890420 0.6854229 0.8905183
0.7281050 0.6921992 0.8861185
0.8628453 0.7406918 0.8628453
1.0154703 0.8589150 0.8839589
0.6860353 0.6899287 0.8898908
0.6860378 0.6899291 0.8898905
0.6860677 0.6899330 0.8898878
0.6864223 0.6899800 0.8898546
0.6905356 0.6905356 0.8894643
0.7287690 0.6967612 0.8852292
0.8626575 0.7426925 0.8626575
1.0154317 0.8591757 0.8840075
0.7024381 0.7333365 0.8797992
0.7024400 0.7333366 0.8797991
0.7024625 0.7333383 0.8797972
0.7027295 0.7333584 0.8797757
0.7058455 0.7335969 0.8795209
0.7363840 0.7363840 0.8767186
0.8607714 0.7630982 0.8607714
1.0149794 0.8622082 0.8845833
0.7815842 0.8572283 0.8572283
0.7815846 0.8572283 0.8572283
0.7815903 0.8572283 0.8572283
0.7816582 0.8572287 0.8572287
0.7824608 0.8572331 0.8572331
0.7914960 0.8572939 0.8572939
0.8588377 0.8588377 0.8588377
1.0104853 0.8910860 0.8910860
0.9137159 1.0001710 0.9240634
0.9137159 1.0001710 0.9240634
0.9137165 1.0001710 0.9240635
0.9137234 1.0001709 0.9240643
0.9138051 1.0001703 0.9240739
0.9147706 1.0001629 0.9241877
0.9255250 1.0000887 0.9255250
1.0006019 1.0006019 0.9394512
0.8271229 0.8271229 1.0339199
0.8271231 0.8271229 1.0339198
0.8271257 0.8271233 1.0339196
0.8271565 0.8271277 1.0339167
0.8275222 0.8271795 1.0338821
0.8317600 0.8277928 1.0334744
0.8709010 0.8346233 1.0290590
1.0057200 0.8833626 1.0057200
0.8271230 0.8271232 1.0339198
0.8271232 0.8271232 1.0339198
0.8271258 0.8271236 1.0339195
0.8271566 0.8271279 1.0339166
0.8275223 0.8271798 1.0338821
0.8317601 0.8277930 1.0334743
0.8709011 0.8346235 1.0290589
1.0057200 0.8833627 1.0057200
0.8271240 0.8271264 1.0339192
0.8271242 0.8271264 1.0339191
0.8271268 0.8271268 1.0339189
0.8271576 0.8271311 1.0339160
0.8275232 0.8271830 1.0338814
0.8317610 0.8277962 1.0334737
0.8709015 0.8346263 1.0290584
1.0057198 0.8833639 1.0057198
0.8271356 0.8271645 1.0339114
0.8271358 0.8271645 1.0339114
0.8271384 0.8271649 1.0339111
0.8271692 0.8271692 1.0339082
0.8275348 0.8272211 1.0338737
0.8317717 0.8278338 1.0334661
0.8709062 0.8346598 1.0290519
1.0057185 0.8833783 1.0057185
0.8272738 0.8276159 1.0338193
0.8272741 0.8276159 1.0338193
0.8272766 0.8276163 1.0338190
0.8273074 0.8276206 1.0338161
0.8276721 0.8276721 1.0337817
0.8318991 0.8282801 1.0333755
0.8709621 0.8350564 1.0289756
1.0057025 0.8835490 1.0057025
0.8288922 0.8327858 1.0327479
0.8288924 0.8327859 1.0327479
0.8288949 0.8327862 1.0327477
0.8289248 0.8327901 1.0327449
0.8292794 0.8328371 1.0327118
0.8333927 0.8333927 1.0323214
0.8716262 0.8396183 1.0280863
1.0055147 0.8855497 1.0055147
0.8452951 0.8761936 1.0226564
0.8452952 0.8761936 1.0226564
0.8452971 0.8761938 1.0226562
0.8453196 0.8761955 1.0226544
0.8455867 0.8762156 1.0226328
0.8487027 0.8764540 1.0223780
0.8792412 0.8792412 1.0195757
1.0036285 0.9059553 1.0036285
0.9244413 1.0000854 1.0000854
0.9244413 1.0000854 1.0000854
0.9244418 1.0000854 1.0000854
0.9244475 1.0000855 1.0000855
0.9245153 1.0000858 1.0000858
0.9253180 1.0000903 1.0000903
0.9343531 1.0001510 1.0001510
1.0016948 1.0016948 1.0016948
