ocio/AgXc_default_OCIO-v1/LUTs/luminance-compensation.cube
TITLE "Luminance Compensation"
LUT_3D_SIZE 64
0.0016948 0.0016948 0.0016948
0.0161556 0.0024679 0.0024679
0.0317794 0.0035983 0.0035983
0.0483105 0.0052196 0.0052196
0.0654762 0.0074895 0.0074895
0.0830181 0.0105784 0.0105784
0.1007167 0.0146522 0.0146522
0.1184041 0.0198508 0.0198508
0.1359674 0.0262688 0.0262688
0.1533425 0.0339431 0.0339431
0.1705033 0.0428514 0.0428514
0.1874504 0.0529192 0.0529192
0.2042003 0.0640351 0.0640351
0.2207774 0.0760670 0.0760670
0.2372084 0.0888770 0.0888770
0.2535194 0.1023325 0.1023325
0.2697335 0.1163134 0.1163134
0.2858705 0.1307154 0.1307154
0.3019470 0.1454507 0.1454507
0.3179763 0.1604476 0.1604476
0.3339690 0.1756480 0.1756480
0.3499335 0.1910059 0.1910059
0.3658764 0.2064853 0.2064853
0.3818026 0.2220579 0.2220579
0.3977162 0.2377019 0.2377019
0.4136201 0.2534005 0.2534005
0.4295166 0.2691408 0.2691408
0.4454075 0.2849128 0.2849128
0.4612941 0.3007091 0.3007091
0.4771774 0.3165237 0.3165237
0.4930583 0.3323523 0.3323523
0.5089372 0.3481916 0.3481916
0.5248148 0.3640390 0.3640390
0.5406912 0.3798926 0.3798926
0.5565669 0.3957508 0.3957508
0.5724419 0.4116126 0.4116126
0.5883164 0.4274771 0.4274771
0.6041906 0.4433436 0.4433436
0.6200644 0.4592117 0.4592117
0.6359381 0.4750810 0.4750810
0.6518116 0.4909511 0.4909511
0.6676850 0.5068220 0.5068220
0.6835583 0.5226934 0.5226934
0.6994316 0.5385651 0.5385651
0.7153048 0.5544372 0.5544372
0.7311779 0.5703095 0.5703095
0.7470510 0.5861820 0.5861820
0.7629241 0.6020546 0.6020546
0.7787972 0.6179273 0.6179273
0.7946702 0.6338000 0.6338000
0.8105433 0.6496729 0.6496729
0.8264163 0.6655458 0.6655458
0.8422893 0.6814187 0.6814187
0.8581624 0.6972916 0.6972916
0.8740354 0.7131646 0.7131646
0.8899084 0.7290375 0.7290375
0.9057815 0.7449105 0.7449105
0.9216545 0.7607835 0.7607835
0.9375275 0.7766565 0.7766565
0.9534005 0.7925295 0.7925295
0.9692735 0.8084025 0.8084025
0.9851465 0.8242755 0.8242755
1.0010196 0.8401485 0.8401485
1.0168926 0.8560215 0.8560215
0.0039154 0.0167641 0.0039154
0.0172441 0.0172441 0.0048511
0.0319134 0.0179743 0.0061342
0.0477060 0.0190640 0.0078807
0.0643610 0.0206508 0.0102286
0.0816061 0.0228966 0.0133315
0.0991879 0.0259754 0.0173446
0.1168946 0.0300549 0.0224076
0.1345679 0.0352748 0.0286249
0.1521033 0.0417272 0.0360519
0.1694438 0.0494452 0.0446878
0.1865687 0.0584018 0.0544795
0.2034817 0.0685187 0.0653327
0.2202011 0.0796812 0.0771267
0.2367522 0.0917552 0.0897293
0.2531616 0.1046017 0.1030095
0.2694550 0.1180879 0.1168459
0.2856550 0.1320940 0.1311308
0.3017810 0.1465163 0.1457729
0.3178488 0.1612679 0.1606962
0.3338714 0.1762775 0.1758392
0.3498589 0.1914879 0.1911525
0.3658195 0.2068536 0.2065975
0.3817592 0.2223389 0.2221436
0.3976832 0.2379161 0.2377673
0.4135949 0.2535637 0.2534503
0.4294975 0.2692650 0.2691787
0.4453929 0.2850073 0.2849417
0.4612830 0.3007809 0.3007310
0.4771690 0.3165783 0.3165404
0.4930519 0.3323938 0.3323650
0.5089324 0.3482232 0.3482013
0.5248111 0.3640630 0.3640463
0.5406884 0.3799108 0.3798981
0.5565647 0.3957646 0.3957550
0.5724403 0.4116231 0.4116158
0.5883152 0.4274850 0.4274795
0.6041896 0.4433496 0.4433454
0.6200637 0.4592163 0.4592131
0.6359376 0.4750844 0.4750820
0.6518112 0.4909538 0.4909519
0.6676847 0.5068240 0.5068226
0.6835581 0.5226949 0.5226938
0.6994314 0.5385663 0.5385655
0.7153046 0.5544381 0.5544375
0.7311778 0.5703102 0.5703097
0.7470509 0.5861825 0.5861821
0.7629240 0.6020550 0.6020547
0.7787971 0.6179276 0.6179274
0.7946702 0.6338003 0.6338001
0.8105432 0.6496731 0.6496729
0.8264163 0.6655459 0.6655458
0.8422893 0.6814188 0.6814187
0.8581624 0.6972917 0.6972916
0.8740354 0.7131646 0.7131646
0.8899084 0.7290376 0.7290375
0.9057814 0.7449105 0.7449105
0.9216545 0.7607835 0.7607835
0.9375275 0.7766565 0.7766565
0.9534005 0.7925295 0.7925295
0.9692735 0.8084025 0.8084025
0.9851465 0.8242755 0.8242755
1.0010196 0.8401485 0.8401485
1.0168926 0.8560215 0.8560215
0.0073325 0.0321643 0.0073325
0.0193727 0.0324426 0.0083519
0.0328871 0.0328871 0.0097070
0.0477173 0.0335809 0.0114995
0.0636383 0.0346359 0.0138510
0.0803859 0.0361931 0.0168992
0.0976888 0.0384180 0.0207885
0.1152980 0.0414872 0.0256552
0.1330082 0.0455699 0.0316111
0.1506682 0.0508053 0.0387274
0.1681804 0.0572838 0.0470251
0.1854933 0.0650351 0.0564740
0.2025897 0.0740287 0.0669989
0.2194761 0.0841831 0.0784931
0.2361720 0.0953813 0.0908326
0.2527030 0.1074874 0.1038889
0.2690958 0.1203617 0.1175395
0.2853757 0.1338714 0.1316734
0.3015650 0.1478967 0.1461944
0.3176825 0.1623346 0.1610220
0.3337438 0.1770985 0.1760900
0.3497612 0.1921178 0.1913450
0.3657448 0.2073358 0.2067448
0.3817023 0.2227074 0.2222561
0.3976397 0.2381972 0.2378531
0.4135619 0.2537779 0.2535158
0.4294723 0.2694281 0.2692286
0.4453738 0.2851314 0.2849796
0.4612685 0.3008753 0.3007598
0.4771579 0.3166501 0.3165623
0.4930435 0.3324484 0.3323817
0.5089260 0.3482647 0.3482139
0.5248062 0.3640945 0.3640560
0.5406847 0.3799347 0.3799054
0.5565619 0.3957828 0.3957606
0.5724381 0.4116369 0.4116200
0.5883135 0.4274955 0.4274827
0.6041884 0.4433576 0.4433479
0.6200628 0.4592223 0.4592149
0.6359369 0.4750891 0.4750834
0.6518107 0.4909573 0.4909530
0.6676843 0.5068267 0.5068234
0.6835578 0.5226969 0.5226944
0.6994312 0.5385678 0.5385660
0.7153044 0.5544393 0.5544378
0.7311777 0.5703111 0.5703100
0.7470508 0.5861832 0.5861823
0.7629240 0.6020555 0.6020548
0.7787971 0.6179280 0.6179275
0.7946701 0.6338006 0.6338002
0.8105432 0.6496733 0.6496730
0.8264163 0.6655461 0.6655459
0.8422893 0.6814189 0.6814187
0.8581624 0.6972918 0.6972917
0.8740354 0.7131647 0.7131646
0.8899084 0.7290376 0.7290376
0.9057814 0.7449106 0.7449105
0.9216545 0.7607836 0.7607835
0.9375275 0.7766565 0.7766565
0.9534005 0.7925295 0.7925295
0.9692735 0.8084025 0.8084025
0.9851465 0.8242755 0.8242755
1.0010196 0.8401485 0.8401485
1.0168926 0.8560215 0.8560215
0.0120911 0.0477822 0.0120911
0.0227407 0.0479292 0.0131220
0.0349373 0.0481805 0.0144719
0.0485956 0.0485956 0.0162312
0.0635492 0.0492593 0.0185084
0.0795677 0.0502855 0.0214276
0.0963848 0.0518182 0.0251224
0.1137301 0.0540254 0.0297248
0.1313582 0.0570861 0.0353511
0.1490693 0.0611704 0.0420864
0.1667177 0.0664174 0.0499724
0.1842112 0.0729155 0.0590024
0.2015020 0.0806922 0.0691231
0.2185763 0.0897141 0.0802448
0.2354421 0.0998973 0.0922540
0.2521198 0.1111226 0.1050268
0.2686353 0.1232533 0.1184402
0.2850154 0.1361488 0.1323800
0.3012851 0.1496763 0.1467448
0.3174662 0.1637163 0.1614482
0.3335773 0.1781660 0.1764185
0.3496335 0.1929393 0.1915974
0.3656470 0.2079660 0.2069382
0.3816276 0.2231897 0.2224040
0.3975828 0.2385658 0.2379660
0.4135184 0.2540591 0.2536018
0.4294392 0.2696424 0.2692941
0.4453486 0.2852946 0.2850295
0.4612493 0.3009995 0.3007978
0.4771434 0.3167446 0.3165912
0.4930324 0.3325202 0.3324036
0.5089176 0.3483193 0.3482306
0.5247998 0.3641360 0.3640687
0.5406799 0.3799663 0.3799151
0.5565582 0.3958068 0.3957679
0.5724353 0.4116551 0.4116256
0.5883114 0.4275094 0.4274869
0.6041868 0.4433681 0.4433511
0.6200616 0.4592303 0.4592174
0.6359359 0.4750951 0.4750853
0.6518100 0.4909619 0.4909544
0.6676838 0.5068302 0.5068245
0.6835574 0.5226996 0.5226953
0.6994308 0.5385698 0.5385666
0.7153042 0.5544408 0.5544383
0.7311775 0.5703122 0.5703103
0.7470507 0.5861840 0.5861826
0.7629239 0.6020561 0.6020551
0.7787970 0.6179285 0.6179276
0.7946701 0.6338010 0.6338003
0.8105432 0.6496736 0.6496731
0.8264162 0.6655463 0.6655459
0.8422893 0.6814191 0.6814188
0.8581623 0.6972919 0.6972917
0.8740354 0.7131648 0.7131646
0.8899084 0.7290377 0.7290376
0.9057814 0.7449106 0.7449106
0.9216545 0.7607836 0.7607835
0.9375275 0.7766566 0.7766565
0.9534005 0.7925296 0.7925295
0.9692735 0.8084026 0.8084025
0.9851465 0.8242755 0.8242755
1.0010196 0.8401485 0.8401485
1.0168926 0.8560216 0.8560215
0.0182651 0.0635355 0.0182651
0.0274884 0.0636018 0.0192494
0.0382631 0.0637295 0.0205299
0.0505810 0.0639588 0.0221876
0.0643500 0.0643500 0.0243201
0.0793980 0.0649892 0.0270400
0.0954905 0.0659921 0.0304713
0.1123597 0.0675049 0.0347412
0.1297361 0.0696976 0.0399685
0.1473776 0.0727511 0.0462499
0.1650883 0.0768363 0.0536465
0.1827271 0.0820918 0.0621755
0.2002055 0.0886048 0.0718078
0.2174792 0.0964008 0.0824738
0.2345363 0.1054443 0.0940740
0.2513861 0.1156493 0.1064917
0.2680499 0.1268954 0.1196052
0.2845536 0.1390447 0.1332973
0.3009240 0.1519565 0.1474614
0.3171858 0.1654976 0.1620045
0.3333606 0.1795487 0.1768482
0.3494668 0.1940074 0.1919280
0.3655192 0.2087878 0.2071918
0.3815297 0.2238201 0.2225981
0.3975080 0.2390482 0.2381143
0.4134614 0.2544277 0.2537150
0.4293958 0.2699236 0.2693803
0.4453155 0.2855089 0.2850952
0.4612241 0.3011627 0.3008478
0.4771242 0.3168688 0.3166292
0.4930178 0.3326147 0.3324325
0.5089065 0.3483911 0.3482526
0.5247914 0.3641906 0.3640853
0.5406735 0.3800078 0.3799278
0.5565534 0.3958383 0.3957775
0.5724316 0.4116791 0.4116329
0.5883086 0.4275276 0.4274925
0.6041846 0.4433820 0.4433553
0.6200599 0.4592408 0.4592206
0.6359347 0.4751031 0.4750877
0.6518090 0.4909679 0.4909563
0.6676831 0.5068348 0.5068259
0.6835568 0.5227031 0.5226963
0.6994304 0.5385725 0.5385674
0.7153039 0.5544428 0.5544389
0.7311772 0.5703138 0.5703108
0.7470505 0.5861852 0.5861830
0.7629237 0.6020570 0.6020553
0.7787969 0.6179291 0.6179278
0.7946700 0.6338015 0.6338005
0.8105431 0.6496740 0.6496732
0.8264162 0.6655466 0.6655460
0.8422893 0.6814193 0.6814189
0.8581623 0.6972921 0.6972918
0.8740354 0.7131649 0.7131647
0.8899084 0.7290378 0.7290376
0.9057814 0.7449107 0.7449106
0.9216544 0.7607837 0.7607836
0.9375275 0.7766566 0.7766565
0.9534005 0.7925296 0.7925295
0.9692735 0.8084026 0.8084025
0.9851465 0.8242756 0.8242755
1.0010196 0.8401486 0.8401485
1.0168926 0.8560216 0.8560215
0.0258536 0.0793679 0.0258536
0.0336816 0.0793877 0.0267513
0.0429999 0.0794408 0.0279165
0.0538713 0.0795530 0.0294221
0.0662827 0.0797647 0.0313557
0.0801369 0.0801369 0.0338201
0.0952569 0.0807565 0.0369302
0.1114056 0.0817408 0.0408082
0.1283139 0.0832376 0.0455739
0.1457134 0.0854188 0.0513332
0.1633642 0.0884663 0.0581650
0.1810740 0.0925518 0.0661099
0.1987049 0.0978136 0.0751650
0.2161716 0.1043379 0.0852843
0.2334319 0.1121486 0.0963864
0.2504757 0.1212086 0.1083655
0.2673133 0.1314303 0.1211040
0.2839664 0.1426922 0.1344833
0.3004610 0.1548558 0.1483916
0.3168240 0.1677798 0.1627289
0.3330798 0.1813312 0.1774092
0.3492499 0.1953909 0.1923605
0.3653524 0.2098563 0.2075240
0.3814018 0.2246422 0.2228527
0.3974101 0.2396788 0.2383090
0.4133867 0.2549102 0.2538636
0.4293388 0.2702922 0.2694936
0.4452721 0.2857901 0.2851815
0.4611910 0.3013770 0.3009135
0.4770991 0.3170319 0.3166792
0.4929987 0.3327389 0.3324706
0.5088920 0.3484856 0.3482815
0.5247804 0.3642624 0.3641073
0.5406651 0.3800624 0.3799445
0.5565470 0.3958798 0.3957902
0.5724268 0.4117106 0.4116425
0.5883049 0.4275515 0.4274998
0.6041818 0.4434002 0.4433609
0.6200578 0.4592547 0.4592248
0.6359331 0.4751136 0.4750909
0.6518078 0.4909759 0.4909587
0.6676821 0.5068408 0.5068277
0.6835561 0.5227077 0.5226977
0.6994299 0.5385760 0.5385685
0.7153035 0.5544455 0.5544397
0.7311769 0.5703158 0.5703114
0.7470503 0.5861867 0.5861834
0.7629235 0.6020582 0.6020557
0.7787967 0.6179300 0.6179281
0.7946699 0.6338021 0.6338007
0.8105430 0.6496745 0.6496734
0.8264161 0.6655470 0.6655461
0.8422892 0.6814196 0.6814190
0.8581623 0.6972923 0.6972918
0.8740353 0.7131651 0.7131647
0.8899084 0.7290379 0.7290377
0.9057814 0.7449108 0.7449106
0.9216544 0.7607837 0.7607836
0.9375275 0.7766567 0.7766566
0.9534005 0.7925296 0.7925295
0.9692735 0.8084026 0.8084025
0.9851465 0.8242756 0.8242755
1.0010196 0.8401486 0.8401485
1.0168926 0.8560216 0.8560215
0.0347893 0.0952430 0.0347893
0.0413097 0.0952381 0.0355779
0.0492066 0.0952493 0.0366017
0.0585983 0.0952919 0.0379254
0.0695442 0.0953918 0.0396273
0.0820275 0.0955897 0.0418004
0.0959468 0.0959468 0.0445509
0.1111218 0.0965509 0.0479949
0.1273130 0.0975206 0.0522517
0.1442507 0.0990048 0.0574338
0.1616674 0.1011767 0.0636353
0.1793250 0.1042195 0.0709196
0.1970337 0.1083051 0.0793106
0.2146584 0.1135717 0.0887892
0.2321158 0.1201045 0.0992969
0.2493658 0.1279264 0.1107436
0.2663994 0.1369989 0.1230200
0.2832276 0.1472333 0.1360086
0.2998725 0.1585073 0.1495939
0.3163603 0.1706816 0.1636690
0.3327176 0.1836151 0.1781395
0.3489688 0.1971743 0.1929249
0.3651353 0.2112404 0.2079586
0.3812349 0.2257111 0.2231862
0.3972822 0.2405011 0.2385643
0.4132888 0.2555409 0.2540587
0.4292640 0.2707749 0.2696425
0.4452150 0.2861588 0.2852949
0.4611476 0.3016583 0.3009999
0.4770660 0.3172463 0.3167449
0.4929735 0.3329021 0.3325206
0.5088728 0.3486097 0.3483195
0.5247658 0.3643569 0.3641362
0.5406540 0.3801342 0.3799664
0.5565386 0.3959344 0.3958069
0.5724204 0.4117521 0.4116552
0.5883001 0.4275831 0.4275095
0.6041782 0.4434241 0.4433682
0.6200550 0.4592729 0.4592304
0.6359310 0.4751274 0.4750952
0.6518062 0.4909864 0.4909619
0.6676809 0.5068488 0.5068302
0.6835552 0.5227137 0.5226996
0.6994292 0.5385806 0.5385699
0.7153029 0.5544490 0.5544408
0.7311765 0.5703184 0.5703122
0.7470500 0.5861888 0.5861840
0.7629233 0.6020597 0.6020561
0.7787966 0.6179312 0.6179285
0.7946698 0.6338030 0.6338010
0.8105429 0.6496751 0.6496736
0.8264161 0.6655475 0.6655463
0.8422891 0.6814200 0.6814191
0.8581622 0.6972926 0.6972919
0.8740353 0.7131653 0.7131648
0.8899083 0.7290381 0.7290377
0.9057814 0.7449109 0.7449106
0.9216544 0.7607838 0.7607836
0.9375275 0.7766568 0.7766566
0.9534005 0.7925297 0.7925296
0.9692735 0.8084027 0.8084026
0.9851465 0.8242756 0.8242755
1.0010196 0.8401486 0.8401485
1.0168926 0.8560216 0.8560216
0.0449554 0.1111386 0.0449554
0.0502961 0.1111223 0.0456273
0.0568645 0.1111119 0.0465009
0.0648145 0.1111162 0.0476325
0.0742626 0.1111507 0.0490910
0.0852659 0.1112410 0.0509596
0.0978042 0.1114279 0.0533348
0.1117732 0.1117732 0.0563256
0.1269901 0.1123653 0.0600482
0.1432136 0.1133235 0.0646189
0.1601735 0.1147979 0.0701433
0.1776030 0.1169626 0.0767053
0.1952656 0.1200016 0.0843553
0.2129732 0.1240871 0.0931036
0.2305929 0.1293573 0.1029189
0.2480432 0.1358966 0.1137328
0.2652853 0.1437270 0.1254494
0.2823110 0.1528090 0.1379572
0.2991321 0.1630531 0.1511395
0.3157707 0.1743362 0.1648838
0.3322532 0.1865188 0.1790871
0.3486062 0.1994594 0.1936598
0.3648540 0.2130246 0.2085258
0.3810177 0.2270956 0.2236223
0.3971152 0.2415702 0.2388987
0.4131607 0.2563634 0.2543145
0.4291660 0.2714057 0.2698379
0.4451403 0.2866415 0.2854440
0.4610905 0.3020270 0.3011135
0.4770225 0.3175276 0.3168314
0.4929404 0.3331165 0.3325864
0.5088476 0.3487730 0.3483696
0.5247467 0.3644811 0.3641743
0.5406395 0.3802287 0.3799954
0.5565275 0.3960063 0.3958289
0.5724120 0.4118067 0.4116719
0.5882937 0.4276246 0.4275221
0.6041733 0.4434557 0.4433778
0.6200513 0.4592968 0.4592377
0.6359282 0.4751456 0.4751007
0.6518041 0.4910003 0.4909661
0.6676793 0.5068593 0.5068334
0.6835540 0.5227217 0.5227020
0.6994283 0.5385867 0.5385717
0.7153022 0.5544536 0.5544422
0.7311760 0.5703219 0.5703133
0.7470496 0.5861914 0.5861849
0.7629230 0.6020617 0.6020568
0.7787963 0.6179327 0.6179289
0.7946696 0.6338042 0.6338013
0.8105428 0.6496760 0.6496738
0.8264159 0.6655481 0.6655465
0.8422891 0.6814205 0.6814192
0.8581622 0.6972930 0.6972920
0.8740352 0.7131656 0.7131649
0.8899083 0.7290383 0.7290378
0.9057814 0.7449111 0.7449107
0.9216544 0.7607840 0.7607836
0.9375274 0.7766568 0.7766566
0.9534005 0.7925298 0.7925296
0.9692735 0.8084027 0.8084026
0.9851465 0.8242757 0.8242756
1.0010195 0.8401486 0.8401486
1.0168926 0.8560216 0.8560216
0.0562054 0.1270419 0.0562054
0.0605166 0.1270217 0.0567640
0.0658896 0.1270019 0.0574916
0.0724949 0.1269872 0.0584363
0.0804857 0.1269862 0.0596576
0.0899772 0.1270142 0.0612282
0.1010243 0.1270971 0.0632348
0.1136048 0.1272756 0.0657770
0.1276117 0.1276117 0.0689653
0.1428604 0.1281945 0.0729158
0.1591084 0.1291437 0.0777416
0.1760852 0.1306104 0.0835427
0.1935242 0.1327696 0.0903939
0.2111904 0.1358056 0.0983354
0.2288971 0.1398910 0.1073667
0.2465129 0.1451638 0.1174466
0.2639577 0.1517081 0.1284999
0.2811937 0.1595450 0.1404265
0.2982135 0.1686342 0.1531135
0.3150290 0.1788857 0.1664452
0.3316629 0.1901758 0.1803116
0.3481414 0.2023646 0.1946133
0.3644911 0.2153106 0.2092641
0.3807363 0.2288804 0.2241915
0.3968979 0.2429551 0.2393360
0.4129937 0.2574327 0.2546496
0.4290380 0.2722282 0.2700942
0.4450423 0.2872724 0.2856396
0.4610157 0.3025097 0.3012626
0.4769654 0.3178963 0.3169451
0.4928970 0.3333977 0.3326729
0.5088145 0.3489873 0.3484354
0.5247215 0.3646443 0.3642244
0.5406203 0.3803529 0.3800334
0.5565130 0.3961007 0.3958578
0.5724009 0.4118785 0.4116939
0.5882853 0.4276792 0.4275389
0.6041669 0.4434972 0.4433905
0.6200465 0.4593284 0.4592473
0.6359245 0.4751696 0.4751080
0.6518013 0.4910185 0.4909717
0.6676772 0.5068731 0.5068376
0.6835524 0.5227322 0.5227052
0.6994270 0.5385946 0.5385742
0.7153013 0.5544596 0.5544441
0.7311753 0.5703265 0.5703147
0.7470490 0.5861949 0.5861859
0.7629226 0.6020644 0.6020576
0.7787960 0.6179347 0.6179296
0.7946694 0.6338057 0.6338018
0.8105426 0.6496772 0.6496742
0.8264158 0.6655490 0.6655468
0.8422890 0.6814212 0.6814194
0.8581621 0.6972935 0.6972922
0.8740352 0.7131660 0.7131650
0.8899083 0.7290386 0.7290379
0.9057813 0.7449113 0.7449108
0.9216544 0.7607841 0.7607837
0.9375274 0.7766570 0.7766566
0.9534005 0.7925299 0.7925296
0.9692735 0.8084028 0.8084026
0.9851465 0.8242757 0.8242756
1.0010195 0.8401487 0.8401486
1.0168926 0.8560217 0.8560216
0.0683821 0.1429458 0.0683821
0.0718195 0.1429257 0.0688374
0.0761518 0.1429034 0.0694315
0.0815495 0.1428810 0.0702047
0.0881831 0.1428629 0.0712075
0.0962052 0.1428578 0.0725021
0.1057298 0.1428809 0.0741641
0.1168105 0.1429579 0.0762829
0.1294231 0.1431299 0.0789604
0.1434590 0.1434590 0.0823084
0.1587319 0.1440345 0.0864422
0.1749985 0.1449769 0.0914725
0.1919879 0.1464377 0.0974940
0.2094342 0.1485925 0.1045745
0.2271030 0.1516262 0.1127458
0.2448090 0.1557115 0.1219989
0.2624218 0.1609863 0.1322854
0.2798623 0.1675344 0.1435246
0.2970936 0.1753762 0.1556136
0.3141088 0.1844709 0.1684386
0.3309203 0.1947279 0.1818851
0.3475505 0.2060233 0.1958451
0.3640260 0.2182169 0.2102220
0.3803732 0.2311670 0.2249325
0.3966163 0.2447403 0.2399068
0.4127764 0.2588178 0.2550879
0.4288709 0.2732977 0.2704298
0.4449142 0.2880950 0.2858962
0.4609178 0.3031406 0.3014585
0.4768906 0.3183791 0.3170943
0.4928399 0.3337665 0.3327866
0.5087711 0.3492686 0.3485220
0.5246884 0.3648587 0.3642902
0.5405951 0.3805161 0.3800835
0.5564938 0.3962249 0.3958959
0.5723863 0.4119730 0.4117228
0.5882742 0.4277510 0.4275608
0.6041585 0.4435518 0.4434072
0.6200401 0.4593699 0.4592600
0.6359196 0.4752011 0.4751177
0.6517976 0.4910424 0.4909790
0.6676744 0.5068913 0.5068432
0.6835502 0.5227460 0.5227095
0.6994254 0.5386052 0.5385774
0.7153001 0.5544676 0.5544465
0.7311743 0.5703326 0.5703166
0.7470483 0.5861995 0.5861873
0.7629220 0.6020679 0.6020586
0.7787956 0.6179374 0.6179304
0.7946690 0.6338077 0.6338024
0.8105424 0.6496787 0.6496747
0.8264156 0.6655502 0.6655471
0.8422888 0.6814220 0.6814197
0.8581620 0.6972942 0.6972924
0.8740351 0.7131665 0.7131652
0.8899082 0.7290390 0.7290380
0.9057813 0.7449116 0.7449109
0.9216543 0.7607844 0.7607838
0.9375274 0.7766571 0.7766567
0.9534004 0.7925300 0.7925297
0.9692735 0.8084029 0.8084026
0.9851465 0.8242758 0.8242756
1.0010195 0.8401487 0.8401486
1.0168926 0.8560217 0.8560216
0.0813315 0.1588472 0.0813315
0.0840444 0.1588290 0.0816968
0.0874952 0.1588076 0.0821743
0.0918435 0.1587837 0.0827971
0.0972602 0.1587592 0.0836070
0.1039155 0.1587385 0.0846565
0.1119615 0.1587303 0.0860100
0.1215115 0.1587496 0.0877454
0.1326177 0.1588222 0.0899541
0.1452548 0.1589891 0.0927398
0.1593128 0.1593128 0.0962149
0.1746041 0.1598827 0.1004943
0.1908848 0.1608198 0.1056864
0.2078838 0.1622760 0.1118817
0.2253355 0.1644275 0.1191422
0.2430063 0.1674594 0.1274931
0.2607116 0.1715447 0.1369188
0.2783221 0.1768210 0.1473655
0.2957594 0.1833719 0.1587483
0.3129872 0.1912174 0.1709623
0.3299989 0.2003163 0.1838934
0.3468071 0.2105776 0.1974278
0.3634346 0.2218770 0.2114595
0.3799077 0.2340742 0.2258938
0.3962530 0.2470274 0.2406499
0.4124947 0.2606033 0.2556599
0.4286535 0.2746830 0.2708688
0.4447471 0.2891646 0.2862323
0.4607897 0.3039633 0.3017153
0.4767927 0.3190100 0.3172903
0.4927651 0.3342493 0.3329360
0.5087140 0.3496374 0.3486357
0.5246449 0.3651400 0.3643768
0.5405620 0.3807305 0.3801494
0.5564686 0.3963882 0.3959460
0.5723672 0.4120972 0.4117609
0.5882596 0.4278455 0.4275898
0.6041474 0.4436236 0.4434292
0.6200317 0.4594245 0.4592767
0.6359132 0.4752426 0.4751304
0.6517927 0.4910740 0.4909887
0.6676707 0.5069153 0.5068505
0.6835474 0.5227643 0.5227150
0.6994233 0.5386190 0.5385816
0.7152985 0.5544781 0.5544497
0.7311731 0.5703406 0.5703190
0.7470474 0.5862056 0.5861892
0.7629213 0.6020725 0.6020600
0.7787951 0.6179409 0.6179314
0.7946686 0.6338104 0.6338032
0.8105421 0.6496807 0.6496753
0.8264154 0.6655517 0.6655476
0.8422887 0.6814232 0.6814201
0.8581618 0.6972951 0.6972927
0.8740350 0.7131672 0.7131654
0.8899081 0.7290395 0.7290381
0.9057812 0.7449120 0.7449110
0.9216543 0.7607847 0.7607839
0.9375274 0.7766574 0.7766568
0.9534004 0.7925302 0.7925297
0.9692735 0.8084030 0.8084027
0.9851465 0.8242759 0.8242756
1.0010195 0.8401488 0.8401486
1.0168925 0.8560218 0.8560216
0.0949124 0.1747446 0.0949124
0.0970356 0.1747291 0.0952018
0.0997568 0.1747102 0.0955808
0.1032178 0.1746878 0.0960759
0.1075785 0.1746626 0.0967214
0.1130097 0.1746365 0.0975606
0.1196815 0.1746139 0.0986472
0.1277458 0.1746032 0.1000475
0.1373151 0.1746196 0.1018410
0.1484409 0.1746888 0.1041209
0.1610966 0.1748518 0.1069920
0.1751713 0.1751713 0.1105674
0.1904767 0.1757370 0.1149613
0.2067680 0.1766700 0.1202802
0.2237744 0.1781228 0.1266112
0.2412302 0.1802717 0.1340120
0.2589024 0.1833022 0.1425024
0.2766072 0.1873874 0.1520617
0.2942159 0.1926649 0.1626319
0.3116508 0.1992179 0.1741253
0.3288758 0.2070662 0.1864353
0.3458848 0.2161683 0.1994476
0.3626907 0.2264329 0.2130492
0.3793160 0.2377353 0.2271356
0.3957874 0.2499353 0.2416138
0.4121313 0.2628909 0.2564045
0.4283717 0.2764688 0.2714417
0.4445297 0.2905501 0.2866718
0.4606225 0.3050330 0.3020517
0.4766645 0.3198328 0.3175473
0.4926671 0.3348803 0.3331320
0.5086392 0.3501202 0.3487851
0.5245878 0.3655088 0.3644906
0.5405186 0.3810118 0.3802360
0.5564355 0.3966025 0.3960119
0.5723420 0.4122605 0.4118110
0.5882405 0.4279697 0.4276279
0.6041329 0.4437181 0.4434582
0.6200206 0.4594963 0.4592987
0.6359048 0.4752972 0.4751471
0.6517863 0.4911155 0.4910014
0.6676658 0.5069468 0.5068602
0.6835437 0.5227882 0.5227224
0.6994205 0.5386372 0.5385872
0.7152963 0.5544919 0.5544539
0.7311715 0.5703511 0.5703222
0.7470461 0.5862136 0.5861916
0.7629204 0.6020786 0.6020619
0.7787944 0.6179455 0.6179328
0.7946681 0.6338139 0.6338043
0.8105417 0.6496834 0.6496761
0.8264151 0.6655537 0.6655482
0.8422884 0.6814247 0.6814205
0.8581617 0.6972962 0.6972930
0.8740349 0.7131681 0.7131656
0.8899080 0.7290402 0.7290383
0.9057811 0.7449125 0.7449111
0.9216542 0.7607850 0.7607840
0.9375273 0.7766577 0.7766569
0.9534004 0.7925304 0.7925298
0.9692734 0.8084032 0.8084027
0.9851465 0.8242760 0.8242757
1.0010195 0.8401489 0.8401486
1.0168925 0.8560218 0.8560216
0.1090009 0.1906378 0.1090009
0.1106517 0.1906251 0.1092281
0.1127800 0.1906091 0.1095258
0.1155075 0.1905896 0.1099154
0.1189764 0.1905665 0.1104245
0.1233465 0.1905403 0.1110880
0.1287887 0.1905130 0.1119501
0.1354731 0.1904889 0.1130659
0.1435513 0.1904763 0.1145029
0.1531354 0.1904905 0.1163421
0.1642760 0.1905570 0.1186778
0.1769460 0.1907172 0.1216158
0.1910335 0.1910335 0.1252695
0.2063494 0.1915958 0.1297527
0.2226489 0.1925258 0.1351703
0.2396608 0.1939759 0.1416068
0.2571197 0.1961228 0.1491161
0.2747930 0.1991523 0.1577142
0.2924975 0.2032374 0.1673766
0.3101047 0.2085157 0.1780417
0.3275377 0.2150704 0.1896199
0.3447607 0.2229209 0.2020034
0.3617677 0.2320254 0.2150777
0.3785717 0.2422924 0.2287307
0.3951954 0.2535972 0.2428588
0.4116655 0.2657993 0.2573703
0.4280083 0.2787567 0.2721874
0.4442478 0.2923360 0.2872454
0.4604051 0.3064186 0.3024916
0.4764974 0.3209025 0.3178839
