ocio/AgXc_default_OCIO-v2/LUTs/AgX-tonescale-2-look.spi1d
Version 1
From 0.0000000 1.0000000
Length 4096
Components 1
{
 0.0000000
 0.0000012
 0.0000039
 0.0000079
 0.0000129
 0.0000190
 0.0000261
 0.0000341
 0.0000429
 0.0000527
 0.0000632
 0.0000745
 0.0000867
 0.0000996
 0.0001132
 0.0001276
 0.0001426
 0.0001584
 0.0001749
 0.0001921
 0.0002099
 0.0002284
 0.0002476
 0.0002674
 0.0002878
 0.0003089
 0.0003306
 0.0003530
 0.0003759
 0.0003995
 0.0004236
 0.0004484
 0.0004737
 0.0004996
 0.0005261
 0.0005532
 0.0005809
 0.0006091
 0.0006379
 0.0006672
 0.0006971
 0.0007276
 0.0007586
 0.0007901
 0.0008222
 0.0008549
 0.0008880
 0.0009217
 0.0009559
 0.0009907
 0.0010260
 0.0010618
 0.0010981
 0.0011349
 0.0011722
 0.0012101
 0.0012484
 0.0012873
 0.0013266
 0.0013665
 0.0014068
 0.0014477
 0.0014890
 0.0015309
 0.0015732
 0.0016160
 0.0016593
 0.0017031
 0.0017473
 0.0017921
 0.0018373
 0.0018830
 0.0019291
 0.0019758
 0.0020229
 0.0020704
 0.0021185
 0.0021670
 0.0022159
 0.0022654
 0.0023152
 0.0023656
 0.0024164
 0.0024676
 0.0025194
 0.0025715
 0.0026241
 0.0026772
 0.0027307
 0.0027847
 0.0028391
 0.0028939
 0.0029492
 0.0030049
 0.0030611
 0.0031177
 0.0031748
 0.0032322
 0.0032902
 0.0033485
 0.0034073
 0.0034665
 0.0035262
 0.0035862
 0.0036468
 0.0037077
 0.0037690
 0.0038308
 0.0038930
 0.0039557
 0.0040187
 0.0040822
 0.0041461
 0.0042104
 0.0042751
 0.0043403
 0.0044058
 0.0044718
 0.0045382
 0.0046050
 0.0046722
 0.0047399
 0.0048079
 0.0048763
 0.0049452
 0.0050145
 0.0050841
 0.0051542
 0.0052247
 0.0052956
 0.0053669
 0.0054385
 0.0055106
 0.0055831
 0.0056560
 0.0057293
 0.0058030
 0.0058771
 0.0059516
 0.0060265
 0.0061017
 0.0061774
 0.0062535
 0.0063299
 0.0064068
 0.0064840
 0.0065616
 0.0066396
 0.0067181
 0.0067969
 0.0068760
 0.0069556
 0.0070356
 0.0071159
 0.0071966
 0.0072778
 0.0073593
 0.0074411
 0.0075234
 0.0076060
 0.0076891
 0.0077725
 0.0078563
 0.0079404
 0.0080250
 0.0081099
 0.0081952
 0.0082809
 0.0083669
 0.0084534
 0.0085402
 0.0086273
 0.0087149
 0.0088028
 0.0088911
 0.0089798
 0.0090688
 0.0091582
 0.0092480
 0.0093382
 0.0094287
 0.0095196
 0.0096109
 0.0097025
 0.0097945
 0.0098868
 0.0099796
 0.0100727
 0.0101661
 0.0102599
 0.0103541
 0.0104487
 0.0105436
 0.0106388
 0.0107345
 0.0108305
 0.0109268
 0.0110236
 0.0111206
 0.0112181
 0.0113159
 0.0114140
 0.0115125
 0.0116114
 0.0117106
 0.0118102
 0.0119102
 0.0120105
 0.0121111
 0.0122121
 0.0123135
 0.0124152
 0.0125172
 0.0126197
 0.0127224
 0.0128256
 0.0129290
 0.0130329
 0.0131370
 0.0132416
 0.0133464
 0.0134517
 0.0135572
 0.0136632
 0.0137694
 0.0138761
 0.0139830
 0.0140903
 0.0141980
 0.0143060
 0.0144143
 0.0145230
 0.0146321
 0.0147415
 0.0148512
 0.0149613
 0.0150717
 0.0151825
 0.0152936
 0.0154050
 0.0155168
 0.0156289
 0.0157414
 0.0158542
 0.0159673
 0.0160808
 0.0161947
 0.0163088
 0.0164233
 0.0165382
 0.0166534
 0.0167689
 0.0168847
 0.0170009
 0.0171175
 0.0172343
 0.0173515
 0.0174691
 0.0175869
 0.0177051
 0.0178237
 0.0179426
 0.0180618
 0.0181813
 0.0183012
 0.0184214
 0.0185419
 0.0186628
 0.0187840
 0.0189055
 0.0190274
 0.0191496
 0.0192721
 0.0193950
 0.0195182
 0.0196417
 0.0197655
 0.0198897
 0.0200142
 0.0201391
 0.0202642
 0.0203897
 0.0205155
 0.0206417
 0.0207681
 0.0208949
 0.0210220
 0.0211495
 0.0212773
 0.0214054
 0.0215338
 0.0216625
 0.0217916
 0.0219210
 0.0220507
 0.0221807
 0.0223111
 0.0224418
 0.0225728
 0.0227041
 0.0228358
 0.0229677
 0.0231000
 0.0232326
 0.0233656
 0.0234988
 0.0236324
 0.0237663
 0.0239005
 0.0240351
 0.0241699
 0.0243051
 0.0244406
 0.0245764
 0.0247125
 0.0248489
 0.0249857
 0.0251228
 0.0252602
 0.0253979
 0.0255359
 0.0256743
 0.0258129
 0.0259519
 0.0260912
 0.0262308
 0.0263707
 0.0265109
 0.0266515
 0.0267923
 0.0269335
 0.0270750
 0.0272168
 0.0273589
 0.0275013
 0.0276441
 0.0277871
 0.0279305
 0.0280742
 0.0282182
 0.0283625
 0.0285071
 0.0286520
 0.0287972
 0.0289427
 0.0290886
 0.0292347
 0.0293812
 0.0295280
 0.0296751
 0.0298225
 0.0299702
 0.0301182
 0.0302665
 0.0304151
 0.0305641
 0.0307133
 0.0308629
 0.0310127
 0.0311629
 0.0313133
 0.0314641
 0.0316152
 0.0317666
 0.0319183
 0.0320703
 0.0322226
 0.0323752
 0.0325281
 0.0326813
 0.0328348
 0.0329886
 0.0331428
 0.0332972
 0.0334519
 0.0336070
 0.0337623
 0.0339179
 0.0340739
 0.0342301
 0.0343867
 0.0345435
 0.0347007
 0.0348581
 0.0350159
 0.0351739
 0.0353323
 0.0354910
 0.0356499
 0.0358092
 0.0359687
 0.0361286
 0.0362887
 0.0364492
 0.0366099
 0.0367710
 0.0369323
 0.0370940
 0.0372559
 0.0374182
 0.0375807
 0.0377436
 0.0379067
 0.0380701
 0.0382339
 0.0383979
 0.0385622
 0.0387268
 0.0388918
 0.0390570
 0.0392225
 0.0393883
 0.0395544
 0.0397208
 0.0398875
 0.0400545
 0.0402217
 0.0403893
 0.0405572
 0.0407253
 0.0408938
 0.0410626
 0.0412316
 0.0414009
 0.0415706
 0.0417405
 0.0419107
 0.0420812
 0.0422520
 0.0424231
 0.0425945
 0.0427662
 0.0429381
 0.0431104
 0.0432830
 0.0434558
 0.0436289
 0.0438024
 0.0439761
 0.0441501
 0.0443244
 0.0444990
 0.0446738
 0.0448490
 0.0450245
 0.0452002
 0.0453762
 0.0455526
 0.0457292
 0.0459061
 0.0460833
 0.0462607
 0.0464385
 0.0466166
 0.0467949
 0.0469735
 0.0471524
 0.0473316
 0.0475111
 0.0476909
 0.0478710
 0.0480513
 0.0482320
 0.0484129
 0.0485941
 0.0487756
 0.0489574
 0.0491394
 0.0493218
 0.0495044
 0.0496874
 0.0498706
 0.0500541
 0.0502378
 0.0504219
 0.0506062
 0.0507909
 0.0509758
 0.0511610
 0.0513465
 0.0515322
 0.0517183
 0.0519046
 0.0520912
 0.0522781
 0.0524653
 0.0526528
 0.0528405
 0.0530286
 0.0532169
 0.0534055
 0.0535943
 0.0537835
 0.0539729
 0.0541626
 0.0543526
 0.0545429
 0.0547335
 0.0549243
 0.0551154
 0.0553069
 0.0554985
 0.0556905
 0.0558827
 0.0560753
 0.0562681
 0.0564612
 0.0566545
 0.0568482
 0.0570421
 0.0572363
 0.0574308
 0.0576255
 0.0578206
 0.0580159
 0.0582115
 0.0584073
 0.0586035
 0.0587999
 0.0589966
 0.0591936
 0.0593908
 0.0595884
 0.0597862
 0.0599843
 0.0601826
 0.0603813
 0.0605802
 0.0607794
 0.0609789
 0.0611786
 0.0613787
 0.0615790
 0.0617795
 0.0619804
 0.0621815
 0.0623829
 0.0625846
 0.0627865
 0.0629888
 0.0631913
 0.0633940
 0.0635971
 0.0638004
 0.0640040
 0.0642079
 0.0644120
 0.0646165
 0.0648211
 0.0650261
 0.0652314
 0.0654369
 0.0656427
 0.0658487
 0.0660550
 0.0662617
 0.0664685
 0.0666757
 0.0668831
 0.0670908
 0.0672988
 0.0675070
 0.0677155
 0.0679243
 0.0681334
 0.0683427
 0.0685523
 0.0687621
 0.0689723
 0.0691827
 0.0693934
 0.0696043
 0.0698155
 0.0700270
 0.0702388
 0.0704508
 0.0706631
 0.0708757
 0.0710885
 0.0713017
 0.0715150
 0.0717287
 0.0719426
 0.0721568
 0.0723712
 0.0725860
 0.0728010
 0.0730162
 0.0732318
 0.0734476
 0.0736636
 0.0738800
 0.0740966
 0.0743134
 0.0745306
 0.0747480
 0.0749657
 0.0751836
 0.0754018
 0.0756203
 0.0758390
 0.0760580
 0.0762773
 0.0764969
 0.0767167
 0.0769368
 0.0771571
 0.0773777
 0.0775986
 0.0778197
 0.0780411
 0.0782628
 0.0784847
 0.0787069
 0.0789294
 0.0791522
 0.0793752
 0.0795984
 0.0798219
 0.0800457
 0.0802698
 0.0804941
 0.0807187
 0.0809436
 0.0811687
 0.0813941
 0.0816197
 0.0818456
 0.0820718
 0.0822982
 0.0825249
 0.0827519
 0.0829791
 0.0832066
 0.0834344
 0.0836624
 0.0838907
 0.0841192
 0.0843480
 0.0845771
 0.0848064
 0.0850360
 0.0852658
 0.0854960
 0.0857263
 0.0859570
 0.0861879
 0.0864190
 0.0866505
 0.0868822
 0.0871141
 0.0873463
 0.0875788
 0.0878115
 0.0880445
 0.0882778
 0.0885113
 0.0887450
 0.0889791
 0.0892134
 0.0894479
 0.0896827
 0.0899178
 0.0901531
 0.0903887
 0.0906246
 0.0908607
 0.0910971
 0.0913337
 0.0915706
 0.0918078
 0.0920452
 0.0922828
 0.0925208
 0.0927590
 0.0929974
 0.0932361
 0.0934751
 0.0937143
 0.0939538
 0.0941935
 0.0944335
 0.0946738
 0.0949143
 0.0951550
 0.0953961
 0.0956374
 0.0958789
 0.0961207
 0.0963628
 0.0966051
 0.0968476
 0.0970905
 0.0973336
 0.0975769
 0.0978205
 0.0980644
 0.0983085
 0.0985528
 0.0987975
 0.0990423
 0.0992875
 0.0995329
 0.0997785
 0.1000244
 0.1002706
 0.1005170
 0.1007637
 0.1010106
 0.1012578
 0.1015052
 0.1017529
 0.1020009
 0.1022491
 0.1024975
 0.1027462
 0.1029952
 0.1032444
 0.1034939
 0.1037436
 0.1039936
 0.1042438
 0.1044943
 0.1047451
 0.1049961
 0.1052473
 0.1054988
 0.1057506
 0.1060026
 0.1062549
 0.1065074
 0.1067602
 0.1070132
 0.1072665
 0.1075200
 0.1077738
 0.1080279
 0.1082821
 0.1085367
 0.1087915
 0.1090465
 0.1093018
 0.1095574
 0.1098132
 0.1100693
 0.1103256
 0.1105821
 0.1108389
 0.1110960
 0.1113533
 0.1116109
 0.1118687
 0.1121268
 0.1123851
 0.1126437
 0.1129025
 0.1131616
 0.1134209
 0.1136805
 0.1139403
 0.1142004
 0.1144607
 0.1147213
 0.1149821
 0.1152432
 0.1155045
 0.1157661
 0.1160279
 0.1162900
 0.1165524
 0.1168149
 0.1170778
 0.1173408
 0.1176042
 0.1178677
 0.1181316
 0.1183956
 0.1186600
 0.1189245
 0.1191894
 0.1194544
 0.1197198
 0.1199853
 0.1202511
 0.1205172
 0.1207835
 0.1210501
 0.1213169
 0.1215840
 0.1218513
 0.1221188
 0.1223866
 0.1226547
 0.1229230
 0.1231915
 0.1234603
 0.1237294
 0.1239986
 0.1242682
 0.1245380
 0.1248080
 0.1250783
 0.1253488
 0.1256196
 0.1258906
 0.1261619
 0.1264334
 0.1267051
 0.1269771
 0.1272494
 0.1275219
 0.1277946
 0.1280676
 0.1283408
 0.1286143
 0.1288881
 0.1291620
 0.1294362
 0.1297107
 0.1299854
 0.1302604
 0.1305356
 0.1308110
 0.1310867
 0.1313627
 0.1316388
 0.1319153
 0.1321919
 0.1324689
 0.1327460
 0.1330234
 0.1333011
 0.1335790
 0.1338571
 0.1341355
 0.1344141
 0.1346930
 0.1349721
 0.1352515
 0.1355311
 0.1358109
 0.1360910
 0.1363714
 0.1366520
 0.1369328
 0.1372138
 0.1374952
 0.1377767
 0.1380585
 0.1383406
 0.1386228
 0.1389054
 0.1391881
 0.1394712
 0.1397544
 0.1400379
 0.1403217
 0.1406056
 0.1408899
 0.1411743
 0.1414591
 0.1417440
 0.1420292
 0.1423146
 0.1426003
 0.1428862
 0.1431724
 0.1434588
 0.1437455
 0.1440324
 0.1443195
 0.1446069
 0.1448945
 0.1451823
 0.1454704
 0.1457588
 0.1460474
 0.1463362
 0.1466252
 0.1469145
 0.1472041
 0.1474939
 0.1477839
 0.1480742
 0.1483647
 0.1486554
 0.1489464
 0.1492376
 0.1495291
 0.1498208
 0.1501128
 0.1504050
 0.1506974
 0.1509901
 0.1512830
 0.1515761
 0.1518695
 0.1521631
 0.1524570
 0.1527511
 0.1530455
 0.1533400
 0.1536349
 0.1539299
 0.1542252
 0.1545208
 0.1548166
 0.1551126
 0.1554089
 0.1557054
 0.1560021
 0.1562991
 0.1565963
 0.1568937
 0.1571914
 0.1574894
 0.1577875
 0.1580859
 0.1583846
 0.1586835
 0.1589826
 0.1592819
 0.1595815
 0.1598814
 0.1601815
 0.1604818
 0.1607823
 0.1610831
 0.1613841
 0.1616854
 0.1619869
 0.1622886
 0.1625906
 0.1628928
 0.1631952
 0.1634979
 0.1638009
 0.1641040
 0.1644074
 0.1647110
 0.1650149
 0.1653190
 0.1656234
 0.1659279
 0.1662327
 0.1665378
 0.1668431
 0.1671486
 0.1674544
 0.1677604
 0.1680666
 0.1683731
 0.1686798
 0.1689867
 0.1692939
 0.1696013
 0.1699089
 0.1702168
 0.1705249
 0.1708333
 0.1711419
 0.1714507
 0.1717597
 0.1720690
 0.1723786
 0.1726883
 0.1729983
 0.1733086
 0.1736190
 0.1739297
 0.1742407
 0.1745518
 0.1748633
 0.1751749
 0.1754868
 0.1757989
 0.1761112
 0.1764238
 0.1767366
 0.1770497
 0.1773629
 0.1776765
 0.1779902
 0.1783042
 0.1786184
 0.1789329
 0.1792475
 0.1795625
 0.1798776
 0.1801930
 0.1805086
 0.1808245
 0.1811405
 0.1814569
 0.1817734
 0.1820902
 0.1824072
 0.1827245
 0.1830419
 0.1833597
 0.1836776
 0.1839958
 0.1843142
 0.1846328
 0.1849517
 0.1852708
 0.1855902
 0.1859098
 0.1862296
 0.1865496
 0.1868699
 0.1871904
 0.1875111
 0.1878321
 0.1881533
 0.1884747
 0.1887964
 0.1891183
 0.1894404
 0.1897628
 0.1900854
 0.1904082
 0.1907312
 0.1910545
 0.1913780
 0.1917018
 0.1920258
 0.1923500
 0.1926744
 0.1929991
 0.1933240
 0.1936491
 0.1939745
 0.1943001
 0.1946259
 0.1949520
 0.1952782
 0.1956048
 0.1959315
 0.1962585
 0.1965857
 0.1969131
 0.1972408
 0.1975687
 0.1978968
 0.1982252
 0.1985538
 0.1988826
 0.1992116
 0.1995409
 0.1998704
 0.2002002
 0.2005301
 0.2008603
 0.2011908
 0.2015214
 0.2018523
 0.2021834
 0.2025148
 0.2028463
 0.2031781
 0.2035102
 0.2038424
 0.2041749
 0.2045076
 0.2048406
 0.2051738
 0.2055072
 0.2058408
 0.2061747
 0.2065088
 0.2068431
 0.2071776
 0.2075124
 0.2078474
 0.2081827
 0.2085181
 0.2088538
 0.2091897
 0.2095259
 0.2098622
 0.2101988
 0.2105357
 0.2108727
 0.2112100
 0.2115475
 0.2118853
 0.2122232
 0.2125614
 0.2128999
 0.2132385
 0.2135774
 0.2139165
 0.2142558
 0.2145954
 0.2149352
 0.2152752
 0.2156154
 0.2159559
 0.2162966
 0.2166375
 0.2169787
 0.2173200
 0.2176616
 0.2180035
 0.2183455
 0.2186878
 0.2190303
 0.2193731
 0.2197160
 0.2200592
 0.2204026
 0.2207463
 0.2210901
 0.2214342
 0.2217785
 0.2221231
 0.2224679
 0.2228129
 0.2231581
 0.2235035
 0.2238492
 0.2241951
 0.2245412
 0.2248876
 0.2252342
 0.2255810
 0.2259280
 0.2262752
 0.2266227
 0.2269704
 0.2273183
 0.2276665
 0.2280149
 0.2283635
 0.2287123
 0.2290614
 0.2294106
 0.2297601
 0.2301099
 0.2304598
 0.2308100
 0.2311604
 0.2315110
 0.2318619
 0.2322130
 0.2325643
 0.2329158
 0.2332675
 0.2336195
 0.2339717
 0.2343241
 0.2346768
 0.2350296
 0.2353827
 0.2357361
 0.2360896
 0.2364434
 0.2367974
 0.2371516
 0.2375060
 0.2378607
 0.2382156
 0.2385707
 0.2389260
 0.2392815
 0.2396373
 0.2399933
 0.2403495
 0.2407060
 0.2410627
 0.2414196
 0.2417767
 0.2421340
 0.2424916
 0.2428494
 0.2432074
 0.2435656
 0.2439241
 0.2442827
 0.2446416
 0.2450008
 0.2453601
 0.2457197
 0.2460795
 0.2464395
 0.2467997
 0.2471602
 0.2475208
 0.2478817
 0.2482429
 0.2486042
 0.2489658
 0.2493276
 0.2496896
 0.2500518
 0.2504143
 0.2507769
 0.2511398
 0.2515030
 0.2518663
 0.2522299
 0.2525936
 0.2529577
 0.2533219
 0.2536863
 0.2540510
 0.2544159
 0.2547810
 0.2551463
 0.2555119
 0.2558777
 0.2562437
 0.2566099
 0.2569763
 0.2573430
 0.2577099
 0.2580770
 0.2584443
 0.2588118
 0.2591796
 0.2595476
 0.2599158
 0.2602842
 0.2606529
 0.2610217
 0.2613908
 0.2617601
 0.2621297
 0.2624994
 0.2628694
 0.2632396
 0.2636100
 0.2639806
 0.2643514
 0.2647225
 0.2650938
 0.2654653
 0.2658370
 0.2662090
 0.2665812
 0.2669535
 0.2673262
 0.2676990
 0.2680720
 0.2684453
 0.2688188
 0.2691925
 0.2695664
 0.2699405
 0.2703149
 0.2706895
 0.2710643
 0.2714393
 0.2718145
 0.2721900
 0.2725657
 0.2729416
 0.2733177
 0.2736940
 0.2740706
 0.2744473
 0.2748243
 0.2752015
 0.2755790
 0.2759566
 0.2763345
 0.2767126
 0.2770909
 0.2774694
 0.2778481
 0.2782271
 0.2786062
 0.2789856
 0.2793652
 0.2797451
 0.2801251
 0.2805054
 0.2808859
 0.2812666
 0.2816475
 0.2820286
 0.2824100
 0.2827915
 0.2831733
 0.2835553
 0.2839376
 0.2843200
 0.2847027
 0.2850855
 0.2854686
 0.2858519
 0.2862355
 0.2866192
 0.2870032
 0.2873874
 0.2877717
 0.2881564
 0.2885412
 0.2889262
 0.2893115
 0.2896970
 0.2900827
 0.2904686
 0.2908547
 0.2912411
 0.2916276
 0.2920144
 0.2924014
 0.2927886
 0.2931761
 0.2935637
 0.2939516
 0.2943397
 0.2947280
 0.2951165
 0.2955052
 0.2958942
 0.2962833
 0.2966727
 0.2970623
 0.2974521
 0.2978421
 0.2982324
 0.2986228
 0.2990135
 0.2994044
 0.2997955
 0.3001868
 0.3005783
 0.3009701
 0.3013621
 0.3017542
 0.3021466
 0.3025393
 0.3029321
 0.3033251
 0.3037184
 0.3041119
 0.3045056
 0.3048995
 0.3052936
 0.3056879
 0.3060825
 0.3064772
 0.3068722
 0.3072674
 0.3076628
 0.3080585
 0.3084543
 0.3088503
 0.3092466
 0.3096431
 0.3100398
 0.3104367
 0.3108338
 0.3112312
 0.3116287
 0.3120265
 0.3124245
 0.3128227
 0.3132211
 0.3136197
 0.3140186
 0.3144176
 0.3148169
 0.3152164
 0.3156161
 0.3160160
 0.3164161
 0.3168165
 0.3172170
 0.3176178
 0.3180188
 0.3184200
 0.3188214
 0.3192230
 0.3196249
 0.3200269
 0.3204292
 0.3208317
 0.3212343
 0.3216372
 0.3220404
 0.3224437
 0.3228472
 0.3232510
 0.3236550
 0.3240592
 0.3244636
 0.3248682
 0.3252730
 0.3256780
 0.3260833
 0.3264887
 0.3268944
 0.3273003
 0.3277064
 0.3281127
 0.3285192
 0.3289260
 0.3293329
 0.3297401
 0.3301475
 0.3305551
 0.3309629
 0.3313709
 0.3317791
 0.3321875
 0.3325962
 0.3330051
 0.3334141
 0.3338234
 0.3342329
 0.3346426
 0.3350525
 0.3354627
 0.3358730
 0.3362836
 0.3366944
 0.3371053
 0.3375165
 0.3379279
 0.3383396
 0.3387514
 0.3391634
 0.3395757
 0.3399882
 0.3404008
 0.3408137
 0.3412268
 0.3416401
 0.3420537
 0.3424674
 0.3428813
 0.3432955
 0.3437099
 0.3441244
 0.3445392
 0.3449542
 0.3453694
 0.3457849
 0.3462005
 0.3466163
 0.3470324
 0.3474487
 0.3478651
 0.3482818
 0.3486987
 0.3491158
 0.3495332
 0.3499507
 0.3503684
 0.3507864
 0.3512046
 0.3516229
 0.3520415
 0.3524603
 0.3528793
 0.3532985
 0.3537180
 0.3541376
 0.3545574
 0.3549775
 0.3553978
 0.3558182
 0.3562389
 0.3566598
 0.3570809
 0.3575022
 0.3579238
 0.3583455
 0.3587674
 0.3591896
 0.3596120
 0.3600345
 0.3604573
 0.3608803
 0.3613035
 0.3617269
 0.3621506
 0.3625744
 0.3629984
 0.3634227
 0.3638471
 0.3642718
 0.3646967
 0.3651218
 0.3655471
 0.3659726
 0.3663983
 0.3668242
 0.3672503
 0.3676767
 0.3681032
 0.3685300
 0.3689570
 0.3693842
 0.3698115
 0.3702391
 0.3706669
 0.3710950
 0.3715232
 0.3719516
 0.3723802
 0.3728091
 0.3732382
 0.3736674
 0.3740969
 0.3745266
 0.3749565
 0.3753866
 0.3758169
 0.3762474
 0.3766781
 0.3771090
 0.3775402
 0.3779715
 0.3784031
 0.3788348
 0.3792668
 0.3796990
 0.3801314
 0.3805640
 0.3809968
 0.3814298
 0.3818630
 0.3822964
 0.3827301
 0.3831639
 0.3835980
 0.3840322
 0.3844667
 0.3849014
 0.3853362
 0.3857713
 0.3862066
 0.3866421
 0.3870778
 0.3875138
 0.3879499
 0.3883862
 0.3888228
 0.3892595
 0.3896965
 0.3901336
 0.3905710
 0.3910086
 0.3914463
 0.3918843
 0.3923225
 0.3927609
 0.3931995
 0.3936384
 0.3940774
 0.3945166
 0.3949560
 0.3953956
 0.3958352
 0.3962747
 0.3967143
 0.3971538
 0.3975934
 0.3980330
 0.3984725
 0.3989121
 0.3993516
 0.3997912
 0.4002308
 0.4006703
 0.4011099
 0.4015495
 0.4019890
 0.4024286
 0.4028681
 0.4033077
 0.4037473
 0.4041868
 0.4046264
 0.4050659
 0.4055055
 0.4059451
 0.4063846
 0.4068242
 0.4072637
 0.4077033
 0.4081429
 0.4085824
 0.4090220
 0.4094615
 0.4099011
 0.4103407
 0.4107802
 0.4112198
 0.4116593
 0.4120989
 0.4125385
 0.4129780
 0.4134176
 0.4138571
 0.4142967
 0.4147363
 0.4151758
 0.4156154
 0.4160549
 0.4164945
 0.4169341
 0.4173736
 0.4178132
 0.4182527
 0.4186923
 0.4191319
 0.4195714
 0.4200110
 0.4204505
 0.4208901
 0.4213297
 0.4217692
 0.4222088
 0.4226484
 0.4230879
 0.4235275
 0.4239670
 0.4244066
 0.4248462
 0.4252857
 0.4257253
 0.4261648
 0.4266044
 0.4270440
 0.4274835
 0.4279231
 0.4283626
 0.4288022
 0.4292418
 0.4296813
 0.4301209
 0.4305604
 0.4310000
 0.4314396
 0.4318791
 0.4323187
 0.4327582
 0.4331978
 0.4336374
 0.4340769
 0.4345165
 0.4349560
 0.4353956
 0.4358352
 0.4362747
 0.4367143
 0.4371538
 0.4375934
 0.4380330
 0.4384725
 0.4389121
 0.4393516
 0.4397912
 0.4402308
 0.4406703
 0.4411099
 0.4415495
 0.4419890
 0.4424286
 0.4428681
 0.4433077
 0.4437473
 0.4441868
 0.4446264
 0.4450659
 0.4455055
 0.4459451
 0.4463846
 0.4468242
 0.4472637
 0.4477033
 0.4481429
 0.4485824
 0.4490220
 0.4494615
 0.4499011
 0.4503407
 0.4507802
 0.4512198
 0.4516593
 0.4520989
 0.4525385
 0.4529780
 0.4534176
 0.4538571
 0.4542967
 0.4547363
 0.4551758
 0.4556154
 0.4560549
 0.4564945
 0.4569341
 0.4573736
 0.4578132
 0.4582527
 0.4586923
 0.4591319
 0.4595714
 0.4600110
 0.4604505
 0.4608901
 0.4613297
 0.4617692
 0.4622088
 0.4626484
 0.4630879
 0.4635275
 0.4639670
 0.4644066
 0.4648462
 0.4652857
 0.4657253
 0.4661648
 0.4666044
 0.4670440
 0.4674835
 0.4679231
 0.4683626
 0.4688022
 0.4692418
 0.4696813
 0.4701209
 0.4705604
 0.4710000
 0.4714396
 0.4718791
 0.4723187
 0.4727582
 0.4731978
 0.4736374
 0.4740769
 0.4745165
 0.4749560
 0.4753956
 0.4758352
 0.4762747
 0.4767143
 0.4771538
 0.4775934
 0.4780330
 0.4784725
 0.4789121
 0.4793516
 0.4797912
 0.4802308
 0.4806703
 0.4811099
 0.4815495
 0.4819890
 0.4824286
 0.4828681
 0.4833077
 0.4837473
 0.4841868
 0.4846264
 0.4850659
 0.4855055
 0.4859451
 0.4863846
 0.4868242
 0.4872637
 0.4877033
 0.4881429
 0.4885824
 0.4890220
 0.4894615
 0.4899011
 0.4903407
 0.4907802
 0.4912198
 0.4916593
 0.4920989
 0.4925385
 0.4929780
 0.4934176
 0.4938571
 0.4942967
 0.4947363
 0.4951758
 0.4956154
 0.4960549
 0.4964945
 0.4969341
 0.4973736
 0.4978132
 0.4982527
 0.4986923
 0.4991319
 0.4995714
 0.5000110
 0.5004505
 0.5008901
 0.5013297
 0.5017692
 0.5022088
 0.5026484
 0.5030879
 0.5035275
 0.5039670
 0.5044066
 0.5048462
 0.5052857
 0.5057253
 0.5061648
 0.5066044
 0.5070440
 0.5074835
 0.5079231
 0.5083626
 0.5088022
 0.5092418
 0.5096813
 0.5101209
 0.5105604
 0.5110000
 0.5114396
 0.5118791
 0.5123187
 0.5127582
 0.5131978
 0.5136374
 0.5140769
 0.5145165
 0.5149560
 0.5153956
 0.5158352
 0.5162747
 0.5167143
 0.5171538
 0.5175934
 0.5180330
 0.5184725
 0.5189121
 0.5193516
 0.5197912
 0.5202308
 0.5206703
 0.5211099
 0.5215495
 0.5219890
 0.5224286
 0.5228681
 0.5233077
 0.5237473
 0.5241868
 0.5246264
 0.5250659
 0.5255055
 0.5259451
 0.5263846
 0.5268242
 0.5272637
 0.5277033
 0.5281429
 0.5285824
 0.5290220
 0.5294615
 0.5299011
 0.5303407
 0.5307802
 0.5312198
 0.5316593
 0.5320989
 0.5325385
 0.5329780
 0.5334176
 0.5338571
 0.5342967
 0.5347363
 0.5351758
 0.5356154
 0.5360549
 0.5364945
 0.5369341
 0.5373736
 0.5378132
 0.5382527
 0.5386923
 0.5391319
 0.5395714
 0.5400110
 0.5404505
 0.5408901
 0.5413297
 0.5417692
 0.5422088
 0.5426484
 0.5430879
 0.5435275
 0.5439670
 0.5444066
 0.5448462
 0.5452857
 0.5457253
 0.5461648
 0.5466044
 0.5470440
 0.5474835
 0.5479231
 0.5483626
 0.5488022
 0.5492418
 0.5496813
 0.5501209
 0.5505604
 0.5510000
 0.5514396
 0.5518791
 0.5523187
 0.5527582
 0.5531978
 0.5536374
 0.5540769
 0.5545165
 0.5549560
 0.5553956
 0.5558352
 0.5562747
 0.5567143
 0.5571538
 0.5575934
 0.5580330
 0.5584725
 0.5589121
 0.5593516
 0.5597912
 0.5602308
 0.5606703
 0.5611099
 0.5615495
 0.5619890
 0.5624286
 0.5628681
 0.5633077
 0.5637473
 0.5641868
 0.5646264
 0.5650659
 0.5655055
 0.5659451
 0.5663846
 0.5668242
 0.5672637
 0.5677033
 0.5681429
 0.5685824
 0.5690220
 0.5694615
 0.5699011
 0.5703407
 0.5707802
 0.5712198
 0.5716593
 0.5720989
 0.5725385
 0.5729780
 0.5734176
 0.5738571
 0.5742967
 0.5747363
 0.5751758
 0.5756154
 0.5760549
 0.5764945
 0.5769341
 0.5773736
 0.5778132
 0.5782527
 0.5786923
 0.5791319
 0.5795714
 0.5800110
 0.5804505
 0.5808901
 0.5813297
 0.5817692
 0.5822088
 0.5826484
 0.5830879
 0.5835275
 0.5839670
 0.5844066
 0.5848462
 0.5852857
 0.5857253
 0.5861648
 0.5866044
 0.5870440
 0.5874835
 0.5879231
 0.5883626
 0.5888022
 0.5892418
 0.5896813
 0.5901209
 0.5905604
 0.5910000
 0.5914396
 0.5918791
 0.5923187
 0.5927582
 0.5931978
 0.5936374
 0.5940769
 0.5945165
 0.5949560
 0.5953956
 0.5958352
 0.5962747
 0.5967143
 0.5971538
 0.5975934
 0.5980330
 0.5984725
 0.5989121
 0.5993516
 0.5997912
 0.6002308
 0.6006703
 0.6011099
 0.6015495
 0.6019890
 0.6024286
 0.6028681
 0.6033077
 0.6037473
 0.6041868
 0.6046264
 0.6050659
 0.6055055
 0.6059451
 0.6063846
 0.6068242
 0.6072637
 0.6077033
 0.6081429
 0.6085824
 0.6090220
 0.6094615
 0.6099011
 0.6103407
 0.6107802
 0.6112198
 0.6116593
 0.6120989
 0.6125385
 0.6129780
 0.6134176
 0.6138571
 0.6142967
 0.6147363
 0.6151758
 0.6156154
 0.6160549
 0.6164945
 0.6169341
 0.6173736
 0.6178132
 0.6182527
 0.6186923
 0.6191319
 0.6195714
 0.6200110
 0.6204505
 0.6208901
 0.6213297
 0.6217692
 0.6222088
 0.6226484
 0.6230879
 0.6235275
 0.6239670
 0.6244066
 0.6248462
 0.6252857
 0.6257253
 0.6261648
 0.6266044
 0.6270440
 0.6274835
 0.6279231
 0.6283626
 0.6288022
 0.6292418
 0.6296813
 0.6301209
 0.6305604
 0.6310000
 0.6314396
 0.6318791
 0.6323187
 0.6327582
 0.6331978
 0.6336374
 0.6340769
 0.6345165
 0.6349560
 0.6353956
 0.6358352
 0.6362747
 0.6367143
 0.6371538
 0.6375934
 0.6380330
 0.6384725
 0.6389121
 0.6393516
 0.6397912
 0.6402308
 0.6406703
 0.6411099
 0.6415495
 0.6419890
 0.6424286
 0.6428681
 0.6433077
 0.6437473
 0.6441868
 0.6446264
 0.6450659
 0.6455055
 0.6459451
 0.6463846
 0.6468242
 0.6472637
 0.6477033
 0.6481429
 0.6485824
 0.6490220
 0.6494615
 0.6499011
 0.6503407
 0.6507802
 0.6512198
 0.6516593
 0.6520989
 0.6525385
 0.6529780
 0.6534176
 0.6538571
 0.6542967
 0.6547363
 0.6551758
 0.6556154
 0.6560549
 0.6564945
 0.6569341
 0.6573736
 0.6578129
 0.6582519
 0.6586905
 0.6591288
 0.6595667
 0.6600043
 0.6604416
 0.6608785
 0.6613151
 0.6617514
 0.6621873
 0.6626229
 0.6630582
 0.6634931
 0.6639277
 0.6643619
 0.6647958
 0.6652294
 0.6656626
 0.6660955
 0.6665281
 0.6669603
