ocio/AgXc_default_OCIO-v2/LUTs/luminance-compensation.cube
TITLE "Luminance Compensation"
LUT_3D_SIZE 4
0.0020539 0.0020539 0.0020539
0.3572643 0.1777655 0.1777655
0.6910757 0.5089368 0.5089368
1.0244106 0.8422634 0.8422634
0.2537723 0.3333334 0.2537723
0.3341055 0.3341055 0.2669822
0.6906766 0.5109666 0.5096187
1.0244093 0.8422697 0.8422655
0.5866680 0.6666667 0.5866680
0.5870703 0.6666667 0.5867144
0.6674355 0.6674355 0.6000046
1.0240101 0.8442995 0.8429474
0.9200000 1.0000000 0.9200000
0.9200013 1.0000000 0.9200001
0.9204035 1.0000000 0.9200465
1.0007689 1.0007689 0.9333370
0.1633142 0.1633142 0.3665120
0.3416798 0.2096793 0.3416798
0.6909953 0.5090739 0.5104345
1.0244103 0.8422638 0.8422680
0.2641911 0.3338158 0.3338158
0.3353873 0.3353873 0.3353873
0.6905976 0.5110989 0.5110989
1.0244091 0.8422702 0.8422702
0.5867037 0.6666667 0.5870596
0.5871057 0.6666667 0.5871057
0.6674388 0.6674388 0.6003155
1.0240099 0.8442999 0.8429521
0.9200001 1.0000000 0.9200012
0.9200014 1.0000000 0.9200014
0.9204036 1.0000000 0.9200477
1.0007689 1.0007689 0.9333379
0.4937986 0.4937986 0.7005842
0.4957927 0.4940300 0.7004301
0.6751555 0.5418585 0.6751555
1.0243299 0.8424008 0.8437657
0.4946834 0.4964265 0.6999962
0.4966475 0.4966475 0.6998453
0.6750131 0.5430127 0.6750131
1.0243286 0.8424072 0.8437678
0.5971891 0.6671456 0.6671456
0.5975244 0.6671491 0.6671491
0.6687206 0.6687206 0.6687206
1.0239309 0.8444322 0.8444322
0.9200358 1.0000000 0.9203928
0.9200370 1.0000000 0.9203930
0.9204390 1.0000000 0.9204390
1.0007721 1.0007721 0.9336488
0.8271229 0.8271229 1.0339199
0.8271292 0.8271236 1.0339194
0.8291234 0.8273550 1.0337653
1.0084892 0.8751882 1.0084892
0.8271257 0.8271312 1.0339180
0.8271319 0.8271319 1.0339175
0.8291260 0.8273633 1.0337634
1.0084888 0.8751918 1.0084888
0.8280106 0.8297591 1.0333300
0.8280168 0.8297598 1.0333295
0.8299809 0.8299809 1.0331787
1.0083464 0.8763460 1.0083464
0.9305214 1.0004789 1.0004789
0.9305224 1.0004789 1.0004789
0.9308577 1.0004824 1.0004824
1.0020539 1.0020539 1.0020539
