ocio/AgXc_default_OCIO-v2/LUTs/luminance-compensation.cube
TITLE "Luminance Compensation"
LUT_3D_SIZE 8
0.0020539 0.0020539 0.0020539
0.1572320 0.0282296 0.0282296
0.3090455 0.1328345 0.1328345
0.4528891 0.2712563 0.2712563
0.5958313 0.4137275 0.4137275
0.7386956 0.5565520 0.5565520
0.8815534 0.6994064 0.6994064
1.0244106 0.8422634 0.8422634
0.0740357 0.1428779 0.0740357
0.1437166 0.1437166 0.0843233
0.3012926 0.1695377 0.1467299
0.4520639 0.2754267 0.2726668
0.5957604 0.4140894 0.4138483
0.7386896 0.5565826 0.5565622
0.8815529 0.6994090 0.6994073
1.0244105 0.8422636 0.8422634
0.2067130 0.2857144 0.2067130
0.2161605 0.2857219 0.2078380
0.2864906 0.2864906 0.2197616
0.4442554 0.3122631 0.2872299
0.5949347 0.4182615 0.4152653
0.7386187 0.5569445 0.5566831
0.8815469 0.6994395 0.6994175
1.0244100 0.8422661 0.8422643
0.3486559 0.4285714 0.3486559
0.3494966 0.4285715 0.3487529
0.3589556 0.4285783 0.3498939
0.4293409 0.4293409 0.3619683
0.5871215 0.4551091 0.4298862
0.7377930 0.5611168 0.5581006
0.8814760 0.6998015 0.6995383
1.0244040 0.8422967 0.8422745
0.4914357 0.5714286 0.4914357
0.4915067 0.5714286 0.4914439
0.4923475 0.5714286 0.4915410
0.5018076 0.5714353 0.4926833
0.5721975 0.5721975 0.5047706
0.7299794 0.5979653 0.5727264
0.8806502 0.7039738 0.7009559
1.0243331 0.8426586 0.8423953
0.6342863 0.7142857 0.6342863
0.6342923 0.7142857 0.6342870
0.6343634 0.7142857 0.6342952
0.6352041 0.7142858 0.6343923
0.6446643 0.7142925 0.6355348
0.7150546 0.7150546 0.6476231
0.8728366 0.7408224 0.7155821
1.0235074 0.8468309 0.8438129
0.7771429 0.8571429 0.7771429
0.7771434 0.8571429 0.7771430
0.7771494 0.8571429 0.7771437
0.7772205 0.8571429 0.7771518
0.7780612 0.8571429 0.7772490
0.7875214 0.8571496 0.7783914
0.8579117 0.8579117 0.7904798
1.0156937 0.8836795 0.8584391
0.9200000 1.0000000 0.9200000
0.9200000 1.0000000 0.9200000
0.9200005 1.0000000 0.9200001
0.9200065 1.0000000 0.9200008
0.9200776 1.0000000 0.9200089
0.9209184 1.0000000 0.9201061
0.9303785 1.0000068 0.9212485
1.0007689 1.0007689 0.9333370
0.0225507 0.0225507 0.1620064
0.1481201 0.0443280 0.1481201
0.3072188 0.1358938 0.1630042
0.4527215 0.2715412 0.2743549
0.5958171 0.4137516 0.4139932
0.7386944 0.5565541 0.5565744
0.8815533 0.6994066 0.6994083
1.0244105 0.8422634 0.8422635
0.0821049 0.1434355 0.1434355
0.1449111 0.1449111 0.1449111
0.3000891 0.1710867 0.1710867
0.4519026 0.2756916 0.2756916
0.5957462 0.4141134 0.4141134
0.7386884 0.5565846 0.5565846
0.8815528 0.6994092 0.6994092
1.0244105 0.8422636 0.8422636
0.2075803 0.2857192 0.2159390
0.2168929 0.2857351 0.2168929
0.2865737 0.2865737 0.2271804
0.4441498 0.3123949 0.2895871
0.5949211 0.4182839 0.4155240
0.7386175 0.5569465 0.5567054
0.8815468 0.6994397 0.6994194
1.0244100 0.8422662 0.8422644
0.3487305 0.4285715 0.3494745
0.3495701 0.4285716 0.3495701
0.3590177 0.4285791 0.3506952
0.4293478 0.4293478 0.3626188
0.5871125 0.4551202 0.4300871
0.7377918 0.5611187 0.5581224
0.8814759 0.6998017 0.6995402
1.0244040 0.8422967 0.8422746
0.4914420 0.5714286 0.4915049
0.4915130 0.5714286 0.4915130
0.4923537 0.5714286 0.4916100
0.5018128 0.5714354 0.4927510
0.5721981 0.5721981 0.5048255
0.7299786 0.5979662 0.5727433
0.8806501 0.7039740 0.7009577
1.0243331 0.8426586 0.8423955
0.6342868 0.7142857 0.6342921
0.6342928 0.7142857 0.6342928
0.6343639 0.7142857 0.6343010
0.6352047 0.7142858 0.6343981
0.6446647 0.7142925 0.6355405
0.7150546 0.7150546 0.6476277
0.8728365 0.7408225 0.7155835
1.0235074 0.8468309 0.8438131
0.7771430 0.8571429 0.7771434
0.7771435 0.8571429 0.7771435
0.7771494 0.8571429 0.7771441
0.7772205 0.8571429 0.7771523
0.7780613 0.8571429 0.7772495
0.7875214 0.8571496 0.7783919
0.8579117 0.8579117 0.7904802
1.0156937 0.8836795 0.8584393
0.9200000 1.0000000 0.9200000
0.9200001 1.0000000 0.9200001
0.9200006 1.0000000 0.9200001
0.9200065 1.0000000 0.9200008
0.9200776 1.0000000 0.9200090
0.9209184 1.0000000 0.9201061
0.9303785 1.0000068 0.9212486
1.0007689 1.0007689 0.9333370
0.1191984 0.1191984 0.3179717
0.1567539 0.1241508 0.3145847
0.2938806 0.1635188 0.2938806
0.4508244 0.2748243 0.3051433
0.5956490 0.4140383 0.4170982
0.7386802 0.5565783 0.5568402
0.8815521 0.6994087 0.6994307
1.0244104 0.8422635 0.8422654
0.1362906 0.1632311 0.3069867
0.1654079 0.1654079 0.3048636
0.2909772 0.1871851 0.2909772
0.4500759 0.2787509 0.3058613
0.5955786 0.4143983 0.4172120
0.7386742 0.5566088 0.5568503
0.8815516 0.6994112 0.6994316
1.0244104 0.8422638 0.8422655
0.2170016 0.2862013 0.2862013
0.2249621 0.2862926 0.2862926
0.2877682 0.2877682 0.2877682
0.4429463 0.3139439 0.3139439
0.5947598 0.4185488 0.4185488
0.7386034 0.5569706 0.5569706
0.8815456 0.6994418 0.6994418
1.0244099 0.8422663 0.8422663
0.3496105 0.4285755 0.3587152
0.3504375 0.4285764 0.3587962
0.3597500 0.4285922 0.3597500
0.4294309 0.4294309 0.3700375
0.5870069 0.4552520 0.4324442
0.7377782 0.5611410 0.5583811
0.8814747 0.6998037 0.6995625
1.0244039 0.8422969 0.8422765
0.4915167 0.5714286 0.4923236
0.4915877 0.5714286 0.4923316
0.4924273 0.5714287 0.4924273
0.5018748 0.5714362 0.4935523
0.5722049 0.5722049 0.5054759
0.7299697 0.5979773 0.5729442
0.8806490 0.7039758 0.7009795
1.0243330 0.8426588 0.8423974
0.6342931 0.7142857 0.6343613
0.6342991 0.7142857 0.6343620
0.6343702 0.7142857 0.6343702
0.6352109 0.7142858 0.6344672
0.6446699 0.7142925 0.6356082
0.7150552 0.7150552 0.6476826
0.8728357 0.7408234 0.7156005
1.0235073 0.8468311 0.8438149
0.7771435 0.8571429 0.7771492
0.7771440 0.8571429 0.7771493
0.7771500 0.8571429 0.7771500
0.7772210 0.8571429 0.7771581
0.7780618 0.8571429 0.7772553
0.7875218 0.8571496 0.7783976
0.8579118 0.8579118 0.7904849
1.0156936 0.8836796 0.8584407
0.9200001 1.0000000 0.9200005
0.9200001 1.0000000 0.9200005
0.9200006 1.0000000 0.9200006
0.9200066 1.0000000 0.9200013
0.9200776 1.0000000 0.9200095
0.9209184 1.0000000 0.9201066
0.9303786 1.0000068 0.9212490
1.0007689 1.0007689 0.9333374
0.2562520 0.2562520 0.4623474
0.2603580 0.2567315 0.4620269
0.2988538 0.2621461 0.4584887
0.4370331 0.3039833 0.4370331
0.5937458 0.4173415 0.4479398
0.7385120 0.5568651 0.5599457
0.8815379 0.6994329 0.6996965
1.0244092 0.8422656 0.8422878
0.2580749 0.2616189 0.4611352
0.2620555 0.2620555 0.4608288
0.2996110 0.2670079 0.4574418
0.4367378 0.3063760 0.4367378
0.5936816 0.4176815 0.4480005
0.7385061 0.5568955 0.5599553
0.8815374 0.6994354 0.6996973
1.0244092 0.8422658 0.8422879
0.2762269 0.3059025 0.4500336
0.2791477 0.3060882 0.4498438
0.3082650 0.3082650 0.4477207
0.4338344 0.3300423 0.4338344
0.5929330 0.4216081 0.4487184
0.7384358 0.5572555 0.5600692
0.8815314 0.6994659 0.6997075
1.0244087 0.8422684 0.8422887
0.3591575 0.4290510 0.4290510
0.3598587 0.4290584 0.4290584
0.3678192 0.4291498 0.4291498
0.4306254 0.4306254 0.4306254
0.5858034 0.4568010 0.4568010
0.7376169 0.5614059 0.5614059
0.8814605 0.6998277 0.6998277
1.0244027 0.8422989 0.8422989
0.4923978 0.5714326 0.5015655
0.4924677 0.5714327 0.5015724
0.4932946 0.5714335 0.5016533
0.5026072 0.5714494 0.5026072
0.5722880 0.5722880 0.5128947
0.7298640 0.5981092 0.5753013
0.8806353 0.7039982 0.7012383
1.0243318 0.8426608 0.8424197
0.6343679 0.7142857 0.6351800
0.6343738 0.7142857 0.6351807
0.6344448 0.7142857 0.6351888
0.6352844 0.7142859 0.6352844
0.6447320 0.7142934 0.6364094
0.7150621 0.7150621 0.6483331
0.8728268 0.7408345 0.7158013
1.0235061 0.8468330 0.8438367
0.7771498 0.8571429 0.7772184
0.7771503 0.8571429 0.7772185
0.7771563 0.8571429 0.7772191
0.7772273 0.8571429 0.7772273
0.7780680 0.8571429 0.7773243
0.7875271 0.8571497 0.7784653
0.8579124 0.8579124 0.7905398
1.0156929 0.8836805 0.8584576
0.9200006 1.0000000 0.9200064
0.9200006 1.0000000 0.9200064
0.9200011 1.0000000 0.9200064
0.9200071 1.0000000 0.9200071
0.9200782 1.0000000 0.9200153
0.9209190 1.0000000 0.9201124
0.9303790 1.0000068 0.9212547
1.0007689 1.0007689 0.9333420
0.3985985 0.3985985 0.6053363
0.3989531 0.3986394 0.6053091
0.4030701 0.3991228 0.6049873
0.4416471 0.4045793 0.6014359
0.5799155 0.4466356 0.5799155
0.7366084 0.5601699 0.5907919
0.8813697 0.6997197 0.7028021
1.0243950 0.8422898 0.8425536
0.3987555 0.3990686 0.6052317
0.3991091 0.3991091 0.6052046
0.4032152 0.3995886 0.6048841
0.4417109 0.4050033 0.6013458
0.5798902 0.4468405 0.5798902
0.7366030 0.5601986 0.5907970
0.8813692 0.6997222 0.7028029
1.0243950 0.8422900 0.8425536
0.4005894 0.4044392 0.6040182
0.4009320 0.4044761 0.6039923
0.4049127 0.4049127 0.6036859
0.4424681 0.4098650 0.6002990
0.5795949 0.4492331 0.5795949
0.7365387 0.5605386 0.5908576
0.8813632 0.6997526 0.7028124
1.0243945 0.8422926 0.8425545
0.4188342 0.4487441 0.5929067
0.4190840 0.4487597 0.5928907
0.4220048 0.4489453 0.5927010
0.4511221 0.4511221 0.5905779
0.5766915 0.4728994 0.5766915
0.7357902 0.5644652 0.5915756
0.8812929 0.7001126 0.7029263
1.0243885 0.8423231 0.8425646
0.5019554 0.5719075 0.5719075
0.5020146 0.5719082 0.5719082
0.5027159 0.5719155 0.5719155
0.5106764 0.5720069 0.5720069
0.5734825 0.5734825 0.5734825
0.7286606 0.5996581 0.5996581
0.8804741 0.7042631 0.7042631
1.0243176 0.8426849 0.8426849
0.6352490 0.7142897 0.6444221
0.6352549 0.7142897 0.6444227
0.6353248 0.7142898 0.6444295
0.6361518 0.7142906 0.6445104
0.6454643 0.7143065 0.6454643
0.7151451 0.7151451 0.6557518
0.8727212 0.7409663 0.7181585
1.0234925 0.8468553 0.8440954
0.7772245 0.8571429 0.7780371
0.7772250 0.8571429 0.7780372
0.7772310 0.8571429 0.7780379
0.7773020 0.8571429 0.7780459
0.7781416 0.8571430 0.7781416
0.7875891 0.8571505 0.7792666
0.8579192 0.8579192 0.7911902
1.0156840 0.8836916 0.8586585
0.9200069 1.0000000 0.9200755
0.9200069 1.0000000 0.9200755
0.9200074 1.0000000 0.9200756
0.9200134 1.0000000 0.9200763
0.9200845 1.0000000 0.9200845
0.9209251 1.0000001 0.9201815
0.9303842 1.0000068 0.9213224
1.0007695 1.0007695 0.9333969
0.5414126 0.5414126 0.7482046
0.5414424 0.5414160 0.7482023
0.5417971 0.5414569 0.7481750
0.5459150 0.5419406 0.7478532
0.5844989 0.5474007 0.7443007
0.7227748 0.5894755 0.7227748
0.8794660 0.7030247 0.7336486
1.0242269 0.8425766 0.8456591
0.5414258 0.5414522 0.7481958
0.5414557 0.5414557 0.7481935
0.5418103 0.5414965 0.7481662
0.5459272 0.5419799 0.7478445
0.5845043 0.5474365 0.7442931
0.7227726 0.5894928 0.7227726
0.8794655 0.7030271 0.7336490
1.0242268 0.8425768 0.8456592
0.5415828 0.5419224 0.7480911
0.5416126 0.5419258 0.7480888
0.5419663 0.5419663 0.7480617
0.5460723 0.5424458 0.7477412
0.5845681 0.5478604 0.7442030
0.7227474 0.5896976 0.7227474
0.8794601 0.7030557 0.7336541
1.0242263 0.8425794 0.8456600
0.5434176 0.5472932 0.7468776
0.5434465 0.5472963 0.7468754
0.5437891 0.5473332 0.7468494
0.5477698 0.5477698 0.7465431
0.5853253 0.5527222 0.7431561
0.7224520 0.5920903 0.7224520
0.8793959 0.7033958 0.7337148
1.0242204 0.8426097 0.8456696
0.5616703 0.5915999 0.7357652
0.5616913 0.5916012 0.7357639
0.5619412 0.5916168 0.7357478
0.5648620 0.5918025 0.7355581
0.5939793 0.5939793 0.7334350
0.7195487 0.6157565 0.7195487
0.8786473 0.7073224 0.7344327
1.0241501 0.8429697 0.8457835
0.6448075 0.7147646 0.7147646
0.6448125 0.7147647 0.7147647
0.6448718 0.7147653 0.7147653
0.6455730 0.7147727 0.7147727
0.6535335 0.7148640 0.7148640
0.7163396 0.7163396 0.7163396
0.8715177 0.7425153 0.7425153
1.0233312 0.8471202 0.8471202
0.7781057 0.8571469 0.7872792
0.7781062 0.8571469 0.7872793
0.7781121 0.8571469 0.7872798
0.7781820 0.8571469 0.7872866
0.7790089 0.8571478 0.7873676
0.7883214 0.8571636 0.7883214
0.8580023 0.8580023 0.7986090
1.0155783 0.8838235 0.8610156
0.9200816 1.0000000 0.9208943
0.9200817 1.0000000 0.9208943
0.9200822 1.0000000 0.9208943
0.9200881 1.0000000 0.9208950
0.9201591 1.0000000 0.9209031
0.9209987 1.0000002 0.9209987
0.9304462 1.0000076 0.9221237
1.0007763 1.0007763 0.9340473
0.6842661 0.6842661 0.8910626
0.6842686 0.6842664 0.8910625
0.6842985 0.6842698 0.8910602
0.6846532 0.6843107 0.8910329
0.6887711 0.6847945 0.8907111
0.7273556 0.6902548 0.8871585
0.8656321 0.7323312 0.8656321
1.0223232 0.8458816 0.8765057
0.6842672 0.6842694 0.8910619
0.6842697 0.6842697 0.8910617
0.6842996 0.6842731 0.8910594
0.6846543 0.6843140 0.8910322
0.6887721 0.6847978 0.8907103
0.7273560 0.6902578 0.8871578
0.8656319 0.7323327 0.8656319
1.0223231 0.8458818 0.8765057
0.6842804 0.6843091 0.8910531
0.6842829 0.6843094 0.8910529
0.6843128 0.6843128 0.8910506
0.6846674 0.6843537 0.8910234
0.6887843 0.6848371 0.8907016
0.7273614 0.6902936 0.8871502
0.8656298 0.7323499 0.8656298
1.0223227 0.8458842 0.8765062
0.6844375 0.6847792 0.8909485
0.6844400 0.6847795 0.8909483
0.6844698 0.6847829 0.8909460
0.6848234 0.6848234 0.8909189
0.6889294 0.6853029 0.8905983
0.7274252 0.6907175 0.8870601
0.8656045 0.7325548 0.8656045
1.0223173 0.8459129 0.8765113
0.6862724 0.6901501 0.8897349
0.6862748 0.6901504 0.8897347
0.6863037 0.6901535 0.8897325
0.6866463 0.6901904 0.8897066
0.6906270 0.6906270 0.8894002
0.7281824 0.6955793 0.8860133
0.8653092 0.7349474 0.8653092
1.0222530 0.8462529 0.8765719
0.7045257 0.7344569 0.8786225
0.7045274 0.7344570 0.8786224
0.7045485 0.7344583 0.8786210
0.7047983 0.7344740 0.8786050
0.7077191 0.7346596 0.8784153
0.7368364 0.7368364 0.8762921
0.8624058 0.7586137 0.8624058
1.0215045 0.8501795 0.8772899
0.7876643 0.8576218 0.8576218
0.7876647 0.8576218 0.8576218
0.7876697 0.8576218 0.8576218
0.7877289 0.8576224 0.8576224
0.7884302 0.8576298 0.8576298
0.7963907 0.8577212 0.8577212
0.8591968 0.8591968 0.8591968
1.0143749 0.8853724 0.8853724
0.9209628 1.0000040 0.9301363
0.9209628 1.0000040 0.9301364
0.9209633 1.0000040 0.9301364
0.9209692 1.0000040 0.9301370
0.9210391 1.0000041 0.9301438
0.9218660 1.0000049 0.9302247
0.9311786 1.0000208 0.9311786
1.0008594 1.0008594 0.9414661
0.8271229 0.8271229 1.0339199
0.8271231 0.8271229 1.0339199
0.8271256 0.8271232 1.0339197
0.8271555 0.8271267 1.0339174
0.8275102 0.8271675 1.0338901
0.8316282 0.8276513 1.0335683
0.8702127 0.8331117 1.0300157
1.0084892 0.8751882 1.0084892
0.8271230 0.8271232 1.0339198
0.8271232 0.8271232 1.0339198
0.8271257 0.8271235 1.0339196
0.8271556 0.8271269 1.0339173
0.8275103 0.8271678 1.0338901
0.8316282 0.8276516 1.0335682
0.8702127 0.8331120 1.0300156
1.0084892 0.8751884 1.0084892
0.8271241 0.8271265 1.0339191
0.8271243 0.8271265 1.0339190
0.8271268 0.8271268 1.0339189
0.8271567 0.8271303 1.0339166
0.8275114 0.8271712 1.0338893
0.8316293 0.8276549 1.0335675
0.8702132 0.8331150 1.0300150
1.0084890 0.8751898 1.0084890
0.8271373 0.8271662 1.0339102
0.8271376 0.8271662 1.0339102
0.8271401 0.8271665 1.0339100
0.8271700 0.8271700 1.0339077
0.8275246 0.8272108 1.0338805
0.8316415 0.8276942 1.0335588
0.8702186 0.8331507 1.0300074
1.0084869 0.8752071 1.0084869
0.8272944 0.8276363 1.0338056
0.8272946 0.8276364 1.0338056
0.8272971 0.8276366 1.0338054
0.8273269 0.8276401 1.0338031
0.8276806 0.8276806 1.0337760
0.8317866 0.8281601 1.0334555
0.8702824 0.8335747 1.0299173
1.0084617 0.8754119 1.0084617
0.8291293 0.8330072 1.0325920
0.8291295 0.8330073 1.0325920
0.8291319 0.8330075 1.0325918
0.8291608 0.8330106 1.0325897
0.8295034 0.8330475 1.0325637
0.8334841 0.8334841 1.0322574
0.8710396 0.8384365 1.0288704
1.0081663 0.8778045 1.0081663
0.8473827 0.8773140 1.0214796
0.8473828 0.8773141 1.0214796
0.8473846 0.8773142 1.0214795
0.8474056 0.8773155 1.0214782
0.8476555 0.8773311 1.0214621
0.8505763 0.8775168 1.0212724
0.8796936 0.8796936 1.0191493
1.0052630 0.9014708 1.0052630
0.9305214 1.0004789 1.0004789
0.9305214 1.0004789 1.0004789
0.9305218 1.0004789 1.0004789
0.9305268 1.0004790 1.0004790
0.9305860 1.0004796 1.0004796
0.9312873 1.0004870 1.0004870
0.9392478 1.0005783 1.0005783
1.0020539 1.0020539 1.0020539
