ocio/AgXc_default_OCIO-v2/LUTs/luminance-compensation.cube
TITLE "Luminance Compensation"
LUT_3D_SIZE 64
0.0020539 0.0020539 0.0020539
0.0162338 0.0026875 0.0026875
0.0317806 0.0035867 0.0035867
0.0484554 0.0048538 0.0048538
0.0659768 0.0066171 0.0066171
0.0840531 0.0090274 0.0090274
0.1024137 0.0122480 0.0122480
0.1208328 0.0164385 0.0164385
0.1391420 0.0217347 0.0217347
0.1572320 0.0282296 0.0282296
0.1750455 0.0359611 0.0359611
0.1925655 0.0449094 0.0449094
0.2098028 0.0550037 0.0550037
0.2267843 0.0661362 0.0661362
0.2435444 0.0781778 0.0781778
0.2601189 0.0909929 0.0909929
0.2765414 0.1044508 0.1044508
0.2928419 0.1184325 0.1184325
0.3090455 0.1328345 0.1328345
0.3251731 0.1475694 0.1475694
0.3412416 0.1625657 0.1625657
0.3572643 0.1777655 0.1777655
0.3732516 0.1931230 0.1931230
0.3892119 0.2086019 0.2086019
0.4051515 0.2241741 0.2241741
0.4210752 0.2398178 0.2398178
0.4369867 0.2555162 0.2555162
0.4528891 0.2712563 0.2712563
0.4687844 0.2870282 0.2870282
0.4846744 0.3028243 0.3028243
0.5005603 0.3186388 0.3186388
0.5164431 0.3344674 0.3344674
0.5323235 0.3503066 0.3503066
0.5482022 0.3661540 0.3661540
0.5640795 0.3820075 0.3820075
0.5799558 0.3978657 0.3978657
0.5958313 0.4137275 0.4137275
0.6117062 0.4295919 0.4295919
0.6275806 0.4454585 0.4454585
0.6434547 0.4613265 0.4613265
0.6593286 0.4771958 0.4771958
0.6752022 0.4930660 0.4930660
0.6910757 0.5089368 0.5089368
0.7069491 0.5248082 0.5248082
0.7228224 0.5406800 0.5406800
0.7386956 0.5565520 0.5565520
0.7545688 0.5724243 0.5724243
0.7704419 0.5882968 0.5882968
0.7863150 0.6041694 0.6041694
0.8021881 0.6200421 0.6200421
0.8180612 0.6359149 0.6359149
0.8339342 0.6517877 0.6517877
0.8498073 0.6676606 0.6676606
0.8656803 0.6835335 0.6835335
0.8815534 0.6994064 0.6994064
0.8974264 0.7152794 0.7152794
0.9132994 0.7311524 0.7311524
0.9291724 0.7470254 0.7470254
0.9450455 0.7628983 0.7628983
0.9609185 0.7787713 0.7787713
0.9767915 0.7946443 0.7946443
0.9926645 0.8105173 0.8105173
1.0085375 0.8263904 0.8263904
1.0244106 0.8422634 0.8422634
0.0047009 0.0171636 0.0047009
0.0175811 0.0175811 0.0054591
0.0319769 0.0181844 0.0064834
0.0477079 0.0190528 0.0078635
0.0645271 0.0202911 0.0097109
0.0821493 0.0220311 0.0121585
0.1002841 0.0244272 0.0153534
0.1186664 0.0276456 0.0194453
0.1370783 0.0318474 0.0245695
0.1553605 0.0371683 0.0308291
0.1734119 0.0436991 0.0382801
0.1911820 0.0514744 0.0469248
0.2086588 0.0604704 0.0567142
0.2258561 0.0706125 0.0675577
0.2428024 0.0817902 0.0793382
0.2595326 0.0938725 0.0919261
0.2760825 0.1067229 0.1051921
0.2924851 0.1202104 0.1190156
0.3087696 0.1342165 0.1332895
0.3249607 0.1486381 0.1479223
0.3410786 0.1633886 0.1628381
0.3571395 0.1783972 0.1779750
0.3731563 0.1936067 0.1932836
0.3891392 0.2089716 0.2087247
0.4050960 0.2244562 0.2242679
0.4210329 0.2400329 0.2398894
0.4369546 0.2556800 0.2555707
0.4528646 0.2713809 0.2712978
0.4687658 0.2871230 0.2870597
0.4846602 0.3028964 0.3028483
0.5005495 0.3186936 0.3186571
0.5164349 0.3345091 0.3344813
0.5323173 0.3503383 0.3503172
0.5481975 0.3661780 0.3661620
0.5640759 0.3820258 0.3820136
0.5799531 0.3978796 0.3978703
0.5958292 0.4137380 0.4137310
0.6117046 0.4295999 0.4295946
0.6275795 0.4454645 0.4454605
0.6434538 0.4613312 0.4613281
0.6593279 0.4771993 0.4771970
0.6752017 0.4930686 0.4930669
0.6910753 0.5089389 0.5089375
0.7069488 0.5248097 0.5248087
0.7228222 0.5406811 0.5406804
0.7386954 0.5565529 0.5565523
0.7545687 0.5724250 0.5724246
0.7704418 0.5882973 0.5882970
0.7863150 0.6041698 0.6041695
0.8021881 0.6200424 0.6200422
0.8180611 0.6359151 0.6359150
0.8339342 0.6517879 0.6517878
0.8498073 0.6676607 0.6676606
0.8656803 0.6835336 0.6835335
0.8815533 0.6994065 0.6994065
0.8974264 0.7152795 0.7152794
0.9132994 0.7311524 0.7311524
0.9291724 0.7470254 0.7470254
0.9450455 0.7628984 0.7628984
0.9609185 0.7787714 0.7787713
0.9767915 0.7946444 0.7946443
0.9926645 0.8105174 0.8105173
1.0085375 0.8263904 0.8263904
1.0244106 0.8422634 0.8422634
0.0086813 0.0325434 0.0086813
0.0201410 0.0328117 0.0094926
0.0332055 0.0332055 0.0105645
0.0477685 0.0337829 0.0119768
0.0636408 0.0346250 0.0138282
0.0805692 0.0358387 0.0162362
0.0982662 0.0375586 0.0193336
0.1164430 0.0399419 0.0232598
0.1348389 0.0431571 0.0281474
0.1532428 0.0473668 0.0341068
0.1715021 0.0527060 0.0412099
0.1895222 0.0592642 0.0494811
0.2072580 0.0670729 0.0588940
0.2247009 0.0761053 0.0693785
0.2418672 0.0862841 0.0808317
0.2587863 0.0974964 0.0931323
0.2754936 0.1096097 0.1061538
0.2920245 0.1224870 0.1197744
0.3084119 0.1359971 0.1338831
0.3246843 0.1500217 0.1483836
0.3408659 0.1644583 0.1631947
0.3569763 0.1792208 0.1782495
0.3730314 0.1942387 0.1934943
0.3890438 0.2094555 0.2088861
0.4050232 0.2248260 0.2243912
0.4209775 0.2403151 0.2399835
0.4369124 0.2558951 0.2556424
0.4528325 0.2715447 0.2713524
0.4687414 0.2872477 0.2871013
0.4846416 0.3029912 0.3028799
0.5005354 0.3187658 0.3186811
0.5164242 0.3345639 0.3344995
0.5323092 0.3503800 0.3503311
0.5481913 0.3662097 0.3661726
0.5640712 0.3820498 0.3820216
0.5799495 0.3978979 0.3978764
0.5958265 0.4137519 0.4137356
0.6117026 0.4296105 0.4295981
0.6275779 0.4454726 0.4454632
0.6434526 0.4613373 0.4613301
0.6593270 0.4772039 0.4771985
0.6752010 0.4930722 0.4930680
0.6910748 0.5089415 0.5089384
0.7069484 0.5248118 0.5248094
0.7228219 0.5406827 0.5406809
0.7386952 0.5565541 0.5565527
0.7545685 0.5724259 0.5724249
0.7704417 0.5882980 0.5882972
0.7863149 0.6041703 0.6041697
0.8021880 0.6200428 0.6200423
0.8180611 0.6359154 0.6359151
0.8339342 0.6517881 0.6517879
0.8498072 0.6676609 0.6676607
0.8656803 0.6835337 0.6835336
0.8815533 0.6994066 0.6994065
0.8974264 0.7152795 0.7152794
0.9132994 0.7311525 0.7311524
0.9291724 0.7470254 0.7470254
0.9450454 0.7628984 0.7628984
0.9609185 0.7787714 0.7787714
0.9767915 0.7946444 0.7946444
0.9926645 0.8105174 0.8105174
1.0085375 0.8263904 0.8263904
1.0244106 0.8422634 0.8422634
0.0140984 0.0481048 0.0140984
0.0240822 0.0482735 0.0149028
0.0356910 0.0485245 0.0159551
0.0488985 0.0488985 0.0173270
0.0635904 0.0494546 0.0191067
0.0795707 0.0502748 0.0213996
0.0965817 0.0514682 0.0243261
0.1143345 0.0531713 0.0280158
0.1325415 0.0555435 0.0325978
0.1509461 0.0587555 0.0381871
0.1693421 0.0629705 0.0448696
0.1875827 0.0683235 0.0526905
0.2055780 0.0749024 0.0616476
0.2232868 0.0827367 0.0716929
0.2407035 0.0917969 0.0827415
0.2578458 0.1020037 0.0946832
0.2747440 0.1132423 0.1073962
0.2914337 0.1253794 0.1207584
0.3079502 0.1382771 0.1346555
0.3243259 0.1518045 0.1489855
0.3405891 0.1658432 0.1636609
0.3567633 0.1802912 0.1786091
0.3728681 0.1950627 0.1937706
0.3889188 0.2100878 0.2090978
0.4049278 0.2253101 0.2245531
0.4209046 0.2406849 0.2401071
0.4368569 0.2561773 0.2557367
0.4527902 0.2717598 0.2714242
0.4687092 0.2874115 0.2871560
0.4846172 0.3031159 0.3029215
0.5005168 0.3188606 0.3187128
0.5164100 0.3346360 0.3345236
0.5322984 0.3504348 0.3503494
0.5481831 0.3662514 0.3661864
0.5640650 0.3820815 0.3820322
0.5799448 0.3979219 0.3978844
0.5958229 0.4137702 0.4137417
0.6116998 0.4296244 0.4296028
0.6275758 0.4454831 0.4454667
0.6434511 0.4613453 0.4613328
0.6593258 0.4772100 0.4772006
0.6752001 0.4930768 0.4930696
0.6910741 0.5089450 0.5089396
0.7069479 0.5248144 0.5248103
0.7228215 0.5406847 0.5406816
0.7386949 0.5565556 0.5565532
0.7545683 0.5724271 0.5724253
0.7704415 0.5882989 0.5882975
0.7863147 0.6041710 0.6041699
0.8021879 0.6200433 0.6200425
0.8180610 0.6359158 0.6359152
0.8339341 0.6517884 0.6517880
0.8498072 0.6676611 0.6676608
0.8656802 0.6835339 0.6835336
0.8815533 0.6994068 0.6994066
0.8974263 0.7152796 0.7152795
0.9132994 0.7311525 0.7311524
0.9291724 0.7470255 0.7470254
0.9450454 0.7628984 0.7628984
0.9609185 0.7787714 0.7787714
0.9767915 0.7946444 0.7946444
0.9926645 0.8105174 0.8105174
1.0085375 0.8263904 0.8263904
1.0244105 0.8422634 0.8422634
0.0209774 0.0637845 0.0209774
0.0294996 0.0638888 0.0217309
0.0395981 0.0640455 0.0227127
0.0513224 0.0642823 0.0239874
0.0646403 0.0646403 0.0256341
0.0794313 0.0651791 0.0277480
0.0954939 0.0659816 0.0304386
0.1125674 0.0671584 0.0338270
0.1303618 0.0688478 0.0380379
0.1485908 0.0712110 0.0431893
0.1670010 0.0744199 0.0493788
0.1853901 0.0786386 0.0566711
0.2036155 0.0840019 0.0650883
0.2215913 0.0905965 0.0746073
0.2392792 0.0984503 0.0851642
0.2566756 0.1075318 0.0966639
0.2737994 0.1177599 0.1089923
0.2906816 0.1290187 0.1220291
0.3073578 0.1411738 0.1356570
0.3238632 0.1540872 0.1497684
0.3402301 0.1676276 0.1642691
0.3564862 0.1816771 0.1790790
0.3726549 0.1961337 0.1941323
0.3887554 0.2109121 0.2093754
0.4048027 0.2259426 0.2247656
0.4208091 0.2411691 0.2402694
0.4367840 0.2565472 0.2558606
0.4527347 0.2720421 0.2715186
0.4686670 0.2876266 0.2872279
0.4845850 0.3032797 0.3029762
0.5004924 0.3189853 0.3187544
0.5163915 0.3347308 0.3345552
0.5322843 0.3505069 0.3503734
0.5481724 0.3663062 0.3662047
0.5640569 0.3821232 0.3820461
0.5799386 0.3979536 0.3978950
0.5958182 0.4137942 0.4137497
0.6116963 0.4296427 0.4296088
0.6275731 0.4454970 0.4454713
0.6434490 0.4613558 0.4613363
0.6593242 0.4772180 0.4772032
0.6751989 0.4930829 0.4930716
0.6910732 0.5089497 0.5089411
0.7069472 0.5248180 0.5248115
0.7228209 0.5406874 0.5406824
0.7386945 0.5565577 0.5565539
0.7545680 0.5724286 0.5724258
0.7704413 0.5883001 0.5882979
0.7863145 0.6041719 0.6041702
0.8021877 0.6200440 0.6200427
0.8180609 0.6359163 0.6359154
0.8339340 0.6517888 0.6517881
0.8498071 0.6676614 0.6676609
0.8656802 0.6835341 0.6835337
0.8815533 0.6994069 0.6994066
0.8974263 0.7152798 0.7152795
0.9132994 0.7311526 0.7311525
0.9291724 0.7470256 0.7470254
0.9450454 0.7628985 0.7628984
0.9609185 0.7787715 0.7787714
0.9767915 0.7946444 0.7946444
0.9926645 0.8105174 0.8105174
1.0085375 0.8263904 0.8263904
1.0244105 0.8422634 0.8422634
0.0292705 0.0795395 0.0292705
0.0364071 0.0796030 0.0299457
0.0450134 0.0796993 0.0308247
0.0552007 0.0798464 0.0319649
0.0670143 0.0800719 0.0334372
0.0804171 0.0804171 0.0353270
0.0952838 0.0809420 0.0377343
0.1114093 0.0817305 0.0407715
0.1285300 0.0828940 0.0445586
0.1463555 0.0845723 0.0492148
0.1646007 0.0869281 0.0548471
0.1830144 0.0901344 0.0615377
0.2013977 0.0943558 0.0693327
0.2196111 0.0997269 0.0782358
0.2375717 0.1063334 0.0882077
0.2552434 0.1142020 0.0991727
0.2726242 0.1232997 0.1110288
0.2897338 0.1335441 0.1236605
0.3066038 0.1448181 0.1369496
0.3232697 0.1569870 0.1507833
0.3397667 0.1699123 0.1650601
0.3561268 0.1834627 0.1796920
0.3723775 0.1975204 0.1946051
0.3885421 0.2119835 0.2097388
0.4046392 0.2267672 0.2250442
0.4206840 0.2418018 0.2404825
0.4366885 0.2570315 0.2560233
0.4526619 0.2724121 0.2716427
0.4686114 0.2879089 0.2873224
0.4845428 0.3034949 0.3030482
0.5004602 0.3191491 0.3188091
0.5163670 0.3348555 0.3345969
0.5322657 0.3506018 0.3504051
0.5481583 0.3663783 0.3662288
0.5640461 0.3821780 0.3820644
0.5799304 0.3979953 0.3979089
0.5958120 0.4138259 0.4137603
0.6116916 0.4296667 0.4296169
0.6275695 0.4455153 0.4454774
0.6434463 0.4613697 0.4613409
0.6593222 0.4772286 0.4772067
0.6751974 0.4930909 0.4930743
0.6910720 0.5089558 0.5089431
0.7069463 0.5248226 0.5248130
0.7228203 0.5406909 0.5406836
0.7386940 0.5565603 0.5565548
0.7545676 0.5724306 0.5724264
0.7704410 0.5883016 0.5882984
0.7863143 0.6041730 0.6041706
0.8021876 0.6200449 0.6200430
0.8180608 0.6359170 0.6359156
0.8339339 0.6517893 0.6517883
0.8498071 0.6676618 0.6676610
0.8656801 0.6835344 0.6835338
0.8815532 0.6994071 0.6994067
0.8974263 0.7152799 0.7152796
0.9132993 0.7311528 0.7311525
0.9291724 0.7470257 0.7470255
0.9450454 0.7628986 0.7628984
0.9609184 0.7787715 0.7787714
0.9767915 0.7946445 0.7946444
0.9926645 0.8105174 0.8105174
1.0085375 0.8263904 0.8263904
1.0244105 0.8422634 0.8422634
0.0388725 0.0953414 0.0388725
0.0447460 0.0953796 0.0394565
0.0519418 0.0954379 0.0402172
0.0606132 0.0955278 0.0412050
0.0708690 0.0956673 0.0424822
0.0827512 0.0958839 0.0441249
0.0962191 0.0962191 0.0462232
0.1111437 0.0967331 0.0488808
0.1273169 0.0975104 0.0522116
0.1444735 0.0986634 0.0563339
0.1623223 0.1003331 0.0613613
0.1805794 0.1026830 0.0673908
0.1989954 0.1058871 0.0744912
0.2173739 0.1101104 0.0826935
0.2355780 0.1154873 0.0919865
0.2535268 0.1221029 0.1023185
0.2711861 0.1299827 0.1136053
0.2885548 0.1390928 0.1257406
0.3056536 0.1493495 0.1386085
0.3225142 0.1606353 0.1520929
0.3391723 0.1728145 0.1660853
0.3556629 0.1857489 0.1804893
0.3720178 0.1993069 0.1952218
0.3882645 0.2133708 0.2102138
0.4044258 0.2278390 0.2254089
0.4205205 0.2426266 0.2407618
0.4365634 0.2576643 0.2562368
0.4525663 0.2728965 0.2718056
0.4685386 0.2882789 0.2874466
0.4844873 0.3037772 0.3031428
0.5004179 0.3193643 0.3188812
0.5163348 0.3350194 0.3346517
0.5322412 0.3507265 0.3504467
0.5481397 0.3664732 0.3662605
0.5640320 0.3822501 0.3820884
0.5799197 0.3980501 0.3979272
0.5958039 0.4138676 0.4137742
0.6116853 0.4296984 0.4296274
0.6275648 0.4455393 0.4454854
0.6434427 0.4613880 0.4613470
0.6593194 0.4772425 0.4772114
0.6751953 0.4931014 0.4930778
0.6910704 0.5089638 0.5089458
0.7069451 0.5248287 0.5248150
0.7228193 0.5406955 0.5406852
0.7386933 0.5565638 0.5565560
0.7545670 0.5724333 0.5724273
0.7704406 0.5883036 0.5882991
0.7863140 0.6041746 0.6041711
0.8021873 0.6200460 0.6200434
0.8180606 0.6359179 0.6359159
0.8339338 0.6517900 0.6517885
0.8498069 0.6676623 0.6676612
0.8656801 0.6835348 0.6835339
0.8815532 0.6994074 0.6994068
0.8974262 0.7152802 0.7152797
0.9132993 0.7311529 0.7311526
0.9291724 0.7470258 0.7470255
0.9450454 0.7628987 0.7628985
0.9609184 0.7787716 0.7787714
0.9767915 0.7946445 0.7946444
0.9926645 0.8105175 0.8105174
1.0085375 0.8263905 0.8263904
1.0244105 0.8422634 0.8422634
0.0496407 0.1111719 0.0496407
0.0544018 0.1111947 0.0501317
0.0603156 0.1112296 0.0507723
0.0675571 0.1112839 0.0516054
0.0762785 0.1113689 0.0526851
0.0865868 0.1115025 0.0540778
0.0985216 0.1117121 0.0558635
0.1120393 0.1120393 0.0581361
0.1270082 0.1125448 0.0610020
0.1432177 0.1133134 0.0645759
0.1604014 0.1144583 0.0689741
0.1782678 0.1161211 0.0743048
0.1965337 0.1184664 0.0806564
0.2149513 0.1216687 0.0880866
0.2333260 0.1258933 0.0966141
0.2515227 0.1312746 0.1062160
0.2694625 0.1378971 0.1168315
0.2871121 0.1457855 0.1283699
0.3044717 0.1549050 0.1407224
0.3215623 0.1651712 0.1537730
0.3384157 0.1764658 0.1674080
0.3550678 0.1886530 0.1815225
0.3715536 0.2015942 0.1960239
0.3879045 0.2151580 0.2108334
0.4041481 0.2292266 0.2258856
0.4203070 0.2436986 0.2411275
0.4363997 0.2584892 0.2565167
0.4524412 0.2735293 0.2720195
0.4684430 0.2887633 0.2876098
0.4844144 0.3041473 0.3032671
0.5003624 0.3196466 0.3189758
0.5162926 0.3352346 0.3347237
0.5322091 0.3508903 0.3505016
0.5481152 0.3665979 0.3663022
0.5640134 0.3823450 0.3821201
0.5799055 0.3981222 0.3979513
0.5957931 0.4139224 0.4137925
0.6116772 0.4297401 0.4296413
0.6275586 0.4455710 0.4454960
0.6434380 0.4614120 0.4613550
0.6593159 0.4772608 0.4772175
0.6751926 0.4931153 0.4930824
0.6910684 0.5089743 0.5089493
0.7069435 0.5248367 0.5248177
0.7228182 0.5407016 0.5406872
0.7386924 0.5565685 0.5565575
0.7545663 0.5724368 0.5724285
0.7704401 0.5883063 0.5883000
0.7863136 0.6041766 0.6041718
0.8021870 0.6200476 0.6200439
0.8180604 0.6359190 0.6359163
0.8339336 0.6517909 0.6517888
0.8498068 0.6676630 0.6676614
0.8656800 0.6835353 0.6835341
0.8815531 0.6994078 0.6994069
0.8974262 0.7152805 0.7152798
0.9132993 0.7311532 0.7311526
0.9291723 0.7470260 0.7470256
0.9450454 0.7628988 0.7628985
0.9609184 0.7787717 0.7787715
0.9767914 0.7946446 0.7946444
0.9926645 0.8105175 0.8105174
1.0085375 0.8263905 0.8263904
1.0244105 0.8422635 0.8422634
0.0614153 0.1270197 0.0614153
0.0652249 0.1270332 0.0618191
0.0700125 0.1270540 0.0623466
0.0759572 0.1270864 0.0630339
0.0832338 0.1271376 0.0639269
0.0919937 0.1272188 0.0650825
0.1023422 0.1273477 0.0665702
0.1143173 0.1275519 0.0684735
0.1278730 0.1278730 0.0708890
0.1428755 0.1283718 0.0739250
0.1591127 0.1291337 0.0776964
0.1763169 0.1302722 0.0823177
0.1941966 0.1319297 0.0878922
0.2124691 0.1342714 0.0945013
0.2308877 0.1374723 0.1021934
0.2492593 0.1416979 0.1109777
0.2674504 0.1470825 0.1208221
0.2853832 0.1537102 0.1316587
0.3030256 0.1616051 0.1433926
0.3203782 0.1707318 0.1559130
0.3374624 0.1810051 0.1691044
0.3543104 0.1923065 0.1828551
0.3709580 0.2044998 0.1970631
0.3874400 0.2174462 0.2116390
0.4037880 0.2310144 0.2265073
0.4200292 0.2450866 0.2416055
0.4361862 0.2595614 0.2568831
0.4522775 0.2743544 0.2722998
0.4683178 0.2893963 0.2878239
0.4843188 0.3046317 0.3034304
0.5002895 0.3200167 0.3191003
0.5162370 0.3355169 0.3348185
0.5321668 0.3511055 0.3505736
0.5480830 0.3667617 0.3663570
0.5639889 0.3824697 0.3821618
0.5798869 0.3982171 0.3979830
0.5957790 0.4139945 0.4138166
0.6116664 0.4297949 0.4296596
0.6275504 0.4456127 0.4455099
0.6434318 0.4614437 0.4613656
0.6593112 0.4772848 0.4772255
0.6751890 0.4931336 0.4930885
0.6910657 0.5089882 0.5089540
0.7069415 0.5248472 0.5248212
0.7228166 0.5407096 0.5406899
0.7386912 0.5565746 0.5565596
0.7545654 0.5724414 0.5724300
0.7704394 0.5883098 0.5883011
0.7863131 0.6041793 0.6041727
0.8021866 0.6200496 0.6200446
0.8180601 0.6359206 0.6359168
0.8339334 0.6517920 0.6517892
0.8498066 0.6676639 0.6676617
0.8656798 0.6835360 0.6835343
0.8815530 0.6994083 0.6994071
0.8974261 0.7152808 0.7152799
0.9132992 0.7311535 0.7311527
0.9291723 0.7470262 0.7470256
0.9450453 0.7628990 0.7628986
0.9609184 0.7787718 0.7787715
0.9767914 0.7946447 0.7946445
0.9926645 0.8105176 0.8105174
1.0085375 0.8263906 0.8263904
1.0244105 0.8422635 0.8422634
0.0740357 0.1428779 0.0740357
0.0770511 0.1428858 0.0743619
0.0808777 0.1428981 0.0747886
0.0856856 0.1429174 0.0753456
0.0916540 0.1429479 0.0760711
0.0989575 0.1429966 0.0770127
0.1077467 0.1430748 0.0782298
0.1181261 0.1432002 0.0797945
0.1301318 0.1434002 0.0817926
0.1437166 0.1437166 0.0843233
0.1587447 0.1442103 0.0874958
0.1750029 0.1449669 0.0914254
0.1922226 0.1461005 0.0962245
0.2101124 0.1477539 0.1019926
0.2283898 0.1500928 0.1088052
0.2468091 0.1532926 0.1167033
0.2651784 0.1575190 0.1256884
0.2833652 0.1629061 0.1357217
0.3012926 0.1695377 0.1467299
0.3189294 0.1774376 0.1586148
0.3362766 0.1865696 0.1712645
0.3533560 0.1968485 0.1845641
0.3701999 0.2081549 0.1984035
0.3868440 0.2203529 0.2126829
0.4033232 0.2333033 0.2273158
0.4196689 0.2468747 0.2422289
0.4359083 0.2609497 0.2573621
0.4520639 0.2754267 0.2726668
0.4681541 0.2902214 0.2881045
0.4841936 0.3052647 0.3036447
0.5001939 0.3205012 0.3192637
0.5161641 0.3358870 0.3349430
0.5321113 0.3513879 0.3506684
0.5480408 0.3669769 0.3664291
0.5639568 0.3826336 0.3822166
0.5798625 0.3983418 0.3980247
0.5957604 0.4140894 0.4138483
0.6116523 0.4298670 0.4296837
0.6275397 0.4456675 0.4455282
0.6434236 0.4614854 0.4613795
0.6593050 0.4773165 0.4772361
0.6751843 0.4931577 0.4930966
0.6910621 0.5090065 0.5089601
0.7069387 0.5248611 0.5248258
0.7228145 0.5407202 0.5406934
0.7386896 0.5565826 0.5565622
0.7545642 0.5724475 0.5724321
0.7704385 0.5883144 0.5883027
0.7863124 0.6041828 0.6041739
0.8021861 0.6200523 0.6200455
0.8180597 0.6359226 0.6359175
0.8339331 0.6517936 0.6517897
0.8498064 0.6676651 0.6676621
0.8656797 0.6835369 0.6835346
0.8815529 0.6994090 0.6994073
0.8974260 0.7152814 0.7152801
0.9132991 0.7311539 0.7311529
0.9291722 0.7470265 0.7470257
0.9450453 0.7628992 0.7628986
0.9609184 0.7787720 0.7787716
0.9767914 0.7946448 0.7946445
0.9926644 0.8105177 0.8105175
1.0085375 0.8263906 0.8263904
1.0244105 0.8422636 0.8422634
0.0873516 0.1587423 0.0873516
0.0897173 0.1587469 0.0876114
0.0927434 0.1587541 0.0879517
0.0965829 0.1587654 0.0883968
0.1014063 0.1587835 0.0889775
0.1073929 0.1588125 0.0897335
0.1147169 0.1588594 0.0907140
0.1235286 0.1589353 0.0919802
0.1339314 0.1590579 0.0936063
0.1459606 0.1592547 0.0956801
0.1595675 0.1595675 0.0983023
0.1746152 0.1600572 0.1015832
0.1908892 0.1608098 0.1056379
0.2081208 0.1619397 0.1105772
0.2260181 0.1635899 0.1164975
0.2442993 0.1659266 0.1234693
0.2627191 0.1691255 0.1315281
0.2810865 0.1733525 0.1406693
0.2992699 0.1787415 0.1508489
0.3171933 0.1853762 0.1619895
0.3348258 0.1932798 0.1739906
0.3521689 0.2024160 0.1867396
0.3692447 0.2126989 0.2001220
0.3860854 0.2240093 0.2140291
0.4027269 0.2362107 0.2283632
0.4192039 0.2491641 0.2430394
0.4355479 0.2627382 0.2579867
0.4517859 0.2768151 0.2731466
0.4679405 0.2912939 0.2884720
0.4840299 0.3060899 0.3039256
0.5000687 0.3211342 0.3194781
0.5160686 0.3363715 0.3351064
0.5320384 0.3517580 0.3507929
0.5479852 0.3672593 0.3665239
0.5639145 0.3828487 0.3822888
0.5798303 0.3985057 0.3980795
0.5957359 0.4142141 0.4138900
0.6116337 0.4299619 0.4297154
0.6275256 0.4457396 0.4455523
0.6434129 0.4615402 0.4613978
0.6592968 0.4773582 0.4772500
0.6751781 0.4931893 0.4931071
0.6910574 0.5090305 0.5089681
0.7069352 0.5248794 0.5248319
0.7228118 0.5407341 0.5406980
0.7386876 0.5565931 0.5565657
0.7545627 0.5724555 0.5724347
0.7704373 0.5883205 0.5883047
0.7863115 0.6041874 0.6041754
0.8021854 0.6200558 0.6200467
0.8180592 0.6359253 0.6359184
0.8339327 0.6517956 0.6517904
0.8498061 0.6676666 0.6676626
0.8656794 0.6835381 0.6835350
0.8815527 0.6994099 0.6994076
0.8974259 0.7152820 0.7152803
0.9132990 0.7311544 0.7311530
0.9291721 0.7470269 0.7470259
0.9450452 0.7628995 0.7628987
0.9609183 0.7787722 0.7787716
0.9767914 0.7946450 0.7946446
0.9926644 0.8105179 0.8105175
1.0085375 0.8263907 0.8263905
1.0244105 0.8422637 0.8422635
0.1012296 0.1746102 0.1012296
0.1030723 0.1746129 0.1014343
0.1054446 0.1746171 0.1017027
0.1084787 0.1746238 0.1020541
0.1123282 0.1746344 0.1025137
0.1171635 0.1746516 0.1031132
0.1231639 0.1746794 0.1038933
0.1305036 0.1747249 0.1049045
0.1393323 0.1747991 0.1062096
0.1497531 0.1749196 0.1078842
0.1618002 0.1751139 0.1100176
0.1754238 0.1754238 0.1127118
0.1904864 0.1759106 0.1160778
0.2067725 0.1766601 0.1202306
0.2240131 0.1777870 0.1252795
0.2419162 0.1794349 0.1313184
0.2602001 0.1817699 0.1384141
0.2786202 0.1849681 0.1465974
0.2969862 0.1891955 0.1558593
0.3151671 0.1945859 0.1661516
0.3330874 0.2012229 0.1773940
0.3507166 0.2091294 0.1894843
0.3680566 0.2182687 0.2023093
0.3851296 0.2285548 0.2157550
0.4019679 0.2398682 0.2297139
0.4186074 0.2520722 0.2440896
0.4350828 0.2650279 0.2587989
0.4514255 0.2786039 0.2737721
0.4676625 0.2926824 0.2889523
0.4838162 0.3071625 0.3042934
0.4999050 0.3219595 0.3197592
0.5159433 0.3370046 0.3353210
0.5319428 0.3522425 0.3509565
0.5479123 0.3676294 0.3666485
0.5638590 0.3831311 0.3823836
0.5797880 0.3987208 0.3981516
0.5957037 0.4143780 0.4139448
0.6116092 0.4300866 0.4297571
0.6275070 0.4458345 0.4455840
0.6433988 0.4616123 0.4614219
0.6592860 0.4774130 0.4772683
0.6751699 0.4932310 0.4931210
0.6910512 0.5090622 0.5089786
0.7069304 0.5249035 0.5248400
0.7228082 0.5407523 0.5407041
0.7386849 0.5566070 0.5565704
0.7545606 0.5724661 0.5724383
0.7704357 0.5883285 0.5883074
0.7863103 0.6041935 0.6041774
0.8021845 0.6200604 0.6200482
0.8180585 0.6359288 0.6359195
0.8339322 0.6517983 0.6517912
0.8498057 0.6676686 0.6676633
0.8656791 0.6835396 0.6835355
0.8815525 0.6994111 0.6994080
0.8974257 0.7152829 0.7152806
0.9132989 0.7311550 0.7311533
0.9291720 0.7470274 0.7470260
0.9450452 0.7628999 0.7628989
0.9609183 0.7787725 0.7787717
0.9767913 0.7946452 0.7946446
0.9926644 0.8105180 0.8105176
1.0085374 0.8263909 0.8263905
1.0244105 0.8422638 0.8422635
0.1155554 0.1904803 0.1155554
0.1169827 0.1904818 0.1157153
0.1188294 0.1904843 0.1159251
0.1212066 0.1904882 0.1162003
0.1242469 0.1904944 0.1165605
0.1281040 0.1905045 0.1170315
0.1329483 0.1905210 0.1176458
0.1389593 0.1905480 0.1184447
0.1463109 0.1905924 0.1194800
0.1551527 0.1906652 0.1208154
0.1655871 0.1907840 0.1225280
0.1776478 0.1909765 0.1247080
0.1912843 0.1912843 0.1274584
0.2063581 0.1917687 0.1308908
0.2226535 0.1925159 0.1351198
0.2399008 0.1936406 0.1402539
0.2578082 0.1952866 0.1463847
0.2760942 0.1976204 0.1535761
0.2945147 0.2008181 0.1618556
0.3128796 0.2050457 0.1712104
0.3310585 0.2104372 0.1815892
0.3489764 0.2170760 0.1929097
0.3666031 0.2249846 0.2050682
0.3839408 0.2341263 0.2179513
0.4010117 0.2444148 0.2314453
0.4178482 0.2557304 0.2454437
0.4344861 0.2679365 0.2598510
0.4509603 0.2808939 0.2745855
0.4673020 0.2944714 0.2895785
0.4835382 0.3085511 0.3047741
