ocio/AgXc_default_OCIO-v2/LUTs/saturation-max-2.cube
TITLE "Saturation with max luma calculation to apply on log encoding."
LUT_3D_SIZE 8
0.0000000 0.0000000 0.0000000
0.1428571 -0.1428571 -0.1428571
0.2857143 -0.2857143 -0.2857143
0.4285714 -0.4285714 -0.4285714
0.5714286 -0.5714286 -0.5714286
0.7142857 -0.7142857 -0.7142857
0.8571429 -0.8571429 -0.8571429
1.0000000 -1.0000000 -1.0000000
-0.1428571 0.1428571 -0.1428571
0.1428571 0.1428571 -0.1428571
0.2857143 0.0000000 -0.2857143
0.4285714 -0.1428571 -0.4285714
0.5714286 -0.2857143 -0.5714286
0.7142857 -0.4285714 -0.7142857
0.8571429 -0.5714286 -0.8571429
1.0000000 -0.7142857 -1.0000000
-0.2857143 0.2857143 -0.2857143
0.0000000 0.2857143 -0.2857143
0.2857143 0.2857143 -0.2857143
0.4285714 0.1428571 -0.4285714
0.5714286 0.0000000 -0.5714286
0.7142857 -0.1428571 -0.7142857
0.8571429 -0.2857143 -0.8571429
1.0000000 -0.4285714 -1.0000000
-0.4285714 0.4285714 -0.4285714
-0.1428571 0.4285714 -0.4285714
0.1428571 0.4285714 -0.4285714
0.4285714 0.4285714 -0.4285714
0.5714286 0.2857143 -0.5714286
0.7142857 0.1428571 -0.7142857
0.8571429 0.0000000 -0.8571429
1.0000000 -0.1428571 -1.0000000
-0.5714286 0.5714286 -0.5714286
-0.2857143 0.5714286 -0.5714286
0.0000000 0.5714286 -0.5714286
0.2857143 0.5714286 -0.5714286
0.5714286 0.5714286 -0.5714286
0.7142857 0.4285714 -0.7142857
0.8571429 0.2857143 -0.8571429
1.0000000 0.1428571 -1.0000000
-0.7142857 0.7142857 -0.7142857
-0.4285714 0.7142857 -0.7142857
-0.1428571 0.7142857 -0.7142857
0.1428571 0.7142857 -0.7142857
0.4285714 0.7142857 -0.7142857
0.7142857 0.7142857 -0.7142857
0.8571429 0.5714286 -0.8571429
1.0000000 0.4285714 -1.0000000
-0.8571429 0.8571429 -0.8571429
-0.5714286 0.8571429 -0.8571429
-0.2857143 0.8571429 -0.8571429
0.0000000 0.8571429 -0.8571429
0.2857143 0.8571429 -0.8571429
0.5714286 0.8571429 -0.8571429
0.8571429 0.8571429 -0.8571429
1.0000000 0.7142857 -1.0000000
-1.0000000 1.0000000 -1.0000000
-0.7142857 1.0000000 -1.0000000
-0.4285714 1.0000000 -1.0000000
-0.1428571 1.0000000 -1.0000000
0.1428571 1.0000000 -1.0000000
0.4285714 1.0000000 -1.0000000
0.7142857 1.0000000 -1.0000000
1.0000000 1.0000000 -1.0000000
-0.1428571 -0.1428571 0.1428571
0.1428571 -0.1428571 0.1428571
0.2857143 -0.2857143 0.0000000
0.4285714 -0.4285714 -0.1428571
0.5714286 -0.5714286 -0.2857143
0.7142857 -0.7142857 -0.4285714
0.8571429 -0.8571429 -0.5714286
1.0000000 -1.0000000 -0.7142857
-0.1428571 0.1428571 0.1428571
0.1428571 0.1428571 0.1428571
0.2857143 0.0000000 0.0000000
0.4285714 -0.1428571 -0.1428571
0.5714286 -0.2857143 -0.2857143
0.7142857 -0.4285714 -0.4285714
0.8571429 -0.5714286 -0.5714286
1.0000000 -0.7142857 -0.7142857
-0.2857143 0.2857143 0.0000000
0.0000000 0.2857143 0.0000000
0.2857143 0.2857143 0.0000000
0.4285714 0.1428571 -0.1428571
0.5714286 0.0000000 -0.2857143
0.7142857 -0.1428571 -0.4285714
0.8571429 -0.2857143 -0.5714286
1.0000000 -0.4285714 -0.7142857
-0.4285714 0.4285714 -0.1428571
-0.1428571 0.4285714 -0.1428571
0.1428571 0.4285714 -0.1428571
0.4285714 0.4285714 -0.1428571
0.5714286 0.2857143 -0.2857143
0.7142857 0.1428571 -0.4285714
0.8571429 0.0000000 -0.5714286
1.0000000 -0.1428571 -0.7142857
-0.5714286 0.5714286 -0.2857143
-0.2857143 0.5714286 -0.2857143
0.0000000 0.5714286 -0.2857143
0.2857143 0.5714286 -0.2857143
0.5714286 0.5714286 -0.2857143
0.7142857 0.4285714 -0.4285714
0.8571429 0.2857143 -0.5714286
1.0000000 0.1428571 -0.7142857
-0.7142857 0.7142857 -0.4285714
-0.4285714 0.7142857 -0.4285714
-0.1428571 0.7142857 -0.4285714
0.1428571 0.7142857 -0.4285714
0.4285714 0.7142857 -0.4285714
0.7142857 0.7142857 -0.4285714
0.8571429 0.5714286 -0.5714286
1.0000000 0.4285714 -0.7142857
-0.8571429 0.8571429 -0.5714286
-0.5714286 0.8571429 -0.5714286
-0.2857143 0.8571429 -0.5714286
0.0000000 0.8571429 -0.5714286
0.2857143 0.8571429 -0.5714286
0.5714286 0.8571429 -0.5714286
0.8571429 0.8571429 -0.5714286
1.0000000 0.7142857 -0.7142857
-1.0000000 1.0000000 -0.7142857
-0.7142857 1.0000000 -0.7142857
-0.4285714 1.0000000 -0.7142857
-0.1428571 1.0000000 -0.7142857
0.1428571 1.0000000 -0.7142857
0.4285714 1.0000000 -0.7142857
0.7142857 1.0000000 -0.7142857
1.0000000 1.0000000 -0.7142857
-0.2857143 -0.2857143 0.2857143
0.0000000 -0.2857143 0.2857143
0.2857143 -0.2857143 0.2857143
0.4285714 -0.4285714 0.1428571
0.5714286 -0.5714286 0.0000000
0.7142857 -0.7142857 -0.1428571
0.8571429 -0.8571429 -0.2857143
1.0000000 -1.0000000 -0.4285714
-0.2857143 0.0000000 0.2857143
0.0000000 0.0000000 0.2857143
0.2857143 0.0000000 0.2857143
0.4285714 -0.1428571 0.1428571
0.5714286 -0.2857143 0.0000000
0.7142857 -0.4285714 -0.1428571
0.8571429 -0.5714286 -0.2857143
1.0000000 -0.7142857 -0.4285714
-0.2857143 0.2857143 0.2857143
0.0000000 0.2857143 0.2857143
0.2857143 0.2857143 0.2857143
0.4285714 0.1428571 0.1428571
0.5714286 0.0000000 0.0000000
0.7142857 -0.1428571 -0.1428571
0.8571429 -0.2857143 -0.2857143
1.0000000 -0.4285714 -0.4285714
-0.4285714 0.4285714 0.1428571
-0.1428571 0.4285714 0.1428571
0.1428571 0.4285714 0.1428571
0.4285714 0.4285714 0.1428571
0.5714286 0.2857143 0.0000000
0.7142857 0.1428571 -0.1428571
0.8571429 0.0000000 -0.2857143
1.0000000 -0.1428571 -0.4285714
-0.5714286 0.5714286 0.0000000
-0.2857143 0.5714286 0.0000000
0.0000000 0.5714286 0.0000000
0.2857143 0.5714286 0.0000000
0.5714286 0.5714286 0.0000000
0.7142857 0.4285714 -0.1428571
0.8571429 0.2857143 -0.2857143
1.0000000 0.1428571 -0.4285714
-0.7142857 0.7142857 -0.1428571
-0.4285714 0.7142857 -0.1428571
-0.1428571 0.7142857 -0.1428571
0.1428571 0.7142857 -0.1428571
0.4285714 0.7142857 -0.1428571
0.7142857 0.7142857 -0.1428571
0.8571429 0.5714286 -0.2857143
1.0000000 0.4285714 -0.4285714
-0.8571429 0.8571429 -0.2857143
-0.5714286 0.8571429 -0.2857143
-0.2857143 0.8571429 -0.2857143
0.0000000 0.8571429 -0.2857143
0.2857143 0.8571429 -0.2857143
0.5714286 0.8571429 -0.2857143
0.8571429 0.8571429 -0.2857143
1.0000000 0.7142857 -0.4285714
-1.0000000 1.0000000 -0.4285714
-0.7142857 1.0000000 -0.4285714
-0.4285714 1.0000000 -0.4285714
-0.1428571 1.0000000 -0.4285714
0.1428571 1.0000000 -0.4285714
0.4285714 1.0000000 -0.4285714
0.7142857 1.0000000 -0.4285714
1.0000000 1.0000000 -0.4285714
-0.4285714 -0.4285714 0.4285714
-0.1428571 -0.4285714 0.4285714
0.1428571 -0.4285714 0.4285714
0.4285714 -0.4285714 0.4285714
0.5714286 -0.5714286 0.2857143
0.7142857 -0.7142857 0.1428571
0.8571429 -0.8571429 0.0000000
1.0000000 -1.0000000 -0.1428571
-0.4285714 -0.1428571 0.4285714
-0.1428571 -0.1428571 0.4285714
0.1428571 -0.1428571 0.4285714
0.4285714 -0.1428571 0.4285714
0.5714286 -0.2857143 0.2857143
0.7142857 -0.4285714 0.1428571
0.8571429 -0.5714286 0.0000000
1.0000000 -0.7142857 -0.1428571
-0.4285714 0.1428571 0.4285714
-0.1428571 0.1428571 0.4285714
0.1428571 0.1428571 0.4285714
0.4285714 0.1428571 0.4285714
0.5714286 0.0000000 0.2857143
0.7142857 -0.1428571 0.1428571
0.8571429 -0.2857143 0.0000000
1.0000000 -0.4285714 -0.1428571
-0.4285714 0.4285714 0.4285714
-0.1428571 0.4285714 0.4285714
0.1428571 0.4285714 0.4285714
0.4285714 0.4285714 0.4285714
0.5714286 0.2857143 0.2857143
0.7142857 0.1428571 0.1428571
0.8571429 0.0000000 0.0000000
1.0000000 -0.1428571 -0.1428571
-0.5714286 0.5714286 0.2857143
-0.2857143 0.5714286 0.2857143
0.0000000 0.5714286 0.2857143
0.2857143 0.5714286 0.2857143
0.5714286 0.5714286 0.2857143
0.7142857 0.4285714 0.1428571
0.8571429 0.2857143 0.0000000
1.0000000 0.1428571 -0.1428571
-0.7142857 0.7142857 0.1428571
-0.4285714 0.7142857 0.1428571
-0.1428571 0.7142857 0.1428571
0.1428571 0.7142857 0.1428571
0.4285714 0.7142857 0.1428571
0.7142857 0.7142857 0.1428571
0.8571429 0.5714286 0.0000000
1.0000000 0.4285714 -0.1428571
-0.8571429 0.8571429 0.0000000
-0.5714286 0.8571429 0.0000000
-0.2857143 0.8571429 0.0000000
0.0000000 0.8571429 0.0000000
0.2857143 0.8571429 0.0000000
0.5714286 0.8571429 0.0000000
0.8571429 0.8571429 0.0000000
1.0000000 0.7142857 -0.1428571
-1.0000000 1.0000000 -0.1428571
-0.7142857 1.0000000 -0.1428571
-0.4285714 1.0000000 -0.1428571
-0.1428571 1.0000000 -0.1428571
0.1428571 1.0000000 -0.1428571
0.4285714 1.0000000 -0.1428571
0.7142857 1.0000000 -0.1428571
1.0000000 1.0000000 -0.1428571
-0.5714286 -0.5714286 0.5714286
-0.2857143 -0.5714286 0.5714286
0.0000000 -0.5714286 0.5714286
0.2857143 -0.5714286 0.5714286
0.5714286 -0.5714286 0.5714286
0.7142857 -0.7142857 0.4285714
0.8571429 -0.8571429 0.2857143
1.0000000 -1.0000000 0.1428571
-0.5714286 -0.2857143 0.5714286
-0.2857143 -0.2857143 0.5714286
0.0000000 -0.2857143 0.5714286
0.2857143 -0.2857143 0.5714286
0.5714286 -0.2857143 0.5714286
0.7142857 -0.4285714 0.4285714
0.8571429 -0.5714286 0.2857143
1.0000000 -0.7142857 0.1428571
-0.5714286 0.0000000 0.5714286
-0.2857143 0.0000000 0.5714286
0.0000000 0.0000000 0.5714286
0.2857143 0.0000000 0.5714286
0.5714286 0.0000000 0.5714286
0.7142857 -0.1428571 0.4285714
0.8571429 -0.2857143 0.2857143
1.0000000 -0.4285714 0.1428571
-0.5714286 0.2857143 0.5714286
-0.2857143 0.2857143 0.5714286
0.0000000 0.2857143 0.5714286
0.2857143 0.2857143 0.5714286
0.5714286 0.2857143 0.5714286
0.7142857 0.1428571 0.4285714
0.8571429 0.0000000 0.2857143
1.0000000 -0.1428571 0.1428571
-0.5714286 0.5714286 0.5714286
-0.2857143 0.5714286 0.5714286
0.0000000 0.5714286 0.5714286
0.2857143 0.5714286 0.5714286
0.5714286 0.5714286 0.5714286
0.7142857 0.4285714 0.4285714
0.8571429 0.2857143 0.2857143
1.0000000 0.1428571 0.1428571
-0.7142857 0.7142857 0.4285714
-0.4285714 0.7142857 0.4285714
-0.1428571 0.7142857 0.4285714
0.1428571 0.7142857 0.4285714
0.4285714 0.7142857 0.4285714
0.7142857 0.7142857 0.4285714
0.8571429 0.5714286 0.2857143
1.0000000 0.4285714 0.1428571
-0.8571429 0.8571429 0.2857143
-0.5714286 0.8571429 0.2857143
-0.2857143 0.8571429 0.2857143
0.0000000 0.8571429 0.2857143
0.2857143 0.8571429 0.2857143
0.5714286 0.8571429 0.2857143
0.8571429 0.8571429 0.2857143
1.0000000 0.7142857 0.1428571
-1.0000000 1.0000000 0.1428571
-0.7142857 1.0000000 0.1428571
-0.4285714 1.0000000 0.1428571
-0.1428571 1.0000000 0.1428571
0.1428571 1.0000000 0.1428571
0.4285714 1.0000000 0.1428571
0.7142857 1.0000000 0.1428571
1.0000000 1.0000000 0.1428571
-0.7142857 -0.7142857 0.7142857
-0.4285714 -0.7142857 0.7142857
-0.1428571 -0.7142857 0.7142857
0.1428571 -0.7142857 0.7142857
0.4285714 -0.7142857 0.7142857
0.7142857 -0.7142857 0.7142857
0.8571429 -0.8571429 0.5714286
1.0000000 -1.0000000 0.4285714
-0.7142857 -0.4285714 0.7142857
-0.4285714 -0.4285714 0.7142857
-0.1428571 -0.4285714 0.7142857
0.1428571 -0.4285714 0.7142857
0.4285714 -0.4285714 0.7142857
0.7142857 -0.4285714 0.7142857
0.8571429 -0.5714286 0.5714286
1.0000000 -0.7142857 0.4285714
-0.7142857 -0.1428571 0.7142857
-0.4285714 -0.1428571 0.7142857
-0.1428571 -0.1428571 0.7142857
0.1428571 -0.1428571 0.7142857
0.4285714 -0.1428571 0.7142857
0.7142857 -0.1428571 0.7142857
0.8571429 -0.2857143 0.5714286
1.0000000 -0.4285714 0.4285714
-0.7142857 0.1428571 0.7142857
-0.4285714 0.1428571 0.7142857
-0.1428571 0.1428571 0.7142857
0.1428571 0.1428571 0.7142857
0.4285714 0.1428571 0.7142857
0.7142857 0.1428571 0.7142857
0.8571429 0.0000000 0.5714286
1.0000000 -0.1428571 0.4285714
-0.7142857 0.4285714 0.7142857
-0.4285714 0.4285714 0.7142857
-0.1428571 0.4285714 0.7142857
0.1428571 0.4285714 0.7142857
0.4285714 0.4285714 0.7142857
0.7142857 0.4285714 0.7142857
0.8571429 0.2857143 0.5714286
1.0000000 0.1428571 0.4285714
-0.7142857 0.7142857 0.7142857
-0.4285714 0.7142857 0.7142857
-0.1428571 0.7142857 0.7142857
0.1428571 0.7142857 0.7142857
0.4285714 0.7142857 0.7142857
0.7142857 0.7142857 0.7142857
0.8571429 0.5714286 0.5714286
1.0000000 0.4285714 0.4285714
-0.8571429 0.8571429 0.5714286
-0.5714286 0.8571429 0.5714286
-0.2857143 0.8571429 0.5714286
0.0000000 0.8571429 0.5714286
0.2857143 0.8571429 0.5714286
0.5714286 0.8571429 0.5714286
0.8571429 0.8571429 0.5714286
1.0000000 0.7142857 0.4285714
-1.0000000 1.0000000 0.4285714
-0.7142857 1.0000000 0.4285714
-0.4285714 1.0000000 0.4285714
-0.1428571 1.0000000 0.4285714
0.1428571 1.0000000 0.4285714
0.4285714 1.0000000 0.4285714
0.7142857 1.0000000 0.4285714
1.0000000 1.0000000 0.4285714
-0.8571429 -0.8571429 0.8571429
-0.5714286 -0.8571429 0.8571429
-0.2857143 -0.8571429 0.8571429
0.0000000 -0.8571429 0.8571429
0.2857143 -0.8571429 0.8571429
0.5714286 -0.8571429 0.8571429
0.8571429 -0.8571429 0.8571429
1.0000000 -1.0000000 0.7142857
-0.8571429 -0.5714286 0.8571429
-0.5714286 -0.5714286 0.8571429
-0.2857143 -0.5714286 0.8571429
0.0000000 -0.5714286 0.8571429
0.2857143 -0.5714286 0.8571429
0.5714286 -0.5714286 0.8571429
0.8571429 -0.5714286 0.8571429
1.0000000 -0.7142857 0.7142857
-0.8571429 -0.2857143 0.8571429
-0.5714286 -0.2857143 0.8571429
-0.2857143 -0.2857143 0.8571429
0.0000000 -0.2857143 0.8571429
0.2857143 -0.2857143 0.8571429
0.5714286 -0.2857143 0.8571429
0.8571429 -0.2857143 0.8571429
1.0000000 -0.4285714 0.7142857
-0.8571429 0.0000000 0.8571429
-0.5714286 0.0000000 0.8571429
-0.2857143 0.0000000 0.8571429
0.0000000 0.0000000 0.8571429
0.2857143 0.0000000 0.8571429
0.5714286 0.0000000 0.8571429
0.8571429 0.0000000 0.8571429
1.0000000 -0.1428571 0.7142857
-0.8571429 0.2857143 0.8571429
-0.5714286 0.2857143 0.8571429
-0.2857143 0.2857143 0.8571429
0.0000000 0.2857143 0.8571429
0.2857143 0.2857143 0.8571429
0.5714286 0.2857143 0.8571429
0.8571429 0.2857143 0.8571429
1.0000000 0.1428571 0.7142857
-0.8571429 0.5714286 0.8571429
-0.5714286 0.5714286 0.8571429
-0.2857143 0.5714286 0.8571429
0.0000000 0.5714286 0.8571429
0.2857143 0.5714286 0.8571429
0.5714286 0.5714286 0.8571429
0.8571429 0.5714286 0.8571429
1.0000000 0.4285714 0.7142857
-0.8571429 0.8571429 0.8571429
-0.5714286 0.8571429 0.8571429
-0.2857143 0.8571429 0.8571429
0.0000000 0.8571429 0.8571429
0.2857143 0.8571429 0.8571429
0.5714286 0.8571429 0.8571429
0.8571429 0.8571429 0.8571429
1.0000000 0.7142857 0.7142857
-1.0000000 1.0000000 0.7142857
-0.7142857 1.0000000 0.7142857
-0.4285714 1.0000000 0.7142857
-0.1428571 1.0000000 0.7142857
0.1428571 1.0000000 0.7142857
0.4285714 1.0000000 0.7142857
0.7142857 1.0000000 0.7142857
1.0000000 1.0000000 0.7142857
-1.0000000 -1.0000000 1.0000000
-0.7142857 -1.0000000 1.0000000
-0.4285714 -1.0000000 1.0000000
-0.1428571 -1.0000000 1.0000000
0.1428571 -1.0000000 1.0000000
0.4285714 -1.0000000 1.0000000
0.7142857 -1.0000000 1.0000000
1.0000000 -1.0000000 1.0000000
-1.0000000 -0.7142857 1.0000000
-0.7142857 -0.7142857 1.0000000
-0.4285714 -0.7142857 1.0000000
-0.1428571 -0.7142857 1.0000000
0.1428571 -0.7142857 1.0000000
0.4285714 -0.7142857 1.0000000
0.7142857 -0.7142857 1.0000000
1.0000000 -0.7142857 1.0000000
-1.0000000 -0.4285714 1.0000000
-0.7142857 -0.4285714 1.0000000
-0.4285714 -0.4285714 1.0000000
-0.1428571 -0.4285714 1.0000000
0.1428571 -0.4285714 1.0000000
0.4285714 -0.4285714 1.0000000
0.7142857 -0.4285714 1.0000000
1.0000000 -0.4285714 1.0000000
-1.0000000 -0.1428571 1.0000000
-0.7142857 -0.1428571 1.0000000
-0.4285714 -0.1428571 1.0000000
-0.1428571 -0.1428571 1.0000000
0.1428571 -0.1428571 1.0000000
0.4285714 -0.1428571 1.0000000
0.7142857 -0.1428571 1.0000000
1.0000000 -0.1428571 1.0000000
-1.0000000 0.1428571 1.0000000
-0.7142857 0.1428571 1.0000000
-0.4285714 0.1428571 1.0000000
-0.1428571 0.1428571 1.0000000
0.1428571 0.1428571 1.0000000
0.4285714 0.1428571 1.0000000
0.7142857 0.1428571 1.0000000
1.0000000 0.1428571 1.0000000
-1.0000000 0.4285714 1.0000000
-0.7142857 0.4285714 1.0000000
-0.4285714 0.4285714 1.0000000
-0.1428571 0.4285714 1.0000000
0.1428571 0.4285714 1.0000000
0.4285714 0.4285714 1.0000000
0.7142857 0.4285714 1.0000000
1.0000000 0.4285714 1.0000000
-1.0000000 0.7142857 1.0000000
-0.7142857 0.7142857 1.0000000
-0.4285714 0.7142857 1.0000000
-0.1428571 0.7142857 1.0000000
0.1428571 0.7142857 1.0000000
0.4285714 0.7142857 1.0000000
0.7142857 0.7142857 1.0000000
1.0000000 0.7142857 1.0000000
-1.0000000 1.0000000 1.0000000
-0.7142857 1.0000000 1.0000000
-0.4285714 1.0000000 1.0000000
-0.1428571 1.0000000 1.0000000
0.1428571 1.0000000 1.0000000
0.4285714 1.0000000 1.0000000
0.7142857 1.0000000 1.0000000
1.0000000 1.0000000 1.0000000
