ocio/AgXc_default_OCIO-v2/LUTs/saturation-max-2.cube
TITLE "Saturation with max luma calculation to apply on log encoding."
LUT_3D_SIZE 4
0.0000000 0.0000000 0.0000000
0.3333333 -0.3333333 -0.3333333
0.6666667 -0.6666667 -0.6666667
1.0000000 -1.0000000 -1.0000000
-0.3333333 0.3333333 -0.3333333
0.3333333 0.3333333 -0.3333333
0.6666667 0.0000000 -0.6666667
1.0000000 -0.3333333 -1.0000000
-0.6666667 0.6666667 -0.6666667
0.0000000 0.6666667 -0.6666667
0.6666667 0.6666667 -0.6666667
1.0000000 0.3333333 -1.0000000
-1.0000000 1.0000000 -1.0000000
-0.3333333 1.0000000 -1.0000000
0.3333333 1.0000000 -1.0000000
1.0000000 1.0000000 -1.0000000
-0.3333333 -0.3333333 0.3333333
0.3333333 -0.3333333 0.3333333
0.6666667 -0.6666667 0.0000000
1.0000000 -1.0000000 -0.3333333
-0.3333333 0.3333333 0.3333333
0.3333333 0.3333333 0.3333333
0.6666667 0.0000000 0.0000000
1.0000000 -0.3333333 -0.3333333
-0.6666667 0.6666667 0.0000000
0.0000000 0.6666667 0.0000000
0.6666667 0.6666667 0.0000000
1.0000000 0.3333333 -0.3333333
-1.0000000 1.0000000 -0.3333333
-0.3333333 1.0000000 -0.3333333
0.3333333 1.0000000 -0.3333333
1.0000000 1.0000000 -0.3333333
-0.6666667 -0.6666667 0.6666667
0.0000000 -0.6666667 0.6666667
0.6666667 -0.6666667 0.6666667
1.0000000 -1.0000000 0.3333333
-0.6666667 0.0000000 0.6666667
0.0000000 0.0000000 0.6666667
0.6666667 0.0000000 0.6666667
1.0000000 -0.3333333 0.3333333
-0.6666667 0.6666667 0.6666667
0.0000000 0.6666667 0.6666667
0.6666667 0.6666667 0.6666667
1.0000000 0.3333333 0.3333333
-1.0000000 1.0000000 0.3333333
-0.3333333 1.0000000 0.3333333
0.3333333 1.0000000 0.3333333
1.0000000 1.0000000 0.3333333
-1.0000000 -1.0000000 1.0000000
-0.3333333 -1.0000000 1.0000000
0.3333333 -1.0000000 1.0000000
1.0000000 -1.0000000 1.0000000
-1.0000000 -0.3333333 1.0000000
-0.3333333 -0.3333333 1.0000000
0.3333333 -0.3333333 1.0000000
1.0000000 -0.3333333 1.0000000
-1.0000000 0.3333333 1.0000000
-0.3333333 0.3333333 1.0000000
0.3333333 0.3333333 1.0000000
1.0000000 0.3333333 1.0000000
-1.0000000 1.0000000 1.0000000
-0.3333333 1.0000000 1.0000000
0.3333333 1.0000000 1.0000000
1.0000000 1.0000000 1.0000000
