ocio/AgXc_default_OCIO-v2/LUTs/saturation-max-2.cube
TITLE "Saturation with max luma calculation to apply on log encoding."
LUT_3D_SIZE 64
0.0000000 0.0000000 0.0000000
0.0158730 -0.0158730 -0.0158730
0.0317460 -0.0317460 -0.0317460
0.0476190 -0.0476190 -0.0476190
0.0634921 -0.0634921 -0.0634921
0.0793651 -0.0793651 -0.0793651
0.0952381 -0.0952381 -0.0952381
0.1111111 -0.1111111 -0.1111111
0.1269841 -0.1269841 -0.1269841
0.1428571 -0.1428571 -0.1428571
0.1587302 -0.1587302 -0.1587302
0.1746032 -0.1746032 -0.1746032
0.1904762 -0.1904762 -0.1904762
0.2063492 -0.2063492 -0.2063492
0.2222222 -0.2222222 -0.2222222
0.2380952 -0.2380952 -0.2380952
0.2539683 -0.2539683 -0.2539683
0.2698413 -0.2698413 -0.2698413
0.2857143 -0.2857143 -0.2857143
0.3015873 -0.3015873 -0.3015873
0.3174603 -0.3174603 -0.3174603
0.3333333 -0.3333333 -0.3333333
0.3492063 -0.3492063 -0.3492063
0.3650794 -0.3650794 -0.3650794
0.3809524 -0.3809524 -0.3809524
0.3968254 -0.3968254 -0.3968254
0.4126984 -0.4126984 -0.4126984
0.4285714 -0.4285714 -0.4285714
0.4444444 -0.4444444 -0.4444444
0.4603175 -0.4603175 -0.4603175
0.4761905 -0.4761905 -0.4761905
0.4920635 -0.4920635 -0.4920635
0.5079365 -0.5079365 -0.5079365
0.5238095 -0.5238095 -0.5238095
0.5396825 -0.5396825 -0.5396825
0.5555556 -0.5555556 -0.5555556
0.5714286 -0.5714286 -0.5714286
0.5873016 -0.5873016 -0.5873016
0.6031746 -0.6031746 -0.6031746
0.6190476 -0.6190476 -0.6190476
0.6349206 -0.6349206 -0.6349206
0.6507937 -0.6507937 -0.6507937
0.6666667 -0.6666667 -0.6666667
0.6825397 -0.6825397 -0.6825397
0.6984127 -0.6984127 -0.6984127
0.7142857 -0.7142857 -0.7142857
0.7301587 -0.7301587 -0.7301587
0.7460317 -0.7460317 -0.7460317
0.7619048 -0.7619048 -0.7619048
0.7777778 -0.7777778 -0.7777778
0.7936508 -0.7936508 -0.7936508
0.8095238 -0.8095238 -0.8095238
0.8253968 -0.8253968 -0.8253968
0.8412698 -0.8412698 -0.8412698
0.8571429 -0.8571429 -0.8571429
0.8730159 -0.8730159 -0.8730159
0.8888889 -0.8888889 -0.8888889
0.9047619 -0.9047619 -0.9047619
0.9206349 -0.9206349 -0.9206349
0.9365079 -0.9365079 -0.9365079
0.9523810 -0.9523810 -0.9523810
0.9682540 -0.9682540 -0.9682540
0.9841270 -0.9841270 -0.9841270
1.0000000 -1.0000000 -1.0000000
-0.0158730 0.0158730 -0.0158730
0.0158730 0.0158730 -0.0158730
0.0317460 0.0000000 -0.0317460
0.0476190 -0.0158730 -0.0476190
0.0634921 -0.0317460 -0.0634921
0.0793651 -0.0476190 -0.0793651
0.0952381 -0.0634921 -0.0952381
0.1111111 -0.0793651 -0.1111111
0.1269841 -0.0952381 -0.1269841
0.1428571 -0.1111111 -0.1428571
0.1587302 -0.1269841 -0.1587302
0.1746032 -0.1428571 -0.1746032
0.1904762 -0.1587302 -0.1904762
0.2063492 -0.1746032 -0.2063492
0.2222222 -0.1904762 -0.2222222
0.2380952 -0.2063492 -0.2380952
0.2539683 -0.2222222 -0.2539683
0.2698413 -0.2380952 -0.2698413
0.2857143 -0.2539683 -0.2857143
0.3015873 -0.2698413 -0.3015873
0.3174603 -0.2857143 -0.3174603
0.3333333 -0.3015873 -0.3333333
0.3492063 -0.3174603 -0.3492063
0.3650794 -0.3333333 -0.3650794
0.3809524 -0.3492063 -0.3809524
0.3968254 -0.3650794 -0.3968254
0.4126984 -0.3809524 -0.4126984
0.4285714 -0.3968254 -0.4285714
0.4444444 -0.4126984 -0.4444444
0.4603175 -0.4285714 -0.4603175
0.4761905 -0.4444444 -0.4761905
0.4920635 -0.4603175 -0.4920635
0.5079365 -0.4761905 -0.5079365
0.5238095 -0.4920635 -0.5238095
0.5396825 -0.5079365 -0.5396825
0.5555556 -0.5238095 -0.5555556
0.5714286 -0.5396825 -0.5714286
0.5873016 -0.5555556 -0.5873016
0.6031746 -0.5714286 -0.6031746
0.6190476 -0.5873016 -0.6190476
0.6349206 -0.6031746 -0.6349206
0.6507937 -0.6190476 -0.6507937
0.6666667 -0.6349206 -0.6666667
0.6825397 -0.6507937 -0.6825397
0.6984127 -0.6666667 -0.6984127
0.7142857 -0.6825397 -0.7142857
0.7301587 -0.6984127 -0.7301587
0.7460317 -0.7142857 -0.7460317
0.7619048 -0.7301587 -0.7619048
0.7777778 -0.7460317 -0.7777778
0.7936508 -0.7619048 -0.7936508
0.8095238 -0.7777778 -0.8095238
0.8253968 -0.7936508 -0.8253968
0.8412698 -0.8095238 -0.8412698
0.8571429 -0.8253968 -0.8571429
0.8730159 -0.8412698 -0.8730159
0.8888889 -0.8571429 -0.8888889
0.9047619 -0.8730159 -0.9047619
0.9206349 -0.8888889 -0.9206349
0.9365079 -0.9047619 -0.9365079
0.9523810 -0.9206349 -0.9523810
0.9682540 -0.9365079 -0.9682540
0.9841270 -0.9523810 -0.9841270
1.0000000 -0.9682540 -1.0000000
-0.0317460 0.0317460 -0.0317460
0.0000000 0.0317460 -0.0317460
0.0317460 0.0317460 -0.0317460
0.0476190 0.0158730 -0.0476190
0.0634921 0.0000000 -0.0634921
0.0793651 -0.0158730 -0.0793651
0.0952381 -0.0317460 -0.0952381
0.1111111 -0.0476190 -0.1111111
0.1269841 -0.0634921 -0.1269841
0.1428571 -0.0793651 -0.1428571
0.1587302 -0.0952381 -0.1587302
0.1746032 -0.1111111 -0.1746032
0.1904762 -0.1269841 -0.1904762
0.2063492 -0.1428571 -0.2063492
0.2222222 -0.1587302 -0.2222222
0.2380952 -0.1746032 -0.2380952
0.2539683 -0.1904762 -0.2539683
0.2698413 -0.2063492 -0.2698413
0.2857143 -0.2222222 -0.2857143
0.3015873 -0.2380952 -0.3015873
0.3174603 -0.2539683 -0.3174603
0.3333333 -0.2698413 -0.3333333
0.3492063 -0.2857143 -0.3492063
0.3650794 -0.3015873 -0.3650794
0.3809524 -0.3174603 -0.3809524
0.3968254 -0.3333333 -0.3968254
0.4126984 -0.3492063 -0.4126984
0.4285714 -0.3650794 -0.4285714
0.4444444 -0.3809524 -0.4444444
0.4603175 -0.3968254 -0.4603175
0.4761905 -0.4126984 -0.4761905
0.4920635 -0.4285714 -0.4920635
0.5079365 -0.4444444 -0.5079365
0.5238095 -0.4603175 -0.5238095
0.5396825 -0.4761905 -0.5396825
0.5555556 -0.4920635 -0.5555556
0.5714286 -0.5079365 -0.5714286
0.5873016 -0.5238095 -0.5873016
0.6031746 -0.5396825 -0.6031746
0.6190476 -0.5555556 -0.6190476
0.6349206 -0.5714286 -0.6349206
0.6507937 -0.5873016 -0.6507937
0.6666667 -0.6031746 -0.6666667
0.6825397 -0.6190476 -0.6825397
0.6984127 -0.6349206 -0.6984127
0.7142857 -0.6507937 -0.7142857
0.7301587 -0.6666667 -0.7301587
0.7460317 -0.6825397 -0.7460317
0.7619048 -0.6984127 -0.7619048
0.7777778 -0.7142857 -0.7777778
0.7936508 -0.7301587 -0.7936508
0.8095238 -0.7460317 -0.8095238
0.8253968 -0.7619048 -0.8253968
0.8412698 -0.7777778 -0.8412698
0.8571429 -0.7936508 -0.8571429
0.8730159 -0.8095238 -0.8730159
0.8888889 -0.8253968 -0.8888889
0.9047619 -0.8412698 -0.9047619
0.9206349 -0.8571429 -0.9206349
0.9365079 -0.8730159 -0.9365079
0.9523810 -0.8888889 -0.9523810
0.9682540 -0.9047619 -0.9682540
0.9841270 -0.9206349 -0.9841270
1.0000000 -0.9365079 -1.0000000
-0.0476190 0.0476190 -0.0476190
-0.0158730 0.0476190 -0.0476190
0.0158730 0.0476190 -0.0476190
0.0476190 0.0476190 -0.0476190
0.0634921 0.0317460 -0.0634921
0.0793651 0.0158730 -0.0793651
0.0952381 0.0000000 -0.0952381
0.1111111 -0.0158730 -0.1111111
0.1269841 -0.0317460 -0.1269841
0.1428571 -0.0476190 -0.1428571
0.1587302 -0.0634921 -0.1587302
0.1746032 -0.0793651 -0.1746032
0.1904762 -0.0952381 -0.1904762
0.2063492 -0.1111111 -0.2063492
0.2222222 -0.1269841 -0.2222222
0.2380952 -0.1428571 -0.2380952
0.2539683 -0.1587302 -0.2539683
0.2698413 -0.1746032 -0.2698413
0.2857143 -0.1904762 -0.2857143
0.3015873 -0.2063492 -0.3015873
0.3174603 -0.2222222 -0.3174603
0.3333333 -0.2380952 -0.3333333
0.3492063 -0.2539683 -0.3492063
0.3650794 -0.2698413 -0.3650794
0.3809524 -0.2857143 -0.3809524
0.3968254 -0.3015873 -0.3968254
0.4126984 -0.3174603 -0.4126984
0.4285714 -0.3333333 -0.4285714
0.4444444 -0.3492063 -0.4444444
0.4603175 -0.3650794 -0.4603175
0.4761905 -0.3809524 -0.4761905
0.4920635 -0.3968254 -0.4920635
0.5079365 -0.4126984 -0.5079365
0.5238095 -0.4285714 -0.5238095
0.5396825 -0.4444444 -0.5396825
0.5555556 -0.4603175 -0.5555556
0.5714286 -0.4761905 -0.5714286
0.5873016 -0.4920635 -0.5873016
0.6031746 -0.5079365 -0.6031746
0.6190476 -0.5238095 -0.6190476
0.6349206 -0.5396825 -0.6349206
0.6507937 -0.5555556 -0.6507937
0.6666667 -0.5714286 -0.6666667
0.6825397 -0.5873016 -0.6825397
0.6984127 -0.6031746 -0.6984127
0.7142857 -0.6190476 -0.7142857
0.7301587 -0.6349206 -0.7301587
0.7460317 -0.6507937 -0.7460317
0.7619048 -0.6666667 -0.7619048
0.7777778 -0.6825397 -0.7777778
0.7936508 -0.6984127 -0.7936508
0.8095238 -0.7142857 -0.8095238
0.8253968 -0.7301587 -0.8253968
0.8412698 -0.7460317 -0.8412698
0.8571429 -0.7619048 -0.8571429
0.8730159 -0.7777778 -0.8730159
0.8888889 -0.7936508 -0.8888889
0.9047619 -0.8095238 -0.9047619
0.9206349 -0.8253968 -0.9206349
0.9365079 -0.8412698 -0.9365079
0.9523810 -0.8571429 -0.9523810
0.9682540 -0.8730159 -0.9682540
0.9841270 -0.8888889 -0.9841270
1.0000000 -0.9047619 -1.0000000
-0.0634921 0.0634921 -0.0634921
-0.0317460 0.0634921 -0.0634921
0.0000000 0.0634921 -0.0634921
0.0317460 0.0634921 -0.0634921
0.0634921 0.0634921 -0.0634921
0.0793651 0.0476190 -0.0793651
0.0952381 0.0317460 -0.0952381
0.1111111 0.0158730 -0.1111111
0.1269841 0.0000000 -0.1269841
0.1428571 -0.0158730 -0.1428571
0.1587302 -0.0317460 -0.1587302
0.1746032 -0.0476190 -0.1746032
0.1904762 -0.0634921 -0.1904762
0.2063492 -0.0793651 -0.2063492
0.2222222 -0.0952381 -0.2222222
0.2380952 -0.1111111 -0.2380952
0.2539683 -0.1269841 -0.2539683
0.2698413 -0.1428571 -0.2698413
0.2857143 -0.1587302 -0.2857143
0.3015873 -0.1746032 -0.3015873
0.3174603 -0.1904762 -0.3174603
0.3333333 -0.2063492 -0.3333333
0.3492063 -0.2222222 -0.3492063
0.3650794 -0.2380952 -0.3650794
0.3809524 -0.2539683 -0.3809524
0.3968254 -0.2698413 -0.3968254
0.4126984 -0.2857143 -0.4126984
0.4285714 -0.3015873 -0.4285714
0.4444444 -0.3174603 -0.4444444
0.4603175 -0.3333333 -0.4603175
0.4761905 -0.3492063 -0.4761905
0.4920635 -0.3650794 -0.4920635
0.5079365 -0.3809524 -0.5079365
0.5238095 -0.3968254 -0.5238095
0.5396825 -0.4126984 -0.5396825
0.5555556 -0.4285714 -0.5555556
0.5714286 -0.4444444 -0.5714286
0.5873016 -0.4603175 -0.5873016
0.6031746 -0.4761905 -0.6031746
0.6190476 -0.4920635 -0.6190476
0.6349206 -0.5079365 -0.6349206
0.6507937 -0.5238095 -0.6507937
0.6666667 -0.5396825 -0.6666667
0.6825397 -0.5555556 -0.6825397
0.6984127 -0.5714286 -0.6984127
0.7142857 -0.5873016 -0.7142857
0.7301587 -0.6031746 -0.7301587
0.7460317 -0.6190476 -0.7460317
0.7619048 -0.6349206 -0.7619048
0.7777778 -0.6507937 -0.7777778
0.7936508 -0.6666667 -0.7936508
0.8095238 -0.6825397 -0.8095238
0.8253968 -0.6984127 -0.8253968
0.8412698 -0.7142857 -0.8412698
0.8571429 -0.7301587 -0.8571429
0.8730159 -0.7460317 -0.8730159
0.8888889 -0.7619048 -0.8888889
0.9047619 -0.7777778 -0.9047619
0.9206349 -0.7936508 -0.9206349
0.9365079 -0.8095238 -0.9365079
0.9523810 -0.8253968 -0.9523810
0.9682540 -0.8412698 -0.9682540
0.9841270 -0.8571429 -0.9841270
1.0000000 -0.8730159 -1.0000000
-0.0793651 0.0793651 -0.0793651
-0.0476190 0.0793651 -0.0793651
-0.0158730 0.0793651 -0.0793651
0.0158730 0.0793651 -0.0793651
0.0476190 0.0793651 -0.0793651
0.0793651 0.0793651 -0.0793651
0.0952381 0.0634921 -0.0952381
0.1111111 0.0476190 -0.1111111
0.1269841 0.0317460 -0.1269841
0.1428571 0.0158730 -0.1428571
0.1587302 0.0000000 -0.1587302
0.1746032 -0.0158730 -0.1746032
0.1904762 -0.0317460 -0.1904762
0.2063492 -0.0476190 -0.2063492
0.2222222 -0.0634921 -0.2222222
0.2380952 -0.0793651 -0.2380952
0.2539683 -0.0952381 -0.2539683
0.2698413 -0.1111111 -0.2698413
0.2857143 -0.1269841 -0.2857143
0.3015873 -0.1428571 -0.3015873
0.3174603 -0.1587302 -0.3174603
0.3333333 -0.1746032 -0.3333333
0.3492063 -0.1904762 -0.3492063
0.3650794 -0.2063492 -0.3650794
0.3809524 -0.2222222 -0.3809524
0.3968254 -0.2380952 -0.3968254
0.4126984 -0.2539683 -0.4126984
0.4285714 -0.2698413 -0.4285714
0.4444444 -0.2857143 -0.4444444
0.4603175 -0.3015873 -0.4603175
0.4761905 -0.3174603 -0.4761905
0.4920635 -0.3333333 -0.4920635
0.5079365 -0.3492063 -0.5079365
0.5238095 -0.3650794 -0.5238095
0.5396825 -0.3809524 -0.5396825
0.5555556 -0.3968254 -0.5555556
0.5714286 -0.4126984 -0.5714286
0.5873016 -0.4285714 -0.5873016
0.6031746 -0.4444444 -0.6031746
0.6190476 -0.4603175 -0.6190476
0.6349206 -0.4761905 -0.6349206
0.6507937 -0.4920635 -0.6507937
0.6666667 -0.5079365 -0.6666667
0.6825397 -0.5238095 -0.6825397
0.6984127 -0.5396825 -0.6984127
0.7142857 -0.5555556 -0.7142857
0.7301587 -0.5714286 -0.7301587
0.7460317 -0.5873016 -0.7460317
0.7619048 -0.6031746 -0.7619048
0.7777778 -0.6190476 -0.7777778
0.7936508 -0.6349206 -0.7936508
0.8095238 -0.6507937 -0.8095238
0.8253968 -0.6666667 -0.8253968
0.8412698 -0.6825397 -0.8412698
0.8571429 -0.6984127 -0.8571429
0.8730159 -0.7142857 -0.8730159
0.8888889 -0.7301587 -0.8888889
0.9047619 -0.7460317 -0.9047619
0.9206349 -0.7619048 -0.9206349
0.9365079 -0.7777778 -0.9365079
0.9523810 -0.7936508 -0.9523810
0.9682540 -0.8095238 -0.9682540
0.9841270 -0.8253968 -0.9841270
1.0000000 -0.8412698 -1.0000000
-0.0952381 0.0952381 -0.0952381
-0.0634921 0.0952381 -0.0952381
-0.0317460 0.0952381 -0.0952381
0.0000000 0.0952381 -0.0952381
0.0317460 0.0952381 -0.0952381
0.0634921 0.0952381 -0.0952381
0.0952381 0.0952381 -0.0952381
0.1111111 0.0793651 -0.1111111
0.1269841 0.0634921 -0.1269841
0.1428571 0.0476190 -0.1428571
0.1587302 0.0317460 -0.1587302
0.1746032 0.0158730 -0.1746032
0.1904762 0.0000000 -0.1904762
0.2063492 -0.0158730 -0.2063492
0.2222222 -0.0317460 -0.2222222
0.2380952 -0.0476190 -0.2380952
0.2539683 -0.0634921 -0.2539683
0.2698413 -0.0793651 -0.2698413
0.2857143 -0.0952381 -0.2857143
0.3015873 -0.1111111 -0.3015873
0.3174603 -0.1269841 -0.3174603
0.3333333 -0.1428571 -0.3333333
0.3492063 -0.1587302 -0.3492063
0.3650794 -0.1746032 -0.3650794
0.3809524 -0.1904762 -0.3809524
0.3968254 -0.2063492 -0.3968254
0.4126984 -0.2222222 -0.4126984
0.4285714 -0.2380952 -0.4285714
0.4444444 -0.2539683 -0.4444444
0.4603175 -0.2698413 -0.4603175
0.4761905 -0.2857143 -0.4761905
0.4920635 -0.3015873 -0.4920635
0.5079365 -0.3174603 -0.5079365
0.5238095 -0.3333333 -0.5238095
0.5396825 -0.3492063 -0.5396825
0.5555556 -0.3650794 -0.5555556
0.5714286 -0.3809524 -0.5714286
0.5873016 -0.3968254 -0.5873016
0.6031746 -0.4126984 -0.6031746
0.6190476 -0.4285714 -0.6190476
0.6349206 -0.4444444 -0.6349206
0.6507937 -0.4603175 -0.6507937
0.6666667 -0.4761905 -0.6666667
0.6825397 -0.4920635 -0.6825397
0.6984127 -0.5079365 -0.6984127
0.7142857 -0.5238095 -0.7142857
0.7301587 -0.5396825 -0.7301587
0.7460317 -0.5555556 -0.7460317
0.7619048 -0.5714286 -0.7619048
0.7777778 -0.5873016 -0.7777778
0.7936508 -0.6031746 -0.7936508
0.8095238 -0.6190476 -0.8095238
0.8253968 -0.6349206 -0.8253968
0.8412698 -0.6507937 -0.8412698
0.8571429 -0.6666667 -0.8571429
0.8730159 -0.6825397 -0.8730159
0.8888889 -0.6984127 -0.8888889
0.9047619 -0.7142857 -0.9047619
0.9206349 -0.7301587 -0.9206349
0.9365079 -0.7460317 -0.9365079
0.9523810 -0.7619048 -0.9523810
0.9682540 -0.7777778 -0.9682540
0.9841270 -0.7936508 -0.9841270
1.0000000 -0.8095238 -1.0000000
-0.1111111 0.1111111 -0.1111111
-0.0793651 0.1111111 -0.1111111
-0.0476190 0.1111111 -0.1111111
-0.0158730 0.1111111 -0.1111111
0.0158730 0.1111111 -0.1111111
0.0476190 0.1111111 -0.1111111
0.0793651 0.1111111 -0.1111111
0.1111111 0.1111111 -0.1111111
0.1269841 0.0952381 -0.1269841
0.1428571 0.0793651 -0.1428571
0.1587302 0.0634921 -0.1587302
0.1746032 0.0476190 -0.1746032
0.1904762 0.0317460 -0.1904762
0.2063492 0.0158730 -0.2063492
0.2222222 0.0000000 -0.2222222
0.2380952 -0.0158730 -0.2380952
0.2539683 -0.0317460 -0.2539683
0.2698413 -0.0476190 -0.2698413
0.2857143 -0.0634921 -0.2857143
0.3015873 -0.0793651 -0.3015873
0.3174603 -0.0952381 -0.3174603
0.3333333 -0.1111111 -0.3333333
0.3492063 -0.1269841 -0.3492063
0.3650794 -0.1428571 -0.3650794
0.3809524 -0.1587302 -0.3809524
0.3968254 -0.1746032 -0.3968254
0.4126984 -0.1904762 -0.4126984
0.4285714 -0.2063492 -0.4285714
0.4444444 -0.2222222 -0.4444444
0.4603175 -0.2380952 -0.4603175
0.4761905 -0.2539683 -0.4761905
0.4920635 -0.2698413 -0.4920635
0.5079365 -0.2857143 -0.5079365
0.5238095 -0.3015873 -0.5238095
0.5396825 -0.3174603 -0.5396825
0.5555556 -0.3333333 -0.5555556
0.5714286 -0.3492063 -0.5714286
0.5873016 -0.3650794 -0.5873016
0.6031746 -0.3809524 -0.6031746
0.6190476 -0.3968254 -0.6190476
0.6349206 -0.4126984 -0.6349206
0.6507937 -0.4285714 -0.6507937
0.6666667 -0.4444444 -0.6666667
0.6825397 -0.4603175 -0.6825397
0.6984127 -0.4761905 -0.6984127
0.7142857 -0.4920635 -0.7142857
0.7301587 -0.5079365 -0.7301587
0.7460317 -0.5238095 -0.7460317
0.7619048 -0.5396825 -0.7619048
0.7777778 -0.5555556 -0.7777778
0.7936508 -0.5714286 -0.7936508
0.8095238 -0.5873016 -0.8095238
0.8253968 -0.6031746 -0.8253968
0.8412698 -0.6190476 -0.8412698
0.8571429 -0.6349206 -0.8571429
0.8730159 -0.6507937 -0.8730159
0.8888889 -0.6666667 -0.8888889
0.9047619 -0.6825397 -0.9047619
0.9206349 -0.6984127 -0.9206349
0.9365079 -0.7142857 -0.9365079
0.9523810 -0.7301587 -0.9523810
0.9682540 -0.7460317 -0.9682540
0.9841270 -0.7619048 -0.9841270
1.0000000 -0.7777778 -1.0000000
-0.1269841 0.1269841 -0.1269841
-0.0952381 0.1269841 -0.1269841
-0.0634921 0.1269841 -0.1269841
-0.0317460 0.1269841 -0.1269841
0.0000000 0.1269841 -0.1269841
0.0317460 0.1269841 -0.1269841
0.0634921 0.1269841 -0.1269841
0.0952381 0.1269841 -0.1269841
0.1269841 0.1269841 -0.1269841
0.1428571 0.1111111 -0.1428571
0.1587302 0.0952381 -0.1587302
0.1746032 0.0793651 -0.1746032
0.1904762 0.0634921 -0.1904762
0.2063492 0.0476190 -0.2063492
0.2222222 0.0317460 -0.2222222
0.2380952 0.0158730 -0.2380952
0.2539683 0.0000000 -0.2539683
0.2698413 -0.0158730 -0.2698413
0.2857143 -0.0317460 -0.2857143
0.3015873 -0.0476190 -0.3015873
0.3174603 -0.0634921 -0.3174603
0.3333333 -0.0793651 -0.3333333
0.3492063 -0.0952381 -0.3492063
0.3650794 -0.1111111 -0.3650794
0.3809524 -0.1269841 -0.3809524
0.3968254 -0.1428571 -0.3968254
0.4126984 -0.1587302 -0.4126984
0.4285714 -0.1746032 -0.4285714
0.4444444 -0.1904762 -0.4444444
0.4603175 -0.2063492 -0.4603175
0.4761905 -0.2222222 -0.4761905
0.4920635 -0.2380952 -0.4920635
0.5079365 -0.2539683 -0.5079365
0.5238095 -0.2698413 -0.5238095
0.5396825 -0.2857143 -0.5396825
0.5555556 -0.3015873 -0.5555556
0.5714286 -0.3174603 -0.5714286
0.5873016 -0.3333333 -0.5873016
0.6031746 -0.3492063 -0.6031746
0.6190476 -0.3650794 -0.6190476
0.6349206 -0.3809524 -0.6349206
0.6507937 -0.3968254 -0.6507937
0.6666667 -0.4126984 -0.6666667
0.6825397 -0.4285714 -0.6825397
0.6984127 -0.4444444 -0.6984127
0.7142857 -0.4603175 -0.7142857
0.7301587 -0.4761905 -0.7301587
0.7460317 -0.4920635 -0.7460317
0.7619048 -0.5079365 -0.7619048
0.7777778 -0.5238095 -0.7777778
0.7936508 -0.5396825 -0.7936508
0.8095238 -0.5555556 -0.8095238
0.8253968 -0.5714286 -0.8253968
0.8412698 -0.5873016 -0.8412698
0.8571429 -0.6031746 -0.8571429
0.8730159 -0.6190476 -0.8730159
0.8888889 -0.6349206 -0.8888889
0.9047619 -0.6507937 -0.9047619
0.9206349 -0.6666667 -0.9206349
0.9365079 -0.6825397 -0.9365079
0.9523810 -0.6984127 -0.9523810
0.9682540 -0.7142857 -0.9682540
0.9841270 -0.7301587 -0.9841270
1.0000000 -0.7460317 -1.0000000
-0.1428571 0.1428571 -0.1428571
-0.1111111 0.1428571 -0.1428571
-0.0793651 0.1428571 -0.1428571
-0.0476190 0.1428571 -0.1428571
-0.0158730 0.1428571 -0.1428571
0.0158730 0.1428571 -0.1428571
0.0476190 0.1428571 -0.1428571
0.0793651 0.1428571 -0.1428571
0.1111111 0.1428571 -0.1428571
0.1428571 0.1428571 -0.1428571
0.1587302 0.1269841 -0.1587302
0.1746032 0.1111111 -0.1746032
0.1904762 0.0952381 -0.1904762
0.2063492 0.0793651 -0.2063492
0.2222222 0.0634921 -0.2222222
0.2380952 0.0476190 -0.2380952
0.2539683 0.0317460 -0.2539683
0.2698413 0.0158730 -0.2698413
0.2857143 0.0000000 -0.2857143
0.3015873 -0.0158730 -0.3015873
0.3174603 -0.0317460 -0.3174603
0.3333333 -0.0476190 -0.3333333
0.3492063 -0.0634921 -0.3492063
0.3650794 -0.0793651 -0.3650794
0.3809524 -0.0952381 -0.3809524
0.3968254 -0.1111111 -0.3968254
0.4126984 -0.1269841 -0.4126984
0.4285714 -0.1428571 -0.4285714
0.4444444 -0.1587302 -0.4444444
0.4603175 -0.1746032 -0.4603175
0.4761905 -0.1904762 -0.4761905
0.4920635 -0.2063492 -0.4920635
0.5079365 -0.2222222 -0.5079365
0.5238095 -0.2380952 -0.5238095
0.5396825 -0.2539683 -0.5396825
0.5555556 -0.2698413 -0.5555556
0.5714286 -0.2857143 -0.5714286
0.5873016 -0.3015873 -0.5873016
0.6031746 -0.3174603 -0.6031746
0.6190476 -0.3333333 -0.6190476
0.6349206 -0.3492063 -0.6349206
0.6507937 -0.3650794 -0.6507937
0.6666667 -0.3809524 -0.6666667
0.6825397 -0.3968254 -0.6825397
0.6984127 -0.4126984 -0.6984127
0.7142857 -0.4285714 -0.7142857
0.7301587 -0.4444444 -0.7301587
0.7460317 -0.4603175 -0.7460317
0.7619048 -0.4761905 -0.7619048
0.7777778 -0.4920635 -0.7777778
0.7936508 -0.5079365 -0.7936508
0.8095238 -0.5238095 -0.8095238
0.8253968 -0.5396825 -0.8253968
0.8412698 -0.5555556 -0.8412698
0.8571429 -0.5714286 -0.8571429
0.8730159 -0.5873016 -0.8730159
0.8888889 -0.6031746 -0.8888889
0.9047619 -0.6190476 -0.9047619
0.9206349 -0.6349206 -0.9206349
0.9365079 -0.6507937 -0.9365079
0.9523810 -0.6666667 -0.9523810
0.9682540 -0.6825397 -0.9682540
0.9841270 -0.6984127 -0.9841270
1.0000000 -0.7142857 -1.0000000
-0.1587302 0.1587302 -0.1587302
-0.1269841 0.1587302 -0.1587302
-0.0952381 0.1587302 -0.1587302
-0.0634921 0.1587302 -0.1587302
-0.0317460 0.1587302 -0.1587302
0.0000000 0.1587302 -0.1587302
0.0317460 0.1587302 -0.1587302
0.0634921 0.1587302 -0.1587302
0.0952381 0.1587302 -0.1587302
0.1269841 0.1587302 -0.1587302
0.1587302 0.1587302 -0.1587302
0.1746032 0.1428571 -0.1746032
0.1904762 0.1269841 -0.1904762
0.2063492 0.1111111 -0.2063492
0.2222222 0.0952381 -0.2222222
0.2380952 0.0793651 -0.2380952
0.2539683 0.0634921 -0.2539683
0.2698413 0.0476190 -0.2698413
0.2857143 0.0317460 -0.2857143
0.3015873 0.0158730 -0.3015873
0.3174603 0.0000000 -0.3174603
0.3333333 -0.0158730 -0.3333333
0.3492063 -0.0317460 -0.3492063
0.3650794 -0.0476190 -0.3650794
0.3809524 -0.0634921 -0.3809524
0.3968254 -0.0793651 -0.3968254
0.4126984 -0.0952381 -0.4126984
0.4285714 -0.1111111 -0.4285714
0.4444444 -0.1269841 -0.4444444
0.4603175 -0.1428571 -0.4603175
0.4761905 -0.1587302 -0.4761905
0.4920635 -0.1746032 -0.4920635
0.5079365 -0.1904762 -0.5079365
0.5238095 -0.2063492 -0.5238095
0.5396825 -0.2222222 -0.5396825
0.5555556 -0.2380952 -0.5555556
0.5714286 -0.2539683 -0.5714286
0.5873016 -0.2698413 -0.5873016
0.6031746 -0.2857143 -0.6031746
0.6190476 -0.3015873 -0.6190476
0.6349206 -0.3174603 -0.6349206
0.6507937 -0.3333333 -0.6507937
0.6666667 -0.3492063 -0.6666667
0.6825397 -0.3650794 -0.6825397
0.6984127 -0.3809524 -0.6984127
0.7142857 -0.3968254 -0.7142857
0.7301587 -0.4126984 -0.7301587
0.7460317 -0.4285714 -0.7460317
0.7619048 -0.4444444 -0.7619048
0.7777778 -0.4603175 -0.7777778
0.7936508 -0.4761905 -0.7936508
0.8095238 -0.4920635 -0.8095238
0.8253968 -0.5079365 -0.8253968
0.8412698 -0.5238095 -0.8412698
0.8571429 -0.5396825 -0.8571429
0.8730159 -0.5555556 -0.8730159
0.8888889 -0.5714286 -0.8888889
0.9047619 -0.5873016 -0.9047619
0.9206349 -0.6031746 -0.9206349
0.9365079 -0.6190476 -0.9365079
0.9523810 -0.6349206 -0.9523810
0.9682540 -0.6507937 -0.9682540
0.9841270 -0.6666667 -0.9841270
1.0000000 -0.6825397 -1.0000000
-0.1746032 0.1746032 -0.1746032
-0.1428571 0.1746032 -0.1746032
-0.1111111 0.1746032 -0.1746032
-0.0793651 0.1746032 -0.1746032
-0.0476190 0.1746032 -0.1746032
-0.0158730 0.1746032 -0.1746032
0.0158730 0.1746032 -0.1746032
0.0476190 0.1746032 -0.1746032
0.0793651 0.1746032 -0.1746032
0.1111111 0.1746032 -0.1746032
0.1428571 0.1746032 -0.1746032
0.1746032 0.1746032 -0.1746032
0.1904762 0.1587302 -0.1904762
0.2063492 0.1428571 -0.2063492
0.2222222 0.1269841 -0.2222222
0.2380952 0.1111111 -0.2380952
0.2539683 0.0952381 -0.2539683
0.2698413 0.0793651 -0.2698413
0.2857143 0.0634921 -0.2857143
0.3015873 0.0476190 -0.3015873
0.3174603 0.0317460 -0.3174603
0.3333333 0.0158730 -0.3333333
0.3492063 0.0000000 -0.3492063
0.3650794 -0.0158730 -0.3650794
0.3809524 -0.0317460 -0.3809524
0.3968254 -0.0476190 -0.3968254
0.4126984 -0.0634921 -0.4126984
0.4285714 -0.0793651 -0.4285714
0.4444444 -0.0952381 -0.4444444
0.4603175 -0.1111111 -0.4603175
0.4761905 -0.1269841 -0.4761905
0.4920635 -0.1428571 -0.4920635
0.5079365 -0.1587302 -0.5079365
0.5238095 -0.1746032 -0.5238095
0.5396825 -0.1904762 -0.5396825
0.5555556 -0.2063492 -0.5555556
0.5714286 -0.2222222 -0.5714286
0.5873016 -0.2380952 -0.5873016
0.6031746 -0.2539683 -0.6031746
0.6190476 -0.2698413 -0.6190476
0.6349206 -0.2857143 -0.6349206
0.6507937 -0.3015873 -0.6507937
0.6666667 -0.3174603 -0.6666667
0.6825397 -0.3333333 -0.6825397
0.6984127 -0.3492063 -0.6984127
0.7142857 -0.3650794 -0.7142857
